;FLAVOR:Marlin
;TIME:5141
;Filament used: 5.27713m
;Layer height: 0.2
;Generated with Cura_SteamEngine 3.2.1
M190 S60
M104 S200
M109 S200
M82 ;absolute extrusion mode
G21 ;metric values
G90 ;absolute positioning
M82 ;set extruder to absolute mode
M107 ;start with the fan off
G28 X0 Y0 ;move X/Y to min endstops
G28 Z0 ;move Z to min endstops
G1 Z15.0 F9000 ;move the platform down 15mm
G92 E0 ;zero the extruded length
G1 F200 E3 ;extrude 3mm of feed stock
G92 E0 ;zero the extruded length again
G1 F9000
;Put printing message on LCD screen
M117 Printing...
;LAYER_COUNT:65
;LAYER:0
M107
G0 F3600 X64.323 Y70.831 Z0.3
;TYPE:SKIRT
G1 F1800 X64.93 Y70.326 E0.03939
G1 X65.586 Y69.886 E0.0788
G1 X66.282 Y69.513 E0.1182
G1 X67.012 Y69.213 E0.15757
G1 X67.769 Y68.989 E0.19696
G1 X68.545 Y68.842 E0.23636
G1 X69.607 Y68.769 E0.28947
G1 X81.229 Y68.769 E0.86929
G1 X82.018 Y68.809 E0.90871
G1 X82.43 Y68.872 E0.9295
G1 X82.553 Y68.848 E0.93575
G1 X83.65 Y68.77 E0.99062
G1 X89.965 Y68.769 E1.30568
G1 X90.753 Y68.809 E1.34504
G1 X91.294 Y68.891 E1.37234
G1 X91.964 Y68.799 E1.40608
G1 X92.642 Y68.769 E1.43994
G1 X99.501 Y68.769 E1.78214
G1 X100.29 Y68.809 E1.82155
G1 X101.07 Y68.928 E1.86092
G1 X101.835 Y69.126 E1.90034
G1 X102.575 Y69.4 E1.93971
G1 X103.284 Y69.748 E1.97911
G1 X103.955 Y70.166 E2.01855
G1 X104.281 Y70.405 E2.03872
G1 X104.731 Y70.754 E2.06713
G1 X104.874 Y70.877 E2.07654
G1 X105.033 Y70.721 E2.08765
G1 X105.651 Y70.229 E2.12706
G1 X106.315 Y69.802 E2.16645
G1 X107.019 Y69.444 E2.20585
G1 X107.756 Y69.16 E2.24526
G1 X108.518 Y68.951 E2.28468
G1 X109.296 Y68.821 E2.32403
G1 X110.195 Y68.769 E2.36895
G1 X131.5 Y68.771 E3.43187
G1 X132.288 Y68.811 E3.47123
G1 X133.069 Y68.931 E3.51065
G1 X133.833 Y69.129 E3.55003
G1 X134.574 Y69.403 E3.58944
G1 X135.283 Y69.75 E3.62882
G1 X135.953 Y70.168 E3.66822
G1 X136.578 Y70.651 E3.70763
G1 X137.15 Y71.195 E3.74701
G1 X137.665 Y71.794 E3.78642
G1 X138.116 Y72.442 E3.82581
G1 X138.5 Y73.132 E3.86521
G1 X138.812 Y73.858 E3.90463
G1 X139.049 Y74.611 E3.94401
G1 X139.173 Y75.174 E3.97277
G1 X139.708 Y78.112 E4.12176
G1 X139.81 Y78.895 E4.16116
G1 X139.832 Y79.684 E4.20054
G1 X139.774 Y80.472 E4.23996
G1 X139.637 Y81.249 E4.27932
G1 X139.422 Y82.009 E4.31872
G1 X139.132 Y82.743 E4.3581
G1 X138.768 Y83.445 E4.39755
G1 X138.49 Y83.887 E4.4236
G1 X136.195 Y87.272 E4.62763
G1 X136.71 Y87.831 E4.66555
G1 X137.182 Y88.464 E4.70495
G1 X137.589 Y89.141 E4.74435
G1 X137.925 Y89.855 E4.78372
G1 X138.187 Y90.6 E4.82312
G1 X138.206 Y90.678 E4.82713
G1 X138.349 Y90.718 E4.83454
G1 X139.084 Y91.009 E4.87398
G1 X139.785 Y91.372 E4.91336
G1 X140.446 Y91.804 E4.95275
G1 X141.06 Y92.301 E4.99216
G1 X141.621 Y92.857 E5.03157
G1 X142.105 Y93.445 E5.06957
G1 X145.591 Y98.119 E5.36047
G1 X146.031 Y98.775 E5.39987
G1 X146.402 Y99.472 E5.43927
G1 X146.7 Y100.203 E5.47865
G1 X146.923 Y100.961 E5.51807
G1 X147.069 Y101.737 E5.55746
G1 X147.135 Y102.524 E5.59687
G1 X147.121 Y103.313 E5.63624
G1 X147.027 Y104.097 E5.67563
G1 X146.921 Y104.614 E5.70196
G1 X146.597 Y105.955 E5.77079
G1 X146.373 Y106.712 E5.81017
G1 X146.073 Y107.443 E5.84959
G1 X145.84 Y107.879 E5.87426
G1 X150.204 Y109.373 E6.10438
G1 X150.937 Y109.667 E6.14379
G1 X151.637 Y110.032 E6.18317
G1 X152.296 Y110.467 E6.22257
G1 X152.908 Y110.966 E6.26196
G1 X153.466 Y111.525 E6.30137
G1 X154.004 Y112.19 E6.34404
G1 X155.959 Y114.9 E6.51075
G1 X156.388 Y115.563 E6.55015
G1 X156.748 Y116.266 E6.58955
G1 X157.034 Y117.001 E6.6289
G1 X157.245 Y117.762 E6.6683
G1 X157.378 Y118.541 E6.70773
G1 X157.432 Y119.329 E6.74713
G1 X157.405 Y120.118 E6.78652
G1 X157.299 Y120.9 E6.82589
G1 X157.115 Y121.668 E6.86529
G1 X156.984 Y122.072 E6.88648
G1 X155.899 Y125.127 E7.04822
G1 X156.021 Y125.244 E7.05665
G1 X156.531 Y125.846 E7.09602
G1 X156.978 Y126.497 E7.13542
G1 X157.357 Y127.19 E7.17482
G1 X157.664 Y127.917 E7.21419
G1 X157.896 Y128.672 E7.2536
G1 X158.05 Y129.447 E7.29302
G1 X158.125 Y130.233 E7.33241
G1 X158.106 Y131.235 E7.38241
G1 X157.197 Y142.033 E7.92303
G1 X157.091 Y142.816 E7.96245
G1 X156.906 Y143.584 E8.00186
G1 X156.645 Y144.329 E8.04125
G1 X156.309 Y145.044 E8.08066
G1 X155.904 Y145.721 E8.12002
G1 X155.431 Y146.354 E8.15944
G1 X154.897 Y146.936 E8.19885
G1 X154.308 Y147.461 E8.23821
G1 X153.401 Y148.089 E8.29325
G1 X149.978 Y150.118 E8.49177
G1 X149.279 Y150.486 E8.53118
G1 X148.547 Y150.781 E8.57056
G1 X147.788 Y151 E8.60997
G1 X147.012 Y151.142 E8.64932
G1 X146.224 Y151.205 E8.68876
G1 X145.435 Y151.187 E8.72814
G1 X144.651 Y151.09 E8.76755
G1 X143.859 Y150.908 E8.80809
G1 X115.421 Y142.785 E10.28361
G1 X114.673 Y142.53 E10.32304
G1 X113.956 Y142.201 E10.3624
G1 X113.275 Y141.8 E10.40183
G1 X112.638 Y141.334 E10.4412
G1 X112.052 Y140.805 E10.48059
G1 X111.522 Y140.219 E10.52001
G1 X111.054 Y139.583 E10.5594
G1 X110.653 Y138.903 E10.59879
G1 X110.322 Y138.185 E10.63823
G1 X109.992 Y137.161 E10.69191
G1 X105.956 Y120.873 E11.52909
G1 X105.815 Y120.152 E11.56575
G1 X105.803 Y120.126 E11.56717
G1 X105.502 Y119.281 E11.61193
G1 X104.347 Y115.336 E11.81701
G1 X101.602 Y112.212 E12.02448
G1 X101.111 Y111.593 E12.0639
G1 X100.985 Y111.396 E12.07557
G1 X100.597 Y111.047 E12.1016
G1 X100.242 Y110.67 E12.12744
G1 X97.061 Y107.051 E12.36782
G1 X96.571 Y106.432 E12.40721
G1 X96.436 Y106.221 E12.41971
G1 X96.135 Y105.96 E12.43958
G1 X95.677 Y105.482 E12.47261
G1 X92.401 Y101.754 E12.72021
G1 X91.91 Y101.135 E12.75963
G1 X91.753 Y100.889 E12.77419
G1 X91.445 Y100.623 E12.79449
G1 X90.981 Y100.139 E12.82794
G1 X87.881 Y96.618 E13.06199
G1 X87.39 Y96 E13.10136
G1 X87.249 Y95.78 E13.1144
G1 X86.878 Y95.447 E13.13927
G1 X86.602 Y95.154 E13.15935
G1 X84.885 Y94.266 E13.25579
G1 X84.202 Y93.868 E13.29523
G1 X83.985 Y93.71 E13.30862
G1 X83.606 Y93.573 E13.32873
G1 X83.034 Y93.305 E13.36024
G1 X78.45 Y90.928 E13.61786
G1 X77.769 Y90.53 E13.65721
G1 X77.512 Y90.343 E13.67307
G1 X77.39 Y90.306 E13.67943
G1 X76.536 Y89.945 E13.72569
G1 X66.788 Y85.122 E14.26829
G1 X66.099 Y84.737 E14.30766
G1 X65.452 Y84.283 E14.3471
G1 X64.855 Y83.767 E14.38646
G1 X64.313 Y83.193 E14.42585
G1 X63.831 Y82.567 E14.46527
G1 X63.415 Y81.895 E14.5047
G1 X63.029 Y81.088 E14.54933
G1 X62.389 Y79.526 E14.63354
G1 X62.127 Y78.781 E14.67294
G1 X61.942 Y78.014 E14.7123
G1 X61.835 Y77.231 E14.75173
G1 X61.808 Y76.442 E14.79112
G1 X61.861 Y75.654 E14.83052
G1 X61.993 Y74.876 E14.86989
G1 X62.203 Y74.114 E14.90932
G1 X62.489 Y73.378 E14.94872
G1 X62.848 Y72.675 E14.9881
G1 X63.277 Y72.012 E15.0275
G1 X63.77 Y71.395 E15.0669
G1 X64.323 Y70.831 E15.10631
G0 F3600 X64.773 Y70.966
G1 F1800 X65.381 Y70.494 E15.14471
G1 X66.034 Y70.089 E15.18304
G1 X66.726 Y69.753 E15.22142
G1 X67.449 Y69.491 E15.25979
G1 X68.196 Y69.305 E15.29819
G1 X68.957 Y69.198 E15.33653
G1 X69.607 Y69.169 E15.36899
G1 X81.229 Y69.169 E15.94882
G1 X81.997 Y69.209 E15.98718
G1 X82.445 Y69.279 E16.00981
G1 X82.847 Y69.214 E16.03012
G1 X83.65 Y69.17 E16.07024
G1 X89.965 Y69.169 E16.3853
G1 X90.733 Y69.209 E16.42367
G1 X91.301 Y69.298 E16.45235
G1 X91.453 Y69.265 E16.46011
G1 X92.218 Y69.181 E16.49851
G1 X92.642 Y69.169 E16.51967
G1 X99.501 Y69.169 E16.86187
G1 X100.269 Y69.209 E16.90023
G1 X101.029 Y69.328 E16.93861
G1 X101.772 Y69.526 E16.97697
G1 X102.491 Y69.8 E17.01536
G1 X103.177 Y70.147 E17.05372
G1 X104.036 Y70.722 E17.10529
G1 X104.486 Y71.071 E17.1337
G1 X104.888 Y71.417 E17.16016
G1 X105.373 Y70.955 E17.19358
G1 X105.982 Y70.485 E17.23196
G1 X106.636 Y70.08 E17.27033
G1 X107.329 Y69.746 E17.30871
G1 X108.053 Y69.486 E17.34709
G1 X108.799 Y69.302 E17.38543
G1 X109.561 Y69.196 E17.42381
G1 X110.195 Y69.169 E17.45547
G1 X131.5 Y69.171 E18.51838
G1 X132.268 Y69.211 E18.55675
G1 X133.028 Y69.331 E18.59513
G1 X133.771 Y69.528 E18.63348
G1 X134.49 Y69.802 E18.67187
G1 X135.176 Y70.149 E18.71022
G1 X135.823 Y70.566 E18.74863
G1 X136.423 Y71.047 E18.78699
G1 X136.97 Y71.588 E18.82537
G1 X137.457 Y72.183 E18.86373
G1 X137.881 Y72.825 E18.90212
G1 X138.235 Y73.507 E18.94045
G1 X138.517 Y74.223 E18.97885
G1 X138.779 Y75.245 E19.03148
G1 X139.314 Y78.183 E19.18047
G1 X139.413 Y78.946 E19.21886
G1 X139.431 Y79.715 E19.25723
G1 X139.37 Y80.482 E19.29562
G1 X139.229 Y81.238 E19.33399
G1 X139.011 Y81.975 E19.37233
G1 X138.717 Y82.686 E19.41072
G1 X138.159 Y83.662 E19.4668
G1 X135.668 Y87.335 E19.68822
G1 X135.966 Y87.606 E19.70831
G1 X136.478 Y88.179 E19.74665
G1 X136.927 Y88.803 E19.785
G1 X137.31 Y89.471 E19.82342
G1 X137.621 Y90.174 E19.86177
G1 X137.857 Y90.906 E19.90014
G1 X137.877 Y91 E19.90494
G1 X138.316 Y91.13 E19.92778
G1 X139.027 Y91.423 E19.96614
G1 X139.704 Y91.789 E20.00454
G1 X140.339 Y92.223 E20.04291
G1 X140.925 Y92.72 E20.08125
G1 X141.457 Y93.276 E20.11964
G1 X141.785 Y93.684 E20.14576
G1 X145.271 Y98.358 E20.43666
G1 X145.698 Y98.997 E20.475
G1 X146.057 Y99.678 E20.51341
G1 X146.342 Y100.392 E20.55176
G1 X146.553 Y101.132 E20.59015
G1 X146.685 Y101.89 E20.62854
G1 X146.738 Y102.657 E20.66689
G1 X146.711 Y103.426 E20.70528
G1 X146.532 Y104.52 E20.76059
G1 X146.208 Y105.861 E20.82942
G1 X145.989 Y106.598 E20.86777
G1 X145.694 Y107.309 E20.90618
G1 X145.327 Y107.985 E20.94455
G1 X145.248 Y108.1 E20.95151
G1 X150.074 Y109.752 E21.206
G1 X150.788 Y110.038 E21.24437
G1 X151.468 Y110.397 E21.28274
G1 X152.108 Y110.825 E21.32115
G1 X152.699 Y111.317 E21.35951
G1 X153.236 Y111.868 E21.3979
G1 X153.679 Y112.424 E21.43337
G1 X155.634 Y115.134 E21.60008
G1 X156.051 Y115.78 E21.63844
G1 X156.399 Y116.466 E21.67682
G1 X156.673 Y117.185 E21.7152
G1 X156.872 Y117.928 E21.75358
G1 X156.992 Y118.687 E21.79191
G1 X157.033 Y119.455 E21.83028
G1 X156.994 Y120.224 E21.8687
G1 X156.875 Y120.984 E21.90708
G1 X156.607 Y121.939 E21.95656
G1 X155.437 Y125.235 E22.13105
G1 X155.784 Y125.576 E22.15533
G1 X156.274 Y126.169 E22.19371
G1 X156.7 Y126.809 E22.23206
G1 X157.057 Y127.49 E22.27042
G1 X157.341 Y128.205 E22.3088
G1 X157.55 Y128.945 E22.34717
G1 X157.681 Y129.703 E22.38554
G1 X157.732 Y130.471 E22.42394
G1 X157.707 Y131.202 E22.46044
G1 X156.798 Y142 E23.00106
G1 X156.694 Y142.762 E23.03942
G1 X156.511 Y143.509 E23.07779
G1 X156.251 Y144.233 E23.11617
G1 X155.918 Y144.926 E23.15453
G1 X155.515 Y145.581 E23.1929
G1 X155.046 Y146.191 E23.23129
G1 X154.516 Y146.748 E23.26965
G1 X153.931 Y147.248 E23.30804
G1 X153.197 Y147.745 E23.35226
G1 X149.774 Y149.774 E23.55079
G1 X149.093 Y150.131 E23.58915
G1 X148.379 Y150.416 E23.6275
G1 X147.638 Y150.625 E23.66591
G1 X146.88 Y150.756 E23.70429
G1 X146.113 Y150.807 E23.74264
G1 X145.344 Y150.779 E23.78103
G1 X144.583 Y150.671 E23.81938
G1 X143.969 Y150.523 E23.85089
G1 X115.531 Y142.4 E25.32641
G1 X114.803 Y142.151 E25.3648
G1 X114.105 Y141.827 E25.40319
G1 X113.445 Y141.433 E25.44154
G1 X112.829 Y140.972 E25.47992
G1 X112.264 Y140.45 E25.5183
G1 X111.757 Y139.872 E25.55666
G1 X111.312 Y139.245 E25.59502
G1 X110.934 Y138.575 E25.63339
G1 X110.629 Y137.869 E25.67176
G1 X110.38 Y137.065 E25.71375
G1 X106.344 Y120.777 E26.55094
G1 X106.198 Y120.022 E26.58931
G1 X106.196 Y120.003 E26.59026
G1 X106.061 Y119.692 E26.60717
G1 X105.886 Y119.169 E26.63469
G1 X104.706 Y115.139 E26.84419
G1 X101.902 Y111.948 E27.05612
G1 X101.425 Y111.344 E27.09452
G1 X101.298 Y111.144 E27.10634
G1 X101.238 Y111.097 E27.11014
G1 X100.543 Y110.405 E27.15907
G1 X97.362 Y106.786 E27.39945
G1 X96.885 Y106.183 E27.43781
G1 X96.76 Y105.986 E27.44945
G1 X95.977 Y105.218 E27.50417
G1 X92.701 Y101.49 E27.75177
G1 X92.224 Y100.886 E27.79017
G1 X92.072 Y100.647 E27.8043
G1 X92.055 Y100.634 E27.80537
G1 X91.281 Y99.875 E27.85945
G1 X88.181 Y96.354 E28.09349
G1 X87.703 Y95.751 E28.13188
G1 X87.56 Y95.525 E28.14523
G1 X87.458 Y95.444 E28.15172
G1 X86.85 Y94.832 E28.19476
G1 X85.068 Y93.91 E28.29486
G1 X84.404 Y93.522 E28.33323
G1 X84.2 Y93.372 E28.34586
G1 X84.18 Y93.366 E28.34691
G1 X83.219 Y92.95 E28.39915
G1 X78.635 Y90.573 E28.65676
G1 X77.971 Y90.184 E28.69516
G1 X77.689 Y89.976 E28.71264
G1 X77.206 Y89.808 E28.73815
G1 X76.713 Y89.587 E28.76511
G1 X66.965 Y84.764 E29.30771
G1 X66.295 Y84.387 E29.34606
G1 X65.667 Y83.943 E29.38443
G1 X65.088 Y83.436 E29.42283
G1 X64.565 Y82.872 E29.4612
G1 X64.104 Y82.257 E29.49955
G1 X63.709 Y81.597 E29.53792
G1 X63.399 Y80.937 E29.5743
G1 X62.759 Y79.375 E29.65852
G1 X62.505 Y78.649 E29.69689
G1 X62.328 Y77.9 E29.73529
G1 X62.229 Y77.138 E29.77362
G1 X62.21 Y76.369 E29.812
G1 X62.27 Y75.602 E29.85038
G1 X62.41 Y74.846 E29.88874
G1 X62.628 Y74.108 E29.92713
G1 X62.921 Y73.397 E29.9655
G1 X63.287 Y72.72 E30.00389
G1 X63.72 Y72.085 E30.04224
G1 X64.218 Y71.498 E30.08064
G1 X64.773 Y70.966 E30.119
G0 F3600 X64.666 Y71.61
G1 F1800 X65.224 Y71.111 E30.15635
G1 X65.831 Y70.675 E30.19363
G1 X66.482 Y70.305 E30.23099
G1 X67.168 Y70.008 E30.26828
G1 X67.882 Y69.785 E30.3056
G1 X68.616 Y69.64 E30.34293
G1 X69.607 Y69.569 E30.3925
G1 X81.229 Y69.569 E30.97232
G1 X81.976 Y69.609 E31.00964
G1 X82.42 Y69.681 E31.03208
G1 X83.136 Y69.589 E31.0681
G1 X83.65 Y69.57 E31.09376
G1 X89.965 Y69.569 E31.40882
G1 X90.712 Y69.609 E31.44614
G1 X91.314 Y69.706 E31.47656
G1 X91.72 Y69.63 E31.49717
G1 X92.642 Y69.569 E31.54326
G1 X99.501 Y69.569 E31.88546
G1 X100.248 Y69.609 E31.92278
G1 X100.986 Y69.728 E31.96008
G1 X101.708 Y69.926 E31.99743
G1 X102.404 Y70.199 E32.03473
G1 X103.067 Y70.546 E32.07206
G1 X103.791 Y71.038 E32.11573
G1 X104.241 Y71.387 E32.14414
G1 X104.807 Y71.876 E32.18146
G1 X104.913 Y71.99 E32.18923
G1 X105.164 Y71.701 E32.20832
G1 X105.712 Y71.192 E32.24564
G1 X106.311 Y70.744 E32.28296
G1 X106.955 Y70.363 E32.32029
G1 X107.636 Y70.053 E32.35762
G1 X108.346 Y69.817 E32.39494
G1 X109.077 Y69.659 E32.43226
G1 X109.821 Y69.579 E32.46959
G1 X110.195 Y69.569 E32.48825
G1 X131.5 Y69.571 E33.55116
G1 X132.247 Y69.611 E33.58849
G1 X132.985 Y69.731 E33.62579
G1 X133.707 Y69.928 E33.66313
G1 X134.403 Y70.202 E33.70044
G1 X135.066 Y70.548 E33.73775
G1 X135.688 Y70.963 E33.77506
G1 X136.263 Y71.442 E33.8124
G1 X136.783 Y71.98 E33.84972
G1 X137.243 Y72.57 E33.88705
G1 X137.637 Y73.206 E33.92437
G1 X137.961 Y73.88 E33.96168
G1 X138.211 Y74.585 E33.999
G1 X138.386 Y75.317 E34.03655
G1 X138.921 Y78.255 E34.18554
G1 X139.015 Y78.997 E34.22285
G1 X139.03 Y79.745 E34.26018
G1 X138.965 Y80.49 E34.29749
G1 X138.821 Y81.224 E34.33481
G1 X138.599 Y81.939 E34.37216
G1 X138.302 Y82.625 E34.40945
G1 X137.828 Y83.438 E34.4564
G1 X135.141 Y87.401 E34.69528
G1 X135.206 Y87.45 E34.69934
G1 X135.753 Y87.96 E34.73665
G1 X136.242 Y88.527 E34.77401
G1 X136.668 Y89.142 E34.81133
G1 X137.025 Y89.799 E34.84864
G1 X137.311 Y90.49 E34.88595
G1 X137.521 Y91.208 E34.92327
G1 X137.54 Y91.316 E34.92874
G1 X137.565 Y91.321 E34.93001
G1 X138.279 Y91.542 E34.9673
G1 X138.966 Y91.838 E35.00462
G1 X139.617 Y92.206 E35.04193
G1 X140.226 Y92.642 E35.0793
G1 X140.784 Y93.14 E35.11661
G1 X141.464 Y93.923 E35.16835
G1 X144.95 Y98.597 E35.45925
G1 X145.365 Y99.22 E35.49659
G1 X145.711 Y99.883 E35.53391
G1 X145.983 Y100.58 E35.57123
G1 X146.181 Y101.301 E35.60854
G1 X146.3 Y102.04 E35.64588
G1 X146.339 Y102.787 E35.6832
G1 X146.299 Y103.534 E35.72052
G1 X146.143 Y104.426 E35.7657
G1 X145.819 Y105.767 E35.83452
G1 X145.605 Y106.484 E35.87186
G1 X145.315 Y107.173 E35.90915
G1 X144.954 Y107.828 E35.94646
G1 X144.619 Y108.307 E35.97562
G1 X149.945 Y110.13 E36.25647
G1 X150.639 Y110.41 E36.29381
G1 X151.299 Y110.762 E36.33113
G1 X151.917 Y111.183 E36.36843
G1 X152.488 Y111.667 E36.40578
G1 X153.003 Y112.209 E36.44308
G1 X153.355 Y112.658 E36.47154
G1 X155.31 Y115.368 E36.63826
G1 X155.715 Y115.997 E36.67558
G1 X156.05 Y116.666 E36.71291
G1 X156.312 Y117.366 E36.75019
G1 X156.497 Y118.091 E36.78752
G1 X156.604 Y118.831 E36.82483
