;FLAVOR:Marlin
;TIME:1428
;Filament used: 1.65601m
;Layer height: 0.2
;Generated with Cura_SteamEngine 3.2.1
M190 S60
M104 S200
M109 S200
M82 ;absolute extrusion mode
G21 ;metric values
G90 ;absolute positioning
M82 ;set extruder to absolute mode
M107 ;start with the fan off
G28 X0 Y0 ;move X/Y to min endstops
G28 Z0 ;move Z to min endstops
G1 Z15.0 F9000 ;move the platform down 15mm
G92 E0 ;zero the extruded length
G1 F200 E3 ;extrude 3mm of feed stock
G92 E0 ;zero the extruded length again
G1 F9000
;Put printing message on LCD screen
M117 Printing...
;LAYER_COUNT:110
;LAYER:0
M107
G0 F3600 X95.538 Y91.731 Z0.3
;TYPE:SKIRT
G1 F1800 X96.109 Y91.186 E0.03938
G1 X96.733 Y90.701 E0.07881
G1 X97.3 Y90.34 E0.11234
G1 X99.315 Y89.176 E0.22844
G1 X100.018 Y88.816 E0.26784
G1 X100.754 Y88.529 E0.30726
G1 X101.515 Y88.318 E0.34666
G1 X102.293 Y88.185 E0.38603
G1 X102.832 Y88.14 E0.41302
G1 X103.014 Y88.131 E0.42211
G1 X103.803 Y88.131 E0.46147
G1 X104.146 Y88.166 E0.47867
G1 X104.619 Y87.84 E0.50733
G1 X105.311 Y87.459 E0.54674
G1 X106.037 Y87.15 E0.58611
G1 X106.791 Y86.916 E0.6255
G1 X107.565 Y86.759 E0.6649
G1 X108.275 Y86.685 E0.70051
G1 X109.762 Y86.599 E0.77482
G1 X110.564 Y86.594 E0.81483
G1 X111.539 Y86.638 E0.86353
G1 X112.325 Y86.713 E0.90292
G1 X113.099 Y86.868 E0.9423
G1 X113.854 Y87.1 E0.98171
G1 X114.581 Y87.407 E1.02108
G1 X115.124 Y87.696 E1.05177
G1 X115.254 Y87.772 E1.05928
G1 X115.854 Y88.166 E1.09509
G1 X115.963 Y88.15 E1.10059
G1 X116.135 Y88.136 E1.1092
G1 X116.925 Y88.112 E1.14863
G1 X117.712 Y88.167 E1.18799
G1 X118.49 Y88.303 E1.22739
G1 X119.251 Y88.516 E1.26682
G1 X119.986 Y88.805 E1.30622
G1 X120.665 Y89.153 E1.34428
G1 X122.702 Y90.328 E1.4616
G1 X123.366 Y90.757 E1.50104
G1 X123.982 Y91.251 E1.54044
G1 X124.545 Y91.804 E1.57981
G1 X125.258 Y92.704 E1.63709
G1 X125.332 Y92.813 E1.64367
G1 X125.742 Y93.488 E1.68307
G1 X125.988 Y94.004 E1.71159
G1 X126.755 Y94.393 E1.75449
G1 X126.872 Y94.462 E1.76127
G1 X127.531 Y94.897 E1.80066
G1 X128.143 Y95.397 E1.84009
G1 X128.701 Y95.956 E1.8795
G1 X129.2 Y96.568 E1.91889
G1 X129.686 Y97.317 E1.96344
G1 X130.872 Y99.397 E2.08289
G1 X131.228 Y100.102 E2.1223
G1 X131.511 Y100.84 E2.16173
G1 X131.717 Y101.602 E2.20111
G1 X131.846 Y102.381 E2.2405
G1 X131.895 Y103.169 E2.27989
G1 X131.865 Y103.958 E2.31928
G1 X131.838 Y104.147 E2.32881
G1 X132 Y104.364 E2.34232
G1 X132.405 Y105.042 E2.38172
G1 X132.74 Y105.757 E2.42111
G1 X133.001 Y106.502 E2.4605
G1 X133.186 Y107.27 E2.49991
G1 X133.292 Y108.053 E2.53933
G1 X133.316 Y108.477 E2.56052
G1 X133.388 Y110.937 E2.6833
G1 X133.371 Y111.726 E2.72267
G1 X133.274 Y112.51 E2.76208
G1 X133.099 Y113.28 E2.80148
G1 X132.846 Y114.028 E2.84087
G1 X132.347 Y115.063 E2.8982
G1 X132.257 Y115.219 E2.90718
G1 X131.837 Y115.87 E2.94583
G1 X131.878 Y116.436 E2.97415
G1 X131.855 Y117.225 E3.01353
G1 X131.752 Y118.012 E3.05312
G1 X131.697 Y118.312 E3.06834
G1 X131.516 Y119.08 E3.10771
G1 X131.257 Y119.826 E3.1471
G1 X130.745 Y120.864 E3.20485
G1 X129.605 Y122.799 E3.31689
G1 X129.171 Y123.459 E3.3563
G1 X128.671 Y124.07 E3.39569
G1 X128.113 Y124.629 E3.43509
G1 X127.501 Y125.128 E3.47449
G1 X126.841 Y125.562 E3.5139
G1 X126.141 Y125.928 E3.55331
G1 X126.002 Y125.984 E3.56078
G1 X125.649 Y126.68 E3.59972
G1 X125.222 Y127.344 E3.6391
G1 X124.731 Y127.963 E3.67852
G1 X124.18 Y128.528 E3.71789
G1 X123.574 Y129.035 E3.75731
G1 X122.925 Y129.475 E3.79643
G1 X120.806 Y130.761 E3.9201
G1 X120.111 Y131.136 E3.95949
G1 X119.382 Y131.439 E3.99888
G1 X118.625 Y131.666 E4.03831
G1 X117.85 Y131.816 E4.07769
G1 X117.063 Y131.887 E4.11711
G1 X116.274 Y131.878 E4.15648
G1 X115.864 Y131.832 E4.17706
G1 X115.244 Y132.242 E4.21415
G1 X114.545 Y132.609 E4.25354
G1 X113.813 Y132.904 E4.29291
G1 X113.054 Y133.123 E4.33232
G1 X112.31 Y133.26 E4.37006
G1 X111.581 Y133.358 E4.40676
G1 X110.794 Y133.424 E4.44616
G1 X110.387 Y133.426 E4.46647
G1 X108.678 Y133.392 E4.55175
G1 X107.89 Y133.337 E4.59116
G1 X107.112 Y133.202 E4.63055
G1 X106.352 Y132.989 E4.66993
G1 X105.617 Y132.7 E4.70933
G1 X104.915 Y132.338 E4.74873
G1 X104.253 Y131.908 E4.78812
G1 X104.162 Y131.834 E4.79397
G1 X103.476 Y131.876 E4.82826
G1 X102.687 Y131.843 E4.86766
G1 X101.561 Y131.655 E4.92461
G1 X101.232 Y131.575 E4.9415
G1 X100.475 Y131.35 E4.9809
G1 X99.745 Y131.049 E5.0203
G1 X99.202 Y130.767 E5.05082
G1 X97.321 Y129.691 E5.15893
G1 X96.656 Y129.264 E5.19836
G1 X96.038 Y128.773 E5.23774
G1 X95.473 Y128.222 E5.27711
G1 X94.966 Y127.616 E5.31653
G1 X94.523 Y126.962 E5.35594
G1 X94.149 Y126.267 E5.39532
G1 X94.035 Y125.993 E5.41012
G1 X93.568 Y125.773 E5.43588
G1 X93.414 Y125.691 E5.44458
G1 X92.737 Y125.285 E5.48397
G1 X92.104 Y124.813 E5.52336
G1 X91.522 Y124.279 E5.56277
G1 X90.997 Y123.689 E5.60217
G1 X90.328 Y122.712 E5.66124
G1 X89.16 Y120.693 E5.77761
G1 X88.8 Y119.99 E5.81702
G1 X88.513 Y119.255 E5.85638
G1 X88.301 Y118.494 E5.89579
G1 X88.167 Y117.716 E5.93518
G1 X88.112 Y116.787 E5.98161
G1 X88.112 Y116.625 E5.98969
G1 X88.152 Y115.836 E6.0291
G1 X88.152 Y115.833 E6.02925
G1 X87.807 Y115.317 E6.06022
G1 X87.436 Y114.62 E6.09961
G1 X87.137 Y113.889 E6.13902
G1 X86.914 Y113.132 E6.17839
G1 X86.799 Y112.561 E6.20745
G1 X86.673 Y111.786 E6.24662
G1 X86.586 Y111.001 E6.28602
G1 X86.574 Y110.374 E6.31731
G1 X86.609 Y108.673 E6.40219
G1 X86.665 Y107.885 E6.4416
G1 X86.8 Y107.107 E6.481
G1 X87.014 Y106.347 E6.52039
G1 X87.303 Y105.612 E6.55979
G1 X87.735 Y104.793 E6.60599
G1 X87.824 Y104.646 E6.61456
G1 X88.157 Y104.154 E6.6442
G1 X88.144 Y104.062 E6.64884
G1 X88.114 Y103.273 E6.68823
G1 X88.164 Y102.485 E6.72762
G1 X88.309 Y101.635 E6.77064
G1 X88.372 Y101.359 E6.78476
G1 X88.586 Y100.599 E6.82416
G1 X88.876 Y99.865 E6.86353
G1 X89.217 Y99.201 E6.90077
G1 X90.209 Y97.479 E6.99992
G1 X90.638 Y96.816 E7.03931
G1 X91.131 Y96.199 E7.07872
G1 X91.495 Y95.816 E7.10508
G1 X91.76 Y95.555 E7.12363
G1 X92.35 Y95.03 E7.16303
G1 X92.99 Y94.567 E7.20244
G1 X93.673 Y94.172 E7.24181
G1 X94.02 Y94.015 E7.26081
G1 X94.485 Y93.126 E7.31086
G1 X94.575 Y92.981 E7.31938
G1 X95.025 Y92.332 E7.35878
G1 X95.538 Y91.731 E7.3982
G0 F3600 X95.856 Y91.977
G1 F1800 X96.416 Y91.45 E7.43656
G1 X97.028 Y90.984 E7.47494
G1 X97.5 Y90.686 E7.50279
G1 X99.515 Y89.522 E7.61888
G1 X100.201 Y89.173 E7.65728
G1 X100.918 Y88.896 E7.69563
G1 X101.661 Y88.695 E7.73403
G1 X102.42 Y88.573 E7.77239
G1 X102.852 Y88.539 E7.794
G1 X103.034 Y88.53 E7.8031
G1 X103.803 Y88.532 E7.84146
G1 X104.249 Y88.58 E7.86384
G1 X104.261 Y88.57 E7.86462
G1 X104.898 Y88.139 E7.90299
G1 X105.576 Y87.776 E7.94136
G1 X106.288 Y87.485 E7.97973
G1 X107.026 Y87.27 E8.01808
G1 X107.783 Y87.132 E8.05647
G1 X108.298 Y87.084 E8.08228
G1 X109.785 Y86.998 E8.15659
G1 X110.546 Y86.994 E8.19456
G1 X111.521 Y87.038 E8.24325
G1 X112.286 Y87.112 E8.28159
G1 X113.04 Y87.266 E8.31999
G1 X113.773 Y87.497 E8.35833
G1 X114.479 Y87.803 E8.39672
G1 X114.922 Y88.042 E8.42183
G1 X115.052 Y88.118 E8.42934
G1 X115.695 Y88.54 E8.46771
G1 X115.748 Y88.584 E8.47115
G1 X115.996 Y88.548 E8.48365
G1 X116.168 Y88.534 E8.49226
G1 X116.936 Y88.512 E8.53059
G1 X117.703 Y88.569 E8.56896
G1 X118.46 Y88.706 E8.60735
G1 X119.199 Y88.921 E8.64574
G1 X119.911 Y89.211 E8.6841
G1 X120.465 Y89.5 E8.71527
G1 X122.502 Y90.675 E8.83259
G1 X123.148 Y91.093 E8.87098
G1 X123.746 Y91.577 E8.90936
G1 X124.291 Y92.119 E8.94771
G1 X124.927 Y92.929 E8.99909
G1 X125.001 Y93.038 E9.00566
G1 X125.4 Y93.695 E9.04401
G1 X125.688 Y94.306 E9.07771
G1 X125.768 Y94.336 E9.08197
G1 X126.552 Y94.738 E9.12593
G1 X126.669 Y94.807 E9.13271
G1 X127.31 Y95.232 E9.17108
G1 X127.904 Y95.72 E9.20943
G1 X128.444 Y96.268 E9.24781
G1 X128.924 Y96.869 E9.28619
G1 X129.338 Y97.516 E9.32451
G1 X130.524 Y99.596 E9.44396
G1 X130.87 Y100.283 E9.48234
G1 X131.143 Y101.002 E9.52071
G1 X131.339 Y101.746 E9.55909
G1 X131.457 Y102.506 E9.59746
G1 X131.496 Y103.274 E9.63583
G1 X131.455 Y104.042 E9.6742
G1 X131.421 Y104.257 E9.68506
G1 X131.7 Y104.637 E9.70858
G1 X132.089 Y105.3 E9.74693
G1 X132.407 Y106.001 E9.78533
G1 X132.651 Y106.73 E9.82369
G1 X132.817 Y107.481 E9.86206
G1 X132.916 Y108.489 E9.91259
G1 X132.988 Y110.949 E10.03537
G1 X132.97 Y111.717 E10.0737
G1 X132.873 Y112.48 E10.11207
G1 X132.697 Y113.229 E10.15046
G1 X132.445 Y113.956 E10.18884
G1 X132.001 Y114.863 E10.23922
G1 X131.911 Y115.019 E10.24821
G1 X131.492 Y115.664 E10.28658
G1 X131.428 Y115.743 E10.29165
G1 X131.434 Y115.777 E10.29338
G1 X131.48 Y116.545 E10.33176
G1 X131.446 Y117.313 E10.37011
G1 X131.359 Y117.939 E10.40165
G1 X131.304 Y118.239 E10.41686
G1 X131.126 Y118.988 E10.45527
G1 X130.871 Y119.714 E10.49366
G1 X130.401 Y120.661 E10.54641
G1 X129.261 Y122.596 E10.65845
G1 X128.836 Y123.238 E10.69686
G1 X128.348 Y123.832 E10.73522
G1 X127.8 Y124.372 E10.7736
G1 X127.199 Y124.852 E10.81197
G1 X126.552 Y125.268 E10.85035
G1 X125.865 Y125.613 E10.8887
G1 X125.689 Y125.68 E10.8981
G1 X125.615 Y125.867 E10.90813
G1 X125.261 Y126.55 E10.94651
G1 X124.838 Y127.193 E10.98491
G1 X124.351 Y127.788 E11.02327
G1 X123.804 Y128.329 E11.06165
G1 X123.205 Y128.81 E11.09998
G1 X122.717 Y129.133 E11.12917
G1 X120.598 Y130.419 E11.25284
G1 X119.921 Y130.783 E11.29119
G1 X119.209 Y131.076 E11.3296
G1 X118.471 Y131.292 E11.36796
G1 X117.715 Y131.431 E11.40631
G1 X116.948 Y131.491 E11.44469
G1 X116.179 Y131.47 E11.48307
G1 X115.748 Y131.414 E11.50476
G1 X115.617 Y131.52 E11.51316
G1 X114.971 Y131.938 E11.55155
G1 X114.286 Y132.288 E11.58993
G1 X113.569 Y132.564 E11.62826
G1 X112.826 Y132.765 E11.66666
G1 X112.257 Y132.864 E11.69547
G1 X111.528 Y132.962 E11.73217
G1 X110.395 Y133.027 E11.78879
G1 X108.686 Y132.993 E11.87407
G1 X107.919 Y132.937 E11.91244
G1 X107.161 Y132.803 E11.95084
G1 X106.422 Y132.59 E11.98921
G1 X105.709 Y132.302 E12.02757
G1 X105.029 Y131.942 E12.06596
G1 X104.391 Y131.513 E12.10432
G1 X104.277 Y131.418 E12.11172
G1 X104.14 Y131.439 E12.11863
G1 X103.372 Y131.476 E12.15699
G1 X102.604 Y131.433 E12.19537
G1 X101.656 Y131.266 E12.24339
G1 X101.327 Y131.186 E12.26029
G1 X100.59 Y130.966 E12.29866
G1 X99.88 Y130.671 E12.33702
G1 X99.401 Y130.419 E12.36402
G1 X97.52 Y129.343 E12.47213
G1 X96.873 Y128.927 E12.51051
G1 X96.273 Y128.446 E12.54887
G1 X95.726 Y127.906 E12.58722
G1 X95.238 Y127.311 E12.62561
G1 X94.814 Y126.669 E12.664
G1 X94.459 Y125.986 E12.7024
G1 X94.347 Y125.701 E12.71768
G1 X93.756 Y125.42 E12.75033
G1 X93.602 Y125.338 E12.75903
G1 X92.943 Y124.941 E12.79741
G1 X92.328 Y124.479 E12.83579
G1 X91.765 Y123.955 E12.87416
G1 X91.259 Y123.376 E12.91252
G1 X90.675 Y122.512 E12.96455
G1 X89.507 Y120.493 E13.08092
G1 X89.157 Y119.808 E13.1193
G1 X88.88 Y119.09 E13.15769
G1 X88.678 Y118.348 E13.19606
G1 X88.556 Y117.588 E13.23446
G1 X88.512 Y116.787 E13.27448
G1 X88.512 Y116.625 E13.28256
G1 X88.552 Y115.857 E13.32093
G1 X88.571 Y115.734 E13.32714
G1 X88.519 Y115.67 E13.33125
G1 X88.099 Y115.026 E13.36961
G1 X87.748 Y114.341 E13.40801
G1 X87.47 Y113.624 E13.44638
G1 X87.267 Y112.882 E13.48476
G1 X87.194 Y112.497 E13.50431
G1 X87.068 Y111.722 E13.54348
G1 X86.984 Y110.957 E13.58188
G1 X86.974 Y110.382 E13.61057
G1 X87.009 Y108.681 E13.69545
G1 X87.064 Y107.914 E13.73381
G1 X87.199 Y107.156 E13.77222
G1 X87.412 Y106.417 E13.81059
G1 X87.701 Y105.704 E13.84898
G1 X88.077 Y105 E13.8888
G1 X88.166 Y104.853 E13.89737
G1 X88.575 Y104.251 E13.93368
G1 X88.537 Y103.967 E13.94797
G1 X88.515 Y103.198 E13.98635
G1 X88.573 Y102.431 E14.02473
G1 X88.699 Y101.724 E14.06056
G1 X88.762 Y101.448 E14.07468
G1 X88.971 Y100.708 E14.11304
G1 X89.257 Y99.994 E14.15142
G1 X89.564 Y99.401 E14.18473
G1 X90.556 Y97.679 E14.28388
G1 X90.974 Y97.034 E14.32222
G1 X91.457 Y96.435 E14.36061
G1 X91.775 Y96.101 E14.38362
G1 X92.04 Y95.84 E14.40218
G1 X92.616 Y95.329 E14.44059
G1 X93.241 Y94.881 E14.47896
G1 X93.909 Y94.5 E14.51732
G1 X94.315 Y94.322 E14.53944
G1 X94.341 Y94.254 E14.54307
G1 X94.825 Y93.337 E14.5948
G1 X94.915 Y93.192 E14.60332
G1 X95.354 Y92.56 E14.64171
G1 X95.856 Y91.977 E14.68009
G0 F3600 X96.173 Y92.224
G1 F1800 X96.722 Y91.716 E14.71741
G1 X97.321 Y91.268 E14.75473
G1 X97.701 Y91.033 E14.77702
G1 X99.716 Y89.869 E14.89311
G1 X100.382 Y89.53 E14.9304
G1 X101.082 Y89.264 E14.96776
G1 X101.805 Y89.074 E15.00505
G1 X102.871 Y88.939 E15.05866
G1 X103.053 Y88.93 E15.06775
G1 X103.801 Y88.933 E15.10507
G1 X104.378 Y88.997 E15.13403
G1 X104.552 Y88.852 E15.14533
G1 X105.175 Y88.439 E15.18262
G1 X105.839 Y88.095 E15.21993
G1 X106.536 Y87.823 E15.25726
G1 X107.258 Y87.627 E15.29458
G1 X108.321 Y87.484 E15.3481
G1 X109.808 Y87.398 E15.42241
G1 X110.528 Y87.393 E15.45833
G1 X111.503 Y87.437 E15.50702
G1 X112.247 Y87.511 E15.54432
G1 X112.979 Y87.663 E15.58162
G1 X113.691 Y87.893 E15.61895
G1 X114.374 Y88.198 E15.65627
G1 X114.72 Y88.387 E15.67594
G1 X114.85 Y88.463 E15.68345
G1 X115.475 Y88.874 E15.72077
G1 X115.631 Y89.002 E15.73084
G1 X116.028 Y88.947 E15.75083
G1 X116.2 Y88.933 E15.75944
G1 X116.948 Y88.912 E15.79677
G1 X117.694 Y88.971 E15.83411
G1 X118.429 Y89.11 E15.87143
G1 X119.145 Y89.326 E15.90874
G1 X119.834 Y89.617 E15.94605
G1 X120.266 Y89.846 E15.97045
G1 X122.303 Y91.021 E16.08777
G1 X122.93 Y91.429 E16.12509
G1 X123.51 Y91.902 E16.16243
G1 X124.036 Y92.433 E16.19972
G1 X124.596 Y93.153 E16.24522
G1 X124.67 Y93.262 E16.2518
G1 X125.057 Y93.903 E16.28915
G1 X125.373 Y94.581 E16.32647
G1 X125.387 Y94.621 E16.32859
G1 X125.663 Y94.728 E16.34335
G1 X126.349 Y95.082 E16.38187
G1 X126.466 Y95.151 E16.38864
G1 X127.089 Y95.565 E16.42596
G1 X127.664 Y96.043 E16.46327
G1 X128.186 Y96.58 E16.50063
G1 X128.646 Y97.169 E16.53792
G1 X128.991 Y97.714 E16.5701
G1 X130.177 Y99.794 E16.68955
G1 X130.512 Y100.462 E16.72683
G1 X130.774 Y101.163 E16.76417
G1 X130.96 Y101.888 E16.80151
G1 X131.067 Y102.628 E16.83881
G1 X131.095 Y103.376 E16.87616
G1 X131.043 Y104.122 E16.91347
G1 X131.001 Y104.357 E16.92538
G1 X131.4 Y104.908 E16.95932
G1 X131.771 Y105.558 E16.99666
G1 X132.072 Y106.243 E17.03398
G1 X132.297 Y106.956 E17.07129
G1 X132.445 Y107.689 E17.10859
G1 X132.516 Y108.5 E17.14921
G1 X132.588 Y110.96 E17.27199
G1 X132.57 Y111.708 E17.30932
G1 X132.472 Y112.45 E17.34666
G1 X132.296 Y113.177 E17.38398
G1 X132.043 Y113.881 E17.4213
G1 X131.654 Y114.663 E17.46487
G1 X131.564 Y114.819 E17.47386
G1 X131.156 Y115.446 E17.51118
G1 X131.003 Y115.634 E17.52327
G1 X131.045 Y115.903 E17.53686
G1 X131.08 Y116.651 E17.57421
G1 X131.035 Y117.397 E17.6115
G1 X130.965 Y117.867 E17.63521
G1 X130.91 Y118.167 E17.65042
G1 X130.736 Y118.895 E17.68777
G1 X130.486 Y119.6 E17.72509
G1 X130.056 Y120.458 E17.77297
G1 X128.916 Y122.393 E17.88501
G1 X128.503 Y123.017 E17.92234
G1 X128.025 Y123.592 E17.95965
G1 X127.488 Y124.114 E17.99701
G1 X126.899 Y124.575 E18.03433
G1 X126.264 Y124.97 E18.07164
G1 X125.591 Y125.296 E18.10895
G1 X125.381 Y125.371 E18.12007
G1 X125.226 Y125.758 E18.14087
G1 X124.874 Y126.418 E18.17819
G1 X124.455 Y127.038 E18.21552
G1 X123.972 Y127.609 E18.25283
G1 X123.43 Y128.125 E18.29017
G1 X122.837 Y128.58 E18.32746
G1 X122.51 Y128.791 E18.34687
G1 X120.391 Y130.077 E18.47054
G1 X119.731 Y130.431 E18.5079
G1 X119.038 Y130.712 E18.54521
G1 X118.319 Y130.917 E18.58251
G1 X117.582 Y131.044 E18.61982
G1 X116.835 Y131.093 E18.65717
G1 X116.088 Y131.061 E18.69447
G1 X115.633 Y130.992 E18.71743
G1 X115.332 Y131.232 E18.73664
G1 X114.7 Y131.633 E18.77398
G1 X114.029 Y131.964 E18.81131
G1 X113.327 Y132.221 E18.8486
G1 X112.601 Y132.402 E18.88593
G1 X112.204 Y132.468 E18.90601
G1 X111.475 Y132.566 E18.94271
G1 X110.403 Y132.627 E18.99628
G1 X108.694 Y132.593 E19.08155
G1 X107.948 Y132.538 E19.11887
G1 X107.212 Y132.404 E19.1562
G1 X106.494 Y132.192 E19.19355
