;FLAVOR:Marlin
;TIME:2444
;Filament used: 2.27458m
;Layer height: 0.3
;Generated with Cura_SteamEngine 3.6.0
M140 S70
M105
M190 S70
M104 S200
M105
M109 S200
M82 ;absolute extrusion mode
G21 ;metric values
G90 ;absolute positioning
M82 ;set extruder to absolute mode
M107 ;start with the fan off
G28 X0 Y0 ;move X/Y to min endstops
G28 Z0 ;move Z to min endstops
G1 Z15.0 F9000 ;move the platform down 15mm
G92 E0 ;zero the extruded length
G1 F200 E3 ;extrude 3mm of feed stock
G92 E0 ;zero the extruded length again
G1 F9000
;Put printing message on LCD screen
M117 Printing...
G92 E0
G1 F1500 E-6.5
;LAYER_COUNT:89
;LAYER:0
M107
G0 F3000 X88.106 Y88.698 Z0.3
;TYPE:SKIRT
G1 F1500 E0
G1 X88.262 Y88.551 E0.01069
G1 X89.731 Y87.259 E0.1083
G1 X89.934 Y87.095 E0.12132
G1 X92.249 Y85.392 E0.2647
G1 X92.363 Y85.313 E0.27162
G1 X93.945 Y84.258 E0.36648
G1 X94.167 Y84.123 E0.37945
G1 X96.718 Y82.725 E0.52457
G1 X97.004 Y82.588 E0.54039
G1 X99.651 Y81.483 E0.6835
G1 X99.903 Y81.39 E0.6969
G1 X101.815 Y80.786 E0.79694
G1 X102.024 Y80.729 E0.80774
G1 X103.897 Y80.283 E0.9038
G1 X104.096 Y80.242 E0.91394
G1 X105.911 Y79.938 E1.00575
G1 X106.123 Y79.911 E1.01641
G1 X108.128 Y79.72 E1.1169
G1 X108.337 Y79.707 E1.12734
G1 X110.188 Y79.661 E1.21972
G1 X110.402 Y79.663 E1.23039
G1 X112.423 Y79.757 E1.33133
G1 X112.639 Y79.775 E1.34215
G1 X114.518 Y79.999 E1.43655
G1 X114.723 Y80.031 E1.4469
G1 X116.608 Y80.389 E1.54263
G1 X116.818 Y80.436 E1.55336
G1 X118.743 Y80.947 E1.65273
G1 X118.999 Y81.028 E1.66613
G1 X121.715 Y82.016 E1.81031
G1 X121.958 Y82.116 E1.82342
G1 X123.7 Y82.929 E1.91933
G1 X123.889 Y83.026 E1.92993
G1 X125.595 Y83.975 E2.02732
G1 X125.777 Y84.085 E2.03793
G1 X127.384 Y85.134 E2.13368
G1 X127.604 Y85.293 E2.14722
G1 X130.053 Y87.229 E2.30297
G1 X130.167 Y87.323 E2.31034
G1 X131.534 Y88.518 E2.40092
G1 X131.683 Y88.657 E2.41109
G1 X133.058 Y90.034 E2.50817
G1 X133.197 Y90.184 E2.51838
G1 X134.393 Y91.557 E2.60922
G1 X134.525 Y91.719 E2.61965
G1 X135.73 Y93.315 E2.71942
G1 X135.85 Y93.487 E2.72988
G1 X136.847 Y95.019 E2.82107
G1 X136.95 Y95.188 E2.83095
G1 X137.847 Y96.788 E2.92246
G1 X137.959 Y97.008 E2.93478
G1 X139.09 Y99.483 E3.07053
G1 X139.188 Y99.727 E3.08365
G1 X139.974 Y101.942 E3.20091
G1 X140.06 Y102.229 E3.21586
G1 X140.783 Y105.172 E3.36705
G1 X140.834 Y105.425 E3.37993
G1 X141.123 Y107.276 E3.47339
G1 X141.147 Y107.474 E3.48334
G1 X141.313 Y109.349 E3.57725
G1 X141.324 Y109.548 E3.5872
G1 X141.365 Y111.408 E3.68002
G1 X141.36 Y111.67 E3.69309
G1 X141.151 Y114.863 E3.85273
G1 X141.118 Y115.149 E3.86709
G1 X140.778 Y117.239 E3.97273
G1 X140.715 Y117.532 E3.98769
G1 X139.766 Y121.081 E4.17097
G1 X139.652 Y121.423 E4.18895
G1 X138.421 Y124.492 E4.35392
G1 X138.278 Y124.798 E4.37077
G1 X136.833 Y127.481 E4.52281
G1 X136.706 Y127.696 E4.53527
G1 X135.689 Y129.257 E4.62822
G1 X135.575 Y129.419 E4.6381
G1 X134.395 Y130.993 E4.73624
G1 X134.283 Y131.133 E4.74519
G1 X133.269 Y132.329 E4.82341
G1 X133.095 Y132.517 E4.83619
G1 X130.679 Y134.917 E5.00609
G1 X130.431 Y135.138 E5.02267
G1 X128.008 Y137.062 E5.17702
G1 X127.773 Y137.231 E5.19147
G1 X125.724 Y138.558 E5.31326
G1 X125.532 Y138.673 E5.32442
G1 X123.572 Y139.744 E5.43585
G1 X123.347 Y139.854 E5.44835
G1 X121.081 Y140.857 E5.57198
G1 X120.794 Y140.967 E5.58731
G1 X119.566 Y141.366 E5.65173
G1 X119.381 Y141.42 E5.66135
G1 X116.926 Y142.047 E5.78776
G1 X116.682 Y142.098 E5.80019
G1 X114.114 Y142.53 E5.93011
G1 X113.859 Y142.562 E5.94293
G1 X111.424 Y142.76 E6.06482
G1 X111.225 Y142.77 E6.07476
G1 X109.804 Y142.791 E6.14566
G1 X109.617 Y142.788 E6.15499
G1 X107.312 Y142.678 E6.27012
G1 X107.093 Y142.659 E6.28109
G1 X105.004 Y142.405 E6.38607
G1 X104.736 Y142.36 E6.39963
G1 X101.386 Y141.64 E6.57058
G1 X101.074 Y141.555 E6.58671
G1 X98.459 Y140.69 E6.72413
G1 X98.228 Y140.603 E6.73644
G1 X96.181 Y139.733 E6.84741
G1 X95.898 Y139.595 E6.86312
G1 X94.152 Y138.626 E6.96274
G1 X93.939 Y138.496 E6.97519
G1 X91.793 Y137.059 E7.10404
G1 X91.626 Y136.939 E7.1143
G1 X90.423 Y136.008 E7.19019
G1 X90.273 Y135.884 E7.1999
G1 X88.497 Y134.316 E7.3181
G1 X88.296 Y134.121 E7.33207
G1 X86.205 Y131.895 E7.48444
G1 X85.971 Y131.612 E7.50276
G1 X83.512 Y128.25 E7.71057
G1 X83.354 Y128.012 E7.72482
G1 X82.622 Y126.781 E7.79627
G1 X82.501 Y126.556 E7.80902
G1 X81.01 Y123.479 E7.9796
G1 X80.891 Y123.197 E7.99487
G1 X80.041 Y120.861 E8.11889
G1 X79.97 Y120.639 E8.13052
G1 X79.426 Y118.684 E8.23176
G1 X79.377 Y118.482 E8.24213
G1 X78.97 Y116.495 E8.34332
G1 X78.937 Y116.301 E8.35314
G1 X78.713 Y114.668 E8.43537
G1 X78.693 Y114.48 E8.44481
G1 X78.547 Y112.49 E8.54435
G1 X78.539 Y112.284 E8.55464
G1 X78.53 Y110.374 E8.64993
G1 X78.536 Y110.17 E8.66011
G1 X78.659 Y108.229 E8.75714
G1 X78.679 Y108.024 E8.76742
G1 X78.937 Y106.081 E8.86521
G1 X78.979 Y105.841 E8.87736
G1 X79.539 Y103.255 E9.00937
G1 X79.6 Y103.021 E9.02143
G1 X80.15 Y101.204 E9.11615
G1 X80.215 Y101.011 E9.12631
G1 X80.897 Y99.209 E9.22243
G1 X80.979 Y99.013 E9.23303
G1 X81.817 Y97.198 E9.33277
G1 X81.91 Y97.015 E9.34301
G1 X82.799 Y95.392 E9.43533
G1 X82.892 Y95.233 E9.44452
G1 X83.768 Y93.844 E9.52645
G1 X83.891 Y93.665 E9.53729
G1 X85.226 Y91.853 E9.64957
G1 X85.363 Y91.679 E9.66062
G1 X86.601 Y90.235 E9.75551
G1 X86.742 Y90.082 E9.76589
G1 X88.106 Y88.698 E9.86284
G0 F3000 X88.391 Y88.979
G1 F1500 X88.526 Y88.852 E9.87209
G1 X89.995 Y87.56 E9.96969
G1 X90.171 Y87.418 E9.98097
G1 X92.486 Y85.715 E10.12435
G1 X92.584 Y85.646 E10.13033
G1 X94.166 Y84.591 E10.2252
G1 X94.359 Y84.474 E10.23646
G1 X96.91 Y83.076 E10.38159
G1 X97.158 Y82.957 E10.39531
G1 X99.805 Y81.852 E10.53841
G1 X100.024 Y81.772 E10.55005
G1 X101.936 Y81.168 E10.65008
G1 X102.117 Y81.118 E10.65945
G1 X103.99 Y80.672 E10.75551
G1 X104.163 Y80.637 E10.76431
G1 X105.978 Y80.333 E10.85613
G1 X106.16 Y80.309 E10.86528
G1 X108.165 Y80.118 E10.96577
G1 X108.347 Y80.107 E10.97486
G1 X110.198 Y80.061 E11.06724
G1 X110.384 Y80.063 E11.07652
G1 X112.405 Y80.157 E11.17746
G1 X112.592 Y80.172 E11.18682
G1 X114.471 Y80.396 E11.28122
G1 X114.648 Y80.424 E11.29016
G1 X116.533 Y80.782 E11.38589
G1 X116.715 Y80.823 E11.3952
G1 X118.64 Y81.334 E11.49456
G1 X118.862 Y81.404 E11.50617
G1 X121.578 Y82.392 E11.65036
G1 X121.789 Y82.479 E11.66175
G1 X123.531 Y83.292 E11.75766
G1 X123.695 Y83.376 E11.76685
G1 X125.401 Y84.325 E11.86424
G1 X125.558 Y84.42 E11.8734
G1 X127.165 Y85.469 E11.96914
G1 X127.356 Y85.606 E11.98087
G1 X129.805 Y87.542 E12.13662
G1 X129.904 Y87.625 E12.14306
G1 X131.271 Y88.82 E12.23365
G1 X131.4 Y88.94 E12.24244
G1 X132.775 Y90.317 E12.33952
G1 X132.895 Y90.446 E12.34831
G1 X134.091 Y91.819 E12.43915
G1 X134.206 Y91.96 E12.44823
G1 X135.411 Y93.556 E12.548
G1 X135.515 Y93.705 E12.55707
G1 X136.512 Y95.237 E12.64826
G1 X136.601 Y95.384 E12.65683
G1 X137.498 Y96.984 E12.74835
G1 X137.595 Y97.174 E12.75899
G1 X138.726 Y99.649 E12.89475
G1 X138.811 Y99.861 E12.90614
G1 X139.597 Y102.076 E13.0234
G1 X139.672 Y102.325 E13.03638
G1 X140.395 Y105.268 E13.18757
G1 X140.439 Y105.487 E13.19871
G1 X140.728 Y107.338 E13.29218
G1 X140.749 Y107.51 E13.30082
G1 X140.915 Y109.385 E13.39473
G1 X140.924 Y109.557 E13.40333
G1 X140.965 Y111.417 E13.49615
G1 X140.96 Y111.644 E13.50747
G1 X140.751 Y114.837 E13.66711
G1 X140.723 Y115.084 E13.67952
G1 X140.383 Y117.174 E13.78516
G1 X140.329 Y117.429 E13.79816
G1 X139.38 Y120.978 E13.98144
G1 X139.281 Y121.274 E13.99701
G1 X138.05 Y124.343 E14.16198
G1 X137.926 Y124.608 E14.17658
G1 X136.481 Y127.291 E14.32862
G1 X136.37 Y127.477 E14.33942
G1 X135.353 Y129.038 E14.43237
G1 X135.255 Y129.179 E14.44094
G1 X134.075 Y130.753 E14.53908
G1 X133.978 Y130.874 E14.54682
G1 X132.964 Y132.07 E14.62505
G1 X132.813 Y132.234 E14.63617
G1 X130.397 Y134.634 E14.80607
G1 X130.182 Y134.825 E14.82041
G1 X127.759 Y136.749 E14.97477
G1 X127.555 Y136.895 E14.98729
G1 X125.506 Y138.222 E15.10908
G1 X125.34 Y138.322 E15.11875
G1 X123.38 Y139.393 E15.23018
G1 X123.185 Y139.489 E15.24102
G1 X120.919 Y140.492 E15.36465
G1 X120.67 Y140.587 E15.37795
G1 X119.442 Y140.986 E15.44237
G1 X119.282 Y141.032 E15.45067
G1 X116.827 Y141.659 E15.57708
G1 X116.615 Y141.704 E15.5879
G1 X114.047 Y142.136 E15.71782
G1 X113.827 Y142.163 E15.72887
G1 X111.392 Y142.361 E15.85076
G1 X111.219 Y142.37 E15.8594
G1 X109.798 Y142.391 E15.9303
G1 X109.636 Y142.388 E15.93839
G1 X107.331 Y142.278 E16.05351
G1 X107.141 Y142.262 E16.06303
G1 X105.052 Y142.008 E16.16801
G1 X104.82 Y141.969 E16.17975
G1 X101.47 Y141.249 E16.3507
G1 X101.199 Y141.175 E16.36471
G1 X98.584 Y140.31 E16.50213
G1 X98.384 Y140.235 E16.51279
G1 X96.337 Y139.365 E16.62375
G1 X96.092 Y139.245 E16.63736
G1 X94.346 Y138.276 E16.73699
G1 X94.161 Y138.163 E16.7478
G1 X92.015 Y136.726 E16.87665
G1 X91.871 Y136.622 E16.88552
G1 X90.668 Y135.691 E16.96141
G1 X90.538 Y135.584 E16.96981
G1 X88.762 Y134.016 E17.088
G1 X88.588 Y133.847 E17.10011
G1 X86.497 Y131.621 E17.25247
G1 X86.293 Y131.376 E17.26838
G1 X83.834 Y128.014 E17.47619
G1 X83.698 Y127.808 E17.4885
G1 X82.966 Y126.577 E17.55995
G1 X82.861 Y126.382 E17.571
G1 X81.37 Y123.305 E17.74159
G1 X81.267 Y123.06 E17.75485
G1 X80.417 Y120.724 E17.87887
G1 X80.355 Y120.532 E17.88893
G1 X79.811 Y118.577 E17.99017
G1 X79.769 Y118.402 E17.99915
G1 X79.362 Y116.415 E18.10034
G1 X79.333 Y116.246 E18.1089
G1 X79.109 Y114.613 E18.19113
G1 X79.092 Y114.45 E18.19931
G1 X78.946 Y112.46 E18.29886
G1 X78.939 Y112.282 E18.30774
G1 X78.93 Y110.372 E18.40303
G1 X78.935 Y110.196 E18.41182
G1 X79.058 Y108.255 E18.50885
G1 X79.076 Y108.077 E18.51778
G1 X79.334 Y106.134 E18.61556
G1 X79.37 Y105.926 E18.62609
G1 X79.93 Y103.34 E18.7581
G1 X79.983 Y103.137 E18.76857
G1 X80.533 Y101.32 E18.86328
G1 X80.589 Y101.153 E18.87207
G1 X81.271 Y99.351 E18.96819
G1 X81.342 Y99.181 E18.97739
G1 X82.18 Y97.366 E19.07712
G1 X82.261 Y97.207 E19.08602
G1 X83.15 Y95.584 E19.17835
G1 X83.231 Y95.446 E19.18633
G1 X84.107 Y94.057 E19.26826
G1 X84.213 Y93.902 E19.27763
G1 X85.548 Y92.09 E19.38991
G1 X85.667 Y91.94 E19.39947
G1 X86.905 Y90.496 E19.49436
G1 X87.027 Y90.363 E19.50336
G1 X88.391 Y88.979 E19.60031
G0 F3000 X88.676 Y89.26
G1 F1500 X88.79 Y89.152 E19.60814
G1 X90.259 Y87.86 E19.70575
G1 X90.408 Y87.74 E19.71529
G1 X92.723 Y86.037 E19.85867
G1 X92.806 Y85.979 E19.86372
G1 X94.388 Y84.924 E19.95859
G1 X94.552 Y84.825 E19.96815
G1 X97.103 Y83.427 E20.11327
G1 X97.312 Y83.326 E20.12486
G1 X99.959 Y82.221 E20.26796
G1 X100.144 Y82.153 E20.27779
G1 X102.056 Y81.549 E20.37783
G1 X102.209 Y81.507 E20.38575
G1 X104.082 Y81.061 E20.4818
G1 X104.229 Y81.031 E20.48929
G1 X106.044 Y80.727 E20.5811
G1 X106.198 Y80.707 E20.58885
G1 X108.203 Y80.516 E20.68933
G1 X108.357 Y80.507 E20.69703
G1 X110.208 Y80.461 E20.7894
G1 X110.365 Y80.462 E20.79723
G1 X112.386 Y80.556 E20.89817
G1 X112.544 Y80.569 E20.90608
G1 X114.423 Y80.793 E21.00049
G1 X114.573 Y80.817 E21.00807
G1 X116.458 Y81.175 E21.10379
G1 X116.612 Y81.21 E21.11167
G1 X118.537 Y81.721 E21.21103
G1 X118.725 Y81.78 E21.22087
G1 X121.441 Y82.768 E21.36505
G1 X121.619 Y82.841 E21.37465
G1 X123.361 Y83.654 E21.47056
G1 X123.5 Y83.725 E21.47835
G1 X125.206 Y84.674 E21.57574
G1 X125.34 Y84.755 E21.58355
G1 X126.947 Y85.804 E21.6793
G1 X127.108 Y85.92 E21.6892
G1 X129.557 Y87.856 E21.84494
G1 X129.641 Y87.926 E21.8504
G1 X131.008 Y89.121 E21.94098
G1 X131.117 Y89.222 E21.9484
G1 X132.492 Y90.599 E22.04548
G1 X132.594 Y90.709 E22.05297
G1 X133.79 Y92.082 E22.14381
G1 X133.887 Y92.201 E22.15147
G1 X135.092 Y93.797 E22.25124
G1 X135.18 Y93.923 E22.25891
G1 X136.177 Y95.455 E22.3501
G1 X136.252 Y95.579 E22.35733
G1 X137.149 Y97.179 E22.44884
G1 X137.231 Y97.341 E22.4579
G1 X138.362 Y99.816 E22.59366
G1 X138.434 Y99.994 E22.60324
G1 X139.22 Y102.209 E22.7205
G1 X139.283 Y102.42 E22.73148
G1 X140.006 Y105.363 E22.88268
G1 X140.044 Y105.549 E22.89215
G1 X140.333 Y107.4 E22.98561
G1 X140.35 Y107.545 E22.9929
G1 X140.516 Y109.42 E23.08681
G1 X140.524 Y109.566 E23.0941
G1 X140.565 Y111.426 E23.18692
G1 X140.561 Y111.618 E23.1965
G1 X140.352 Y114.811 E23.35614
G1 X140.328 Y115.02 E23.36664
G1 X139.988 Y117.11 E23.47228
G1 X139.942 Y117.325 E23.48325
G1 X138.993 Y120.874 E23.66653
G1 X138.91 Y121.125 E23.67972
G1 X137.679 Y124.194 E23.84469
G1 X137.574 Y124.418 E23.85703
G1 X136.129 Y127.101 E24.00907
G1 X136.035 Y127.259 E24.01824
G1 X135.018 Y128.82 E24.11119
G1 X134.935 Y128.939 E24.11843
G1 X133.755 Y130.513 E24.21657
G1 X133.673 Y130.616 E24.22314
G1 X132.659 Y131.812 E24.30137
G1 X132.531 Y131.95 E24.31076
G1 X130.115 Y134.35 E24.48065
G1 X129.933 Y134.512 E24.49281
G1 X127.51 Y136.436 E24.64717
G1 X127.338 Y136.56 E24.65775
G1 X125.289 Y137.887 E24.77954
G1 X125.148 Y137.971 E24.78773
G1 X123.188 Y139.042 E24.89916
G1 X123.023 Y139.123 E24.90833
G1 X120.757 Y140.126 E25.03196
G1 X120.547 Y140.206 E25.04317
G1 X119.319 Y140.605 E25.10759
G1 X119.183 Y140.645 E25.11466
G1 X116.728 Y141.272 E25.24107
G1 X116.549 Y141.31 E25.2502
G1 X113.981 Y141.742 E25.38012
G1 X113.794 Y141.765 E25.38952
G1 X111.359 Y141.963 E25.5114
G1 X111.214 Y141.97 E25.51865
G1 X109.793 Y141.991 E25.58955
G1 X109.655 Y141.988 E25.59643
G1 X107.35 Y141.878 E25.71156
G1 X107.189 Y141.865 E25.71962
G1 X105.1 Y141.611 E25.82461
G1 X104.904 Y141.578 E25.83453
G1 X101.554 Y140.858 E26.00547
G1 X101.325 Y140.796 E26.01731
G1 X98.71 Y139.931 E26.15473
G1 X98.54 Y139.867 E26.16379
G1 X96.493 Y138.997 E26.27475
G1 X96.286 Y138.896 E26.28624
G1 X94.54 Y137.927 E26.38587
G1 X94.384 Y137.831 E26.39501
G1 X92.238 Y136.394 E26.52386
G1 X92.116 Y136.306 E26.53136
G1 X90.913 Y135.375 E26.60725
G1 X90.803 Y135.284 E26.61438
G1 X89.027 Y133.716 E26.73257
G1 X88.88 Y133.573 E26.74281
G1 X86.789 Y131.347 E26.89517
G1 X86.616 Y131.14 E26.90863
G1 X84.157 Y127.778 E27.11644
G1 X84.042 Y127.603 E27.12689
G1 X83.31 Y126.372 E27.19834
G1 X83.221 Y126.207 E27.20769
G1 X81.73 Y123.13 E27.37828
G1 X81.643 Y122.923 E27.38948
G1 X80.793 Y120.587 E27.5135
G1 X80.741 Y120.425 E27.52199
G1 X80.197 Y118.47 E27.62323
G1 X80.161 Y118.321 E27.63088
G1 X79.754 Y116.334 E27.73207
G1 X79.729 Y116.192 E27.73926
G1 X79.505 Y114.559 E27.82149
G1 X79.491 Y114.421 E27.82841
G1 X79.345 Y112.431 E27.92796
G1 X79.339 Y112.28 E27.9355
G1 X79.33 Y110.37 E28.03079
G1 X79.334 Y110.221 E28.03823
G1 X79.457 Y108.28 E28.13526
G1 X79.472 Y108.129 E28.14283
G1 X79.73 Y106.186 E28.24062
G1 X79.761 Y106.01 E28.24953
G1 X80.321 Y103.424 E28.38154
G1 X80.365 Y103.253 E28.39035
G1 X80.915 Y101.436 E28.48506
G1 X80.963 Y101.294 E28.49254
G1 X81.645 Y99.492 E28.58867
G1 X81.706 Y99.349 E28.59642
G1 X82.544 Y97.534 E28.69616
G1 X82.611 Y97.399 E28.70368
G1 X83.5 Y95.776 E28.796
G1 X83.569 Y95.659 E28.80278
G1 X84.445 Y94.27 E28.88471
G1 X84.535 Y94.139 E28.89263
G1 X85.87 Y92.327 E29.00492
G1 X85.971 Y92.2 E29.01302
G1 X87.209 Y90.756 E29.10791
G1 X87.312 Y90.644 E29.1155
G1 X88.676 Y89.26 E29.21245
G1 F1500 E22.71245
;MESH:TestFit.stl
G0 F3000 X90.595 Y91.288
G0 X90.692 Y92.579
G0 X90.766 Y92.645
;TYPE:WALL-INNER
G1 F1500 E29.21245
G1 X90.143 Y93.364 E29.25991
G1 X89.545 Y94.103 E29.30734
G1 X88.975 Y94.866 E29.35485
G1 X88.433 Y95.648 E29.40232
G1 X87.921 Y96.45 E29.44979
G1 X87.438 Y97.271 E29.49732
G1 X86.986 Y98.108 E29.54477
G1 X86.564 Y98.962 E29.5923
G1 X86.175 Y99.831 E29.6398
G1 X85.817 Y100.712 E29.68724
G1 X85.492 Y101.607 E29.73475
G1 X85.201 Y102.512 E29.78217
G1 X84.942 Y103.429 E29.82971
G1 X84.718 Y104.354 E29.8772
G1 X84.527 Y105.287 E29.92471
G1 X84.371 Y106.226 E29.9722
G1 X84.249 Y107.169 E30.01964
G1 X84.163 Y108.118 E30.06718
G1 X84.112 Y109.068 E30.11464
G1 X84.095 Y110.019 E30.16209
