;FLAVOR:Marlin
;TIME:1920
;Filament used: 3.79885m
;Layer height: 0.3
;Generated with Cura_SteamEngine 3.6.0
M140 S70
M105
M190 S70
M104 S200
M105
M109 S200
M82 ;absolute extrusion mode
G21 ;metric values
G90 ;absolute positioning
M82 ;set extruder to absolute mode
M107 ;start with the fan off
G28 X0 Y0 ;move X/Y to min endstops
G28 Z0 ;move Z to min endstops
G1 Z15.0 F9000 ;move the platform down 15mm
G92 E0 ;zero the extruded length
G1 F200 E3 ;extrude 3mm of feed stock
G92 E0 ;zero the extruded length again
G1 F9000
;Put printing message on LCD screen
M117 Printing...
G92 E0
G1 F1500 E-6.5
;LAYER_COUNT:87
;LAYER:0
M107
G0 F3000 X79.268 Y41.103 Z0.3
;TYPE:SKIRT
G1 F1500 E0
G1 X79.378 Y40.911 E0.01104
G1 X80.269 Y39.479 E0.09518
G1 X80.395 Y39.293 E0.10639
G1 X81.431 Y37.877 E0.19392
G1 X81.566 Y37.705 E0.20483
G1 X82.63 Y36.453 E0.28681
G1 X82.775 Y36.295 E0.2975
G1 X83.935 Y35.113 E0.38013
G1 X84.094 Y34.962 E0.39107
G1 X85.375 Y33.835 E0.47619
G1 X85.545 Y33.696 E0.48715
G1 X86.912 Y32.66 E0.57272
G1 X87.096 Y32.531 E0.58393
G1 X88.56 Y31.585 E0.67089
G1 X88.745 Y31.475 E0.68163
G1 X90.097 Y30.733 E0.75857
G1 X90.333 Y30.617 E0.77169
G1 X92.685 Y29.583 E0.89987
G1 X92.946 Y29.482 E0.91383
G1 X94.559 Y28.946 E0.99863
G1 X94.813 Y28.874 E1.0118
G1 X97.139 Y28.323 E1.13106
G1 X97.392 Y28.274 E1.14392
G1 X98.966 Y28.041 E1.2233
G1 X99.181 Y28.017 E1.23409
G1 X100.932 Y27.886 E1.32169
G1 X101.159 Y27.878 E1.33303
G1 X102.894 Y27.88 E1.41959
G1 X103.116 Y27.888 E1.43067
G1 X104.829 Y28.017 E1.51637
G1 X105.094 Y28.049 E1.52969
G1 X107.444 Y28.438 E1.64853
G1 X107.704 Y28.493 E1.66179
G1 X109.304 Y28.906 E1.74423
G1 X109.505 Y28.966 E1.75469
G1 X111.07 Y29.489 E1.83701
G1 X111.277 Y29.567 E1.84805
G1 X112.88 Y30.238 E1.93475
G1 X113.085 Y30.333 E1.94602
G1 X114.683 Y31.148 E2.03552
G1 X114.881 Y31.258 E2.04682
G1 X116.289 Y32.116 E2.12908
G1 X116.462 Y32.23 E2.13941
G1 X117.723 Y33.123 E2.2165
G1 X117.889 Y33.249 E2.2269
G1 X119.204 Y34.325 E2.31167
G1 X119.406 Y34.506 E2.3252
G1 X121.161 Y36.229 E2.4479
G1 X121.34 Y36.421 E2.461
G1 X122.404 Y37.666 E2.5427
G1 X122.544 Y37.843 E2.55396
G1 X123.604 Y39.291 E2.64349
G1 X123.73 Y39.478 E2.65474
G1 X124.621 Y40.91 E2.73888
G1 X124.731 Y41.102 E2.74992
G1 X125.534 Y42.633 E2.83617
G1 X125.628 Y42.83 E2.84706
G1 X126.286 Y44.343 E2.92938
G1 X126.363 Y44.539 E2.93988
G1 X126.886 Y46.018 E3.01815
G1 X126.962 Y46.264 E3.03099
G1 X127.58 Y48.643 E3.15362
G1 X127.645 Y48.964 E3.16996
G1 X128.012 Y51.483 E3.29696
G1 X128.038 Y51.751 E3.31039
G1 X128.128 Y53.382 E3.39189
G1 X128.133 Y53.595 E3.40252
G1 X128.107 Y55.23 E3.4841
G1 X128.095 Y55.444 E3.49479
G1 X127.948 Y57.118 E3.57863
G1 X127.912 Y57.391 E3.59237
G1 X127.45 Y59.942 E3.72171
G1 X127.387 Y60.214 E3.73564
G1 X126.945 Y61.797 E3.81764
G1 X126.883 Y61.994 E3.82794
G1 X126.346 Y63.506 E3.90799
G1 X126.269 Y63.701 E3.91845
G1 X125.616 Y65.198 E3.99993
G1 X125.521 Y65.396 E4.01089
G1 X124.715 Y66.928 E4.09725
G1 X124.603 Y67.122 E4.10843
G1 X123.689 Y68.583 E4.19441
G1 X123.567 Y68.764 E4.20529
G1 X122.583 Y70.108 E4.2884
G1 X122.447 Y70.279 E4.2993
G1 X121.367 Y71.549 E4.38247
G1 X121.218 Y71.713 E4.39353
G1 X119.991 Y72.957 E4.4807
G1 X119.835 Y73.104 E4.49139
G1 X118.642 Y74.152 E4.57062
G1 X118.48 Y74.284 E4.58104
G1 X117.153 Y75.295 E4.66427
G1 X116.97 Y75.424 E4.67544
G1 X115.527 Y76.362 E4.76131
G1 X115.341 Y76.474 E4.77214
G1 X113.9 Y77.269 E4.85424
G1 X113.712 Y77.364 E4.86475
G1 X112.237 Y78.047 E4.94585
G1 X112.039 Y78.13 E4.95656
G1 X110.469 Y78.725 E5.04032
G1 X110.263 Y78.795 E5.05118
G1 X108.649 Y79.276 E5.1352
G1 X108.382 Y79.342 E5.14892
G1 X105.873 Y79.845 E5.27659
G1 X105.601 Y79.887 E5.29032
G1 X103.97 Y80.061 E5.37215
G1 X103.761 Y80.076 E5.3826
G1 X102.109 Y80.136 E5.46508
G1 X101.891 Y80.136 E5.47595
G1 X100.239 Y80.076 E5.55843
G1 X100.03 Y80.061 E5.56888
G1 X98.399 Y79.887 E5.65071
G1 X98.128 Y79.846 E5.66439
G1 X95.617 Y79.343 E5.79215
G1 X95.301 Y79.261 E5.80844
G1 X92.951 Y78.517 E5.93141
G1 X92.697 Y78.424 E5.94491
G1 X91.121 Y77.764 E6.03015
G1 X90.92 Y77.671 E6.0412
G1 X89.412 Y76.904 E6.12561
G1 X89.222 Y76.799 E6.13644
G1 X87.78 Y75.929 E6.22046
G1 X87.602 Y75.813 E6.23106
G1 X86.306 Y74.9 E6.31015
G1 X86.133 Y74.768 E6.32101
G1 X84.763 Y73.646 E6.40935
G1 X84.594 Y73.497 E6.42059
G1 X83.381 Y72.341 E6.50419
G1 X83.236 Y72.192 E6.51456
G1 X82.161 Y71.015 E6.59409
G1 X82.022 Y70.852 E6.60478
G1 X80.997 Y69.555 E6.68725
G1 X80.873 Y69.386 E6.69771
G1 X79.981 Y68.079 E6.77666
G1 X79.868 Y67.901 E6.78717
G1 X79.015 Y66.44 E6.87158
G1 X78.884 Y66.189 E6.8857
G1 X77.761 Y63.767 E7.01889
G1 X77.639 Y63.46 E7.03538
G1 X76.865 Y61.154 E7.15673
G1 X76.792 Y60.899 E7.16996
G1 X76.409 Y59.304 E7.2518
G1 X76.365 Y59.087 E7.26285
G1 X76.08 Y57.34 E7.35116
G1 X76.053 Y57.119 E7.36226
G1 X75.906 Y55.445 E7.4461
G1 X75.895 Y55.24 E7.45634
G1 X75.866 Y53.716 E7.53239
G1 X75.869 Y53.502 E7.54307
G1 X75.96 Y51.76 E7.6301
G1 X75.979 Y51.544 E7.64091
G1 X76.179 Y49.948 E7.72116
G1 X76.214 Y49.736 E7.73188
G1 X76.545 Y48.071 E7.81657
G1 X76.596 Y47.854 E7.82769
G1 X77.05 Y46.217 E7.91245
G1 X77.113 Y46.019 E7.92281
G1 X77.636 Y44.54 E8.00108
G1 X77.713 Y44.344 E8.01158
G1 X78.371 Y42.831 E8.0939
G1 X78.465 Y42.634 E8.10479
G1 X79.268 Y41.103 E8.19104
G0 F3000 X79.622 Y41.288
G1 F1500 X79.717 Y41.122 E8.20058
G1 X80.608 Y39.69 E8.28472
G1 X80.718 Y39.529 E8.29445
G1 X81.754 Y38.113 E8.38199
G1 X81.871 Y37.964 E8.39144
G1 X82.935 Y36.712 E8.47341
G1 X83.06 Y36.575 E8.48266
G1 X84.22 Y35.393 E8.56529
G1 X84.359 Y35.262 E8.57481
G1 X85.64 Y34.135 E8.65994
G1 X85.787 Y34.015 E8.6694
G1 X87.154 Y32.979 E8.75498
G1 X87.313 Y32.867 E8.76468
G1 X88.777 Y31.921 E8.85164
G1 X88.937 Y31.826 E8.86092
G1 X90.289 Y31.084 E8.93787
G1 X90.494 Y30.983 E8.94927
G1 X92.846 Y29.949 E9.07745
G1 X93.072 Y29.862 E9.08953
G1 X94.685 Y29.326 E9.17433
G1 X94.906 Y29.263 E9.18579
G1 X97.232 Y28.712 E9.30505
G1 X97.45 Y28.67 E9.31613
G1 X99.024 Y28.437 E9.39551
G1 X99.211 Y28.416 E9.4049
G1 X100.962 Y28.285 E9.4925
G1 X101.159 Y28.278 E9.50233
G1 X102.894 Y28.28 E9.58889
G1 X103.086 Y28.287 E9.59848
G1 X104.799 Y28.416 E9.68418
G1 X105.029 Y28.444 E9.69574
G1 X107.379 Y28.833 E9.81458
G1 X107.604 Y28.881 E9.82606
G1 X109.204 Y29.294 E9.9085
G1 X109.378 Y29.345 E9.91754
G1 X110.943 Y29.868 E9.99987
G1 X111.123 Y29.936 E10.00947
G1 X112.726 Y30.607 E10.09616
G1 X112.903 Y30.689 E10.1059
G1 X114.501 Y31.504 E10.19539
G1 X114.673 Y31.6 E10.20522
G1 X116.081 Y32.458 E10.28748
G1 X116.231 Y32.556 E10.29642
G1 X117.492 Y33.449 E10.37351
G1 X117.636 Y33.559 E10.38255
G1 X118.951 Y34.635 E10.46732
G1 X119.125 Y34.792 E10.47901
G1 X120.88 Y36.515 E10.60171
G1 X121.036 Y36.681 E10.61308
G1 X122.1 Y37.926 E10.69478
G1 X122.221 Y38.079 E10.70451
G1 X123.281 Y39.527 E10.79404
G1 X123.391 Y39.689 E10.80381
G1 X124.282 Y41.121 E10.88795
G1 X124.377 Y41.287 E10.8975
G1 X125.18 Y42.818 E10.98375
G1 X125.261 Y42.989 E10.99319
G1 X125.919 Y44.502 E11.0755
G1 X125.986 Y44.672 E11.08462
G1 X126.509 Y46.151 E11.16288
G1 X126.574 Y46.364 E11.17399
G1 X127.192 Y48.743 E11.29662
G1 X127.249 Y49.022 E11.31083
G1 X127.616 Y51.541 E11.43783
G1 X127.639 Y51.773 E11.44946
G1 X127.729 Y53.404 E11.53095
G1 X127.733 Y53.588 E11.54014
G1 X127.707 Y55.223 E11.62172
G1 X127.697 Y55.409 E11.63101
G1 X127.55 Y57.083 E11.71485
G1 X127.518 Y57.319 E11.72673
G1 X127.056 Y59.87 E11.85607
G1 X127.002 Y60.106 E11.86815
G1 X126.56 Y61.689 E11.95014
G1 X126.506 Y61.86 E11.95909
G1 X125.969 Y63.372 E12.03914
G1 X125.902 Y63.542 E12.04826
G1 X125.249 Y65.039 E12.12974
G1 X125.167 Y65.21 E12.1392
G1 X124.361 Y66.742 E12.22556
G1 X124.264 Y66.91 E12.23524
G1 X123.35 Y68.371 E12.32122
G1 X123.244 Y68.528 E12.33067
G1 X122.26 Y69.872 E12.41377
G1 X122.143 Y70.02 E12.42319
G1 X121.063 Y71.29 E12.50636
G1 X120.933 Y71.432 E12.51596
G1 X119.706 Y72.676 E12.60314
G1 X119.571 Y72.803 E12.61238
G1 X118.378 Y73.851 E12.69161
G1 X118.238 Y73.966 E12.70065
G1 X116.911 Y74.977 E12.78388
G1 X116.752 Y75.089 E12.79358
G1 X115.309 Y76.027 E12.87944
G1 X115.148 Y76.124 E12.88882
G1 X113.707 Y76.919 E12.97093
G1 X113.543 Y77.001 E12.98008
G1 X112.068 Y77.684 E13.06117
G1 X111.897 Y77.756 E13.07043
G1 X110.327 Y78.351 E13.15419
G1 X110.149 Y78.412 E13.16358
G1 X108.535 Y78.893 E13.2476
G1 X108.303 Y78.95 E13.25952
G1 X105.794 Y79.453 E13.38718
G1 X105.559 Y79.489 E13.39905
G1 X103.928 Y79.663 E13.48088
G1 X103.746 Y79.676 E13.48998
G1 X102.094 Y79.736 E13.57245
G1 X101.906 Y79.736 E13.58183
G1 X100.254 Y79.676 E13.66431
G1 X100.072 Y79.663 E13.67341
G1 X98.441 Y79.489 E13.75524
G1 X98.206 Y79.453 E13.7671
G1 X95.695 Y78.95 E13.89487
G1 X95.421 Y78.88 E13.90898
G1 X93.071 Y78.136 E14.03195
G1 X92.852 Y78.055 E14.0436
G1 X91.276 Y77.395 E14.12885
G1 X91.101 Y77.314 E14.13847
G1 X89.593 Y76.547 E14.22287
G1 X89.429 Y76.456 E14.23223
G1 X87.987 Y75.586 E14.31625
G1 X87.833 Y75.486 E14.32541
G1 X86.537 Y74.573 E14.4045
G1 X86.387 Y74.459 E14.4139
G1 X85.017 Y73.337 E14.50225
G1 X84.87 Y73.207 E14.51204
G1 X83.657 Y72.051 E14.59564
G1 X83.531 Y71.922 E14.60463
G1 X82.456 Y70.745 E14.68416
G1 X82.336 Y70.604 E14.6934
G1 X81.311 Y69.307 E14.77587
G1 X81.203 Y69.161 E14.78493
G1 X80.311 Y67.854 E14.86388
G1 X80.214 Y67.699 E14.873
G1 X79.361 Y66.238 E14.9574
G1 X79.247 Y66.021 E14.96963
G1 X78.124 Y63.599 E15.10282
G1 X78.018 Y63.332 E15.11716
G1 X77.244 Y61.026 E15.23851
G1 X77.181 Y60.806 E15.24993
G1 X76.798 Y59.211 E15.33176
G1 X76.76 Y59.023 E15.34133
G1 X76.475 Y57.276 E15.42964
G1 X76.451 Y57.084 E15.4393
G1 X76.304 Y55.41 E15.52313
G1 X76.294 Y55.232 E15.53203
G1 X76.265 Y53.708 E15.60807
G1 X76.269 Y53.523 E15.61731
G1 X76.36 Y51.781 E15.70433
G1 X76.376 Y51.594 E15.7137
G1 X76.576 Y49.998 E15.79394
G1 X76.606 Y49.814 E15.80325
G1 X76.937 Y48.149 E15.88794
G1 X76.982 Y47.961 E15.89758
G1 X77.436 Y46.324 E15.98234
G1 X77.49 Y46.152 E15.99133
G1 X78.013 Y44.673 E16.0696
G1 X78.08 Y44.503 E16.07871
G1 X78.738 Y42.99 E16.16102
G1 X78.819 Y42.819 E16.17046
G1 X79.622 Y41.288 E16.25672
G0 F3000 X79.977 Y41.474
G1 F1500 X80.057 Y41.334 E16.26476
G1 X80.948 Y39.902 E16.3489
G1 X81.04 Y39.765 E16.35714
G1 X82.076 Y38.349 E16.44467
G1 X82.176 Y38.223 E16.45269
G1 X83.24 Y36.971 E16.53467
G1 X83.346 Y36.855 E16.54251
G1 X84.506 Y35.673 E16.62513
G1 X84.623 Y35.562 E16.63318
G1 X85.904 Y34.435 E16.7183
G1 X86.028 Y34.334 E16.72628
G1 X87.395 Y33.298 E16.81185
G1 X87.53 Y33.203 E16.82009
G1 X88.994 Y32.257 E16.90705
G1 X89.13 Y32.176 E16.91494
G1 X90.482 Y31.434 E16.99189
G1 X90.655 Y31.349 E17.0015
G1 X93.007 Y30.315 E17.12968
G1 X93.198 Y30.241 E17.1399
G1 X94.811 Y29.705 E17.2247
G1 X94.998 Y29.652 E17.2344
G1 X97.324 Y29.101 E17.35366
G1 X97.509 Y29.066 E17.36305
G1 X99.083 Y28.833 E17.44243
G1 X99.241 Y28.815 E17.45037
G1 X100.992 Y28.684 E17.53797
G1 X101.159 Y28.678 E17.5463
G1 X102.894 Y28.68 E17.63286
G1 X103.056 Y28.686 E17.64095
G1 X104.769 Y28.815 E17.72666
G1 X104.963 Y28.839 E17.73641
G1 X107.313 Y29.228 E17.85525
G1 X107.504 Y29.268 E17.86498
G1 X109.104 Y29.681 E17.94742
G1 X109.251 Y29.724 E17.95506
G1 X110.816 Y30.247 E18.03739
G1 X110.968 Y30.305 E18.0455
G1 X112.571 Y30.976 E18.1322
G1 X112.722 Y31.045 E18.14048
G1 X114.32 Y31.86 E18.22998
G1 X114.465 Y31.941 E18.23826
G1 X115.873 Y32.799 E18.32052
G1 X115.999 Y32.883 E18.32808
G1 X117.26 Y33.776 E18.40517
G1 X117.382 Y33.868 E18.41279
G1 X118.697 Y34.944 E18.49756
G1 X118.845 Y35.077 E18.50749
G1 X120.6 Y36.8 E18.63019
G1 X120.731 Y36.941 E18.63979
G1 X121.795 Y38.186 E18.7215
G1 X121.898 Y38.315 E18.72973
G1 X122.958 Y39.763 E18.81926
G1 X123.051 Y39.901 E18.82756
G1 X123.942 Y41.333 E18.91171
G1 X124.022 Y41.473 E18.91975
G1 X124.825 Y43.004 E19.006
G1 X124.894 Y43.149 E19.01401
G1 X125.552 Y44.662 E19.09633
G1 X125.609 Y44.806 E19.10405
G1 X126.132 Y46.285 E19.18232
G1 X126.187 Y46.465 E19.19171
G1 X126.805 Y48.844 E19.31434
G1 X126.853 Y49.08 E19.32635
G1 X127.22 Y51.599 E19.45335
G1 X127.24 Y51.795 E19.46318
G1 X127.33 Y53.426 E19.54468
G1 X127.333 Y53.582 E19.55246
G1 X127.307 Y55.217 E19.63404
G1 X127.299 Y55.374 E19.64188
G1 X127.152 Y57.048 E19.72572
G1 X127.125 Y57.248 E19.73579
G1 X126.663 Y59.799 E19.86513
G1 X126.617 Y59.999 E19.87537
G1 X126.175 Y61.582 E19.95737
G1 X126.129 Y61.726 E19.96491
G1 X125.592 Y63.238 E20.04496
G1 X125.536 Y63.382 E20.05267
G1 X124.883 Y64.879 E20.13415
G1 X124.813 Y65.023 E20.14214
G1 X124.007 Y66.555 E20.2285
G1 X123.925 Y66.698 E20.23672
G1 X123.011 Y68.159 E20.3227
G1 X122.921 Y68.292 E20.33071
G1 X121.937 Y69.636 E20.41382
G1 X121.838 Y69.761 E20.42177
G1 X120.758 Y71.031 E20.50495
G1 X120.648 Y71.151 E20.51307
G1 X119.421 Y72.395 E20.60024
G1 X119.307 Y72.503 E20.60807
G1 X118.114 Y73.551 E20.6873
G1 X117.995 Y73.648 E20.69496
G1 X116.668 Y74.659 E20.77819
G1 X116.534 Y74.754 E20.78638
G1 X115.091 Y75.692 E20.87225
G1 X114.955 Y75.773 E20.88014
G1 X113.514 Y76.568 E20.96225
G1 X113.375 Y76.638 E20.97001
G1 X111.9 Y77.321 E21.05111
G1 X111.756 Y77.382 E21.05891
G1 X110.186 Y77.977 E21.14267
G1 X110.034 Y78.028 E21.15067
G1 X108.42 Y78.509 E21.2347
G1 X108.224 Y78.558 E21.24478
G1 X105.715 Y79.061 E21.37244
G1 X105.516 Y79.092 E21.38249
G1 X103.885 Y79.266 E21.46432
G1 X103.732 Y79.277 E21.47197
G1 X102.08 Y79.337 E21.55445
G1 X101.92 Y79.337 E21.56243
G1 X100.268 Y79.277 E21.6449
G1 X100.115 Y79.266 E21.65256
G1 X98.484 Y79.092 E21.73439
G1 X98.285 Y79.061 E21.74444
G1 X95.774 Y78.558 E21.8722
G1 X95.542 Y78.498 E21.88415
G1 X93.192 Y77.754 E22.00713
G1 X93.006 Y77.686 E22.01701
G1 X91.43 Y77.026 E22.10226
G1 X91.283 Y76.958 E22.11034
G1 X89.775 Y76.191 E22.19474
G1 X89.636 Y76.114 E22.20267
G1 X88.194 Y75.244 E22.28669
G1 X88.063 Y75.159 E22.29448
G1 X86.767 Y74.246 E22.37357
G1 X86.64 Y74.149 E22.38155
G1 X85.27 Y73.027 E22.46989
G1 X85.146 Y72.918 E22.47813
G1 X83.933 Y71.762 E22.56173
G1 X83.827 Y71.653 E22.56931
G1 X82.752 Y70.476 E22.64884
G1 X82.65 Y70.356 E22.6567
G1 X81.625 Y69.059 E22.73917
G1 X81.534 Y68.935 E22.74684
G1 X80.642 Y67.628 E22.82579
G1 X80.559 Y67.497 E22.83353
G1 X79.706 Y66.036 E22.91793
G1 X79.61 Y65.852 E22.92828
G1 X78.487 Y63.43 E23.06147
G1 X78.397 Y63.205 E23.07356
G1 X77.623 Y60.899 E23.19492
G1 X77.57 Y60.713 E23.20457
G1 X77.187 Y59.118 E23.28641
G1 X77.155 Y58.958 E23.29455
G1 X76.87 Y57.211 E23.38286
G1 X76.849 Y57.049 E23.39101
G1 X76.702 Y55.375 E23.47484
G1 X76.694 Y55.225 E23.48234
G1 X76.665 Y53.701 E23.55838
G1 X76.668 Y53.544 E23.56622
G1 X76.759 Y51.802 E23.65325
G1 X76.773 Y51.643 E23.66121
G1 X76.973 Y50.047 E23.74146
G1 X76.998 Y49.892 E23.74929
G1 X77.329 Y48.227 E23.83398
G1 X77.367 Y48.068 E23.84214
G1 X77.821 Y46.431 E23.92689
G1 X77.867 Y46.286 E23.93448
G1 X78.39 Y44.807 E24.01275
G1 X78.447 Y44.663 E24.02047
G1 X79.105 Y43.15 E24.10279
G1 X79.174 Y43.005 E24.1108
G1 X79.977 Y41.474 E24.19705
G1 F1500 E17.69705
;MESH:SuporteLed.stl
G0 F3000 X83.014 Y39.624
G0 X84.051 Y40.381
G0 X86.08 Y38.08
G0 X86.15 Y38.15
;TYPE:WALL-INNER
G1 F1500 E24.19705
G1 X86.15 Y38.477 E24.21336
G1 X86.15 Y44.35 E24.50637
G1 X117.85 Y44.35 E26.08789
G1 X117.85 Y38.478 E26.38084
G1 X117.85 Y38.15 E26.3972
G1 X117.812 Y38.15 E26.3991
G1 X117.595 Y38.15 E26.40993
G1 X86.402 Y38.15 E27.96615
G1 X86.201 Y38.15 E27.97618
G1 X86.15 Y38.15 E27.97872
G0 F3000 X86.08 Y38.08
G0 X117.871 Y38.126
G0 X117.943 Y38.057
G1 F1500 X118.173 Y38.291 E27.99
G1 X118.373 Y38.495 E28.00425
G1 X118.933 Y39.107 E28.04564
G1 X119.45 Y39.718 E28.08557
G1 X119.96 Y40.364 E28.12663
G1 X120.447 Y41.031 E28.16784
G1 X120.896 Y41.694 E28.20778
