;FLAVOR:Marlin
;TIME:2319
;Filament used: 2.19393m
;Layer height: 0.3
;Generated with Cura_SteamEngine 3.6.0
M140 S70
M105
M190 S70
M104 S200
M105
M109 S200
M82 ;absolute extrusion mode
G21 ;metric values
G90 ;absolute positioning
M82 ;set extruder to absolute mode
M107 ;start with the fan off
G28 X0 Y0 ;move X/Y to min endstops
G28 Z0 ;move Z to min endstops
G1 Z15.0 F9000 ;move the platform down 15mm
G92 E0 ;zero the extruded length
G1 F200 E3 ;extrude 3mm of feed stock
G92 E0 ;zero the extruded length again
G1 F9000
;Put printing message on LCD screen
M117 Printing...
G92 E0
G1 F1500 E-6.5
;LAYER_COUNT:88
;LAYER:0
M107
G0 F3000 X87.865 Y89.643 Z0.3
;TYPE:SKIRT
G1 F1500 E0
G1 X89.23 Y88.352 E0.09373
G1 X89.384 Y88.216 E0.10398
G1 X90.796 Y87.053 E0.19525
G1 X91.005 Y86.896 E0.20829
G1 X94.197 Y84.705 E0.40144
G1 X94.404 Y84.574 E0.41367
G1 X95.99 Y83.666 E0.50484
G1 X96.18 Y83.567 E0.51553
G1 X97.942 Y82.719 E0.61309
G1 X98.139 Y82.633 E0.62381
G1 X99.917 Y81.929 E0.71922
G1 X100.12 Y81.856 E0.72998
G1 X101.959 Y81.277 E0.82617
G1 X102.213 Y81.21 E0.83927
G1 X104.939 Y80.608 E0.97855
G1 X105.197 Y80.562 E0.99163
G1 X107.072 Y80.317 E1.08596
G1 X107.283 Y80.297 E1.09654
G1 X109.223 Y80.182 E1.1935
G1 X109.443 Y80.177 E1.20447
G1 X111.391 Y80.204 E1.30167
G1 X111.603 Y80.215 E1.31226
G1 X113.441 Y80.371 E1.40429
G1 X113.648 Y80.396 E1.41469
G1 X115.526 Y80.688 E1.50951
G1 X115.737 Y80.728 E1.52022
G1 X117.621 Y81.161 E1.61667
G1 X117.874 Y81.231 E1.62977
G1 X120.487 Y82.078 E1.76681
G1 X120.734 Y82.17 E1.77996
G1 X122.528 Y82.931 E1.87718
G1 X122.721 Y83.022 E1.88782
G1 X124.439 Y83.9 E1.98408
G1 X124.627 Y84.004 E1.9948
G1 X126.243 Y84.982 E2.08904
G1 X126.422 Y85.099 E2.09971
G1 X127.984 Y86.203 E2.19513
G1 X128.191 Y86.364 E2.20822
G1 X131.07 Y88.803 E2.39646
G1 X131.245 Y88.964 E2.40833
G1 X132.589 Y90.299 E2.50284
G1 X132.738 Y90.457 E2.51367
G1 X134.009 Y91.917 E2.61025
G1 X134.14 Y92.08 E2.62068
G1 X135.273 Y93.581 E2.7145
G1 X135.396 Y93.755 E2.72513
G1 X136.434 Y95.355 E2.82028
G1 X136.537 Y95.527 E2.83029
G1 X137.377 Y97.034 E2.91636
G1 X137.485 Y97.248 E2.92832
G1 X138.612 Y99.713 E3.06354
G1 X138.695 Y99.912 E3.0743
G1 X139.142 Y101.111 E3.13814
G1 X139.206 Y101.302 E3.14819
G1 X139.82 Y103.361 E3.25539
G1 X139.882 Y103.605 E3.26795
G1 X140.421 Y106.185 E3.39944
G1 X140.461 Y106.427 E3.41168
G1 X140.694 Y108.298 E3.50574
G1 X140.713 Y108.505 E3.51611
G1 X140.818 Y110.427 E3.61215
G1 X140.822 Y110.626 E3.62208
G1 X140.803 Y112.277 E3.70445
G1 X140.794 Y112.475 E3.71434
G1 X140.613 Y114.8 E3.83069
G1 X140.574 Y115.099 E3.84573
G1 X140.028 Y118.129 E3.99933
G1 X139.959 Y118.426 E4.01454
G1 X139.22 Y120.996 E4.14796
G1 X139.12 Y121.288 E4.16335
G1 X137.925 Y124.253 E4.32284
G1 X137.806 Y124.511 E4.33702
G1 X136.843 Y126.371 E4.44151
G1 X136.74 Y126.555 E4.45203
G1 X135.789 Y128.113 E4.5431
G1 X135.642 Y128.332 E4.55626
G1 X133.697 Y130.967 E4.71965
G1 X133.496 Y131.21 E4.73538
G1 X131.628 Y133.251 E4.87342
G1 X131.398 Y133.477 E4.88951
G1 X128.873 Y135.702 E5.05741
G1 X128.646 Y135.883 E5.07189
G1 X126.772 Y137.236 E5.18721
G1 X126.591 Y137.358 E5.1981
G1 X125.112 Y138.27 E5.28479
G1 X124.917 Y138.38 E5.29596
G1 X122.569 Y139.596 E5.42788
G1 X122.317 Y139.712 E5.44172
G1 X120.178 Y140.58 E5.55688
G1 X119.804 Y140.704 E5.57654
G1 X116.363 Y141.598 E5.75391
G1 X116.026 Y141.665 E5.77106
G1 X112.962 Y142.095 E5.92542
G1 X112.685 Y142.121 E5.9393
G1 X110.322 Y142.231 E6.05732
G1 X110.101 Y142.233 E6.06834
G1 X108.204 Y142.182 E6.16302
G1 X108.005 Y142.17 E6.17296
G1 X106.021 Y141.984 E6.27238
G1 X105.767 Y141.949 E6.28517
G1 X102.748 Y141.403 E6.43823
G1 X102.451 Y141.334 E6.45345
G1 X99.646 Y140.525 E6.59909
G1 X99.339 Y140.418 E6.61531
G1 X96.297 Y139.171 E6.77934
G1 X95.982 Y139.02 E6.79676
G1 X94.586 Y138.247 E6.87637
G1 X94.423 Y138.149 E6.88586
G1 X92.917 Y137.186 E6.97504
G1 X92.738 Y137.063 E6.98588
G1 X90.826 Y135.635 E7.10494
G1 X90.613 Y135.46 E7.11869
G1 X88.418 Y133.482 E7.2661
G1 X88.257 Y133.325 E7.27732
G1 X87.276 Y132.298 E7.34818
G1 X87.148 Y132.156 E7.35772
G1 X85.72 Y130.456 E7.46848
G1 X85.599 Y130.302 E7.47825
G1 X84.677 Y129.047 E7.55595
G1 X84.562 Y128.879 E7.5661
G1 X83.393 Y127.037 E7.67495
G1 X83.287 Y126.856 E7.68541
G1 X82.361 Y125.143 E7.78256
G1 X82.24 Y124.891 E7.79651
G1 X80.915 Y121.778 E7.9653
G1 X80.813 Y121.504 E7.97988
G1 X80.199 Y119.554 E8.08188
G1 X80.137 Y119.322 E8.09386
G1 X79.56 Y116.8 E8.22293
G1 X79.515 Y116.559 E8.23516
G1 X79.244 Y114.679 E8.32993
G1 X79.222 Y114.478 E8.34002
G1 X79.073 Y112.517 E8.43813
G1 X79.064 Y112.306 E8.44867
G1 X79.054 Y110.371 E8.54521
G1 X79.06 Y110.165 E8.55549
G1 X79.187 Y108.165 E8.65547
G1 X79.207 Y107.962 E8.66565
G1 X79.428 Y106.291 E8.74974
G1 X79.469 Y106.055 E8.76169
G1 X80.048 Y103.357 E8.89936
G1 X80.11 Y103.114 E8.91187
G1 X80.66 Y101.303 E9.0063
G1 X80.747 Y101.058 E9.01927
G1 X81.816 Y98.394 E9.16248
G1 X81.921 Y98.161 E9.17523
G1 X82.741 Y96.534 E9.26612
G1 X82.831 Y96.368 E9.27555
G1 X83.657 Y94.957 E9.35712
G1 X83.773 Y94.774 E9.36792
G1 X85.039 Y92.931 E9.47948
G1 X85.172 Y92.752 E9.4906
G1 X86.338 Y91.299 E9.58355
G1 X86.472 Y91.144 E9.59377
G1 X87.72 Y89.79 E9.68564
G1 X87.865 Y89.643 E9.69594
G0 F3000 X88.139 Y89.934
G1 F1500 X89.504 Y88.643 E9.78967
G1 X89.638 Y88.525 E9.79858
G1 X91.05 Y87.362 E9.88984
G1 X91.232 Y87.225 E9.90121
G1 X94.424 Y85.034 E10.09437
G1 X94.603 Y84.922 E10.1049
G1 X96.189 Y84.014 E10.19608
G1 X96.353 Y83.927 E10.20534
G1 X98.115 Y83.079 E10.30289
G1 X98.286 Y83.005 E10.31219
G1 X100.064 Y82.301 E10.4076
G1 X100.24 Y82.238 E10.41692
G1 X102.079 Y81.659 E10.51311
G1 X102.299 Y81.6 E10.52447
G1 X105.025 Y80.998 E10.66375
G1 X105.249 Y80.959 E10.67509
G1 X107.124 Y80.714 E10.76943
G1 X107.307 Y80.697 E10.7786
G1 X109.247 Y80.582 E10.87556
G1 X109.437 Y80.577 E10.88504
G1 X111.385 Y80.604 E10.98224
G1 X111.569 Y80.613 E10.99143
G1 X113.407 Y80.769 E11.08346
G1 X113.586 Y80.791 E11.09245
G1 X115.464 Y81.083 E11.18727
G1 X115.647 Y81.118 E11.19657
G1 X117.531 Y81.551 E11.29301
G1 X117.751 Y81.612 E11.3044
G1 X120.364 Y82.459 E11.44144
G1 X120.577 Y82.538 E11.45278
G1 X122.371 Y83.299 E11.55
G1 X122.539 Y83.378 E11.55926
G1 X124.257 Y84.256 E11.65552
G1 X124.42 Y84.347 E11.66483
G1 X126.036 Y85.325 E11.75907
G1 X126.191 Y85.426 E11.7683
G1 X127.753 Y86.53 E11.86373
G1 X127.933 Y86.669 E11.87507
G1 X130.812 Y89.108 E12.06332
G1 X130.963 Y89.247 E12.07356
G1 X132.307 Y90.582 E12.16807
G1 X132.436 Y90.72 E12.17749
G1 X133.707 Y92.18 E12.27407
G1 X133.821 Y92.321 E12.28311
G1 X134.954 Y93.822 E12.37694
G1 X135.06 Y93.973 E12.38614
G1 X136.098 Y95.573 E12.48129
G1 X136.188 Y95.722 E12.48998
G1 X137.028 Y97.229 E12.57605
G1 X137.122 Y97.414 E12.58641
G1 X138.249 Y99.879 E12.72163
G1 X138.32 Y100.052 E12.73096
G1 X138.767 Y101.251 E12.7948
G1 X138.823 Y101.416 E12.80349
G1 X139.437 Y103.475 E12.91069
G1 X139.49 Y103.686 E12.92154
G1 X140.029 Y106.266 E13.05304
G1 X140.064 Y106.477 E13.06371
G1 X140.297 Y108.348 E13.15777
G1 X140.313 Y108.527 E13.16674
G1 X140.418 Y110.449 E13.26277
G1 X140.422 Y110.621 E13.27135
G1 X140.403 Y112.272 E13.35373
G1 X140.395 Y112.444 E13.36232
G1 X140.214 Y114.769 E13.47866
G1 X140.181 Y115.028 E13.49169
G1 X139.635 Y118.058 E13.64529
G1 X139.575 Y118.316 E13.65851
G1 X138.836 Y120.886 E13.79192
G1 X138.749 Y121.139 E13.80527
G1 X137.554 Y124.104 E13.96475
G1 X137.451 Y124.327 E13.97701
G1 X136.488 Y126.187 E14.0815
G1 X136.398 Y126.347 E14.09066
G1 X135.447 Y127.905 E14.18173
G1 X135.32 Y128.094 E14.19309
G1 X133.375 Y130.729 E14.35648
G1 X133.201 Y130.94 E14.37013
G1 X131.333 Y132.981 E14.50816
G1 X131.134 Y133.177 E14.5221
G1 X128.609 Y135.402 E14.69
G1 X128.412 Y135.559 E14.70257
G1 X126.538 Y136.912 E14.81789
G1 X126.381 Y137.017 E14.82731
G1 X124.902 Y137.929 E14.914
G1 X124.733 Y138.025 E14.92369
G1 X122.385 Y139.241 E15.05561
G1 X122.167 Y139.341 E15.06758
G1 X120.028 Y140.209 E15.18275
G1 X119.704 Y140.316 E15.19977
G1 X116.263 Y141.21 E15.37714
G1 X115.97 Y141.269 E15.39205
G1 X112.906 Y141.699 E15.54641
G1 X112.666 Y141.721 E15.55844
G1 X110.303 Y141.831 E15.67646
G1 X110.112 Y141.833 E15.68598
G1 X108.215 Y141.782 E15.78066
G1 X108.042 Y141.772 E15.78931
G1 X106.058 Y141.586 E15.88872
G1 X105.838 Y141.555 E15.89981
G1 X102.819 Y141.009 E16.05287
G1 X102.561 Y140.949 E16.06608
G1 X99.756 Y140.14 E16.21173
G1 X99.491 Y140.048 E16.22572
G1 X96.449 Y138.801 E16.38975
G1 X96.176 Y138.67 E16.40485
G1 X94.78 Y137.897 E16.48447
G1 X94.638 Y137.812 E16.49272
G1 X93.132 Y136.849 E16.5819
G1 X92.977 Y136.742 E16.5913
G1 X91.065 Y135.314 E16.71036
G1 X90.88 Y135.162 E16.7223
G1 X88.685 Y133.184 E16.86972
G1 X88.546 Y133.049 E16.87938
G1 X87.565 Y132.022 E16.95024
G1 X87.454 Y131.898 E16.95854
G1 X86.026 Y130.198 E17.06931
G1 X85.922 Y130.065 E17.07773
G1 X85 Y128.81 E17.15542
G1 X84.9 Y128.664 E17.16425
G1 X83.731 Y126.822 E17.2731
G1 X83.639 Y126.665 E17.28217
G1 X82.713 Y124.952 E17.37932
G1 X82.608 Y124.734 E17.3914
G1 X81.283 Y121.621 E17.56019
G1 X81.195 Y121.384 E17.5728
G1 X80.581 Y119.434 E17.67479
G1 X80.526 Y119.233 E17.68519
G1 X79.949 Y116.711 E17.81426
G1 X79.911 Y116.502 E17.82486
G1 X79.64 Y114.622 E17.91963
G1 X79.62 Y114.448 E17.92836
G1 X79.471 Y112.487 E18.02648
G1 X79.464 Y112.303 E18.03567
G1 X79.454 Y110.368 E18.13221
G1 X79.459 Y110.19 E18.14109
G1 X79.586 Y108.19 E18.24107
G1 X79.603 Y108.014 E18.24989
G1 X79.824 Y106.343 E18.33398
G1 X79.86 Y106.138 E18.34437
G1 X80.439 Y103.44 E18.48204
G1 X80.493 Y103.23 E18.49285
G1 X81.043 Y101.419 E18.58728
G1 X81.118 Y101.207 E18.5985
G1 X82.187 Y98.543 E18.74171
G1 X82.278 Y98.341 E18.75276
G1 X83.098 Y96.714 E18.84366
G1 X83.176 Y96.57 E18.85183
G1 X84.002 Y95.159 E18.9334
G1 X84.103 Y95.001 E18.94276
G1 X85.369 Y93.158 E19.05431
G1 X85.484 Y93.003 E19.06394
G1 X86.65 Y91.55 E19.15688
G1 X86.766 Y91.415 E19.16576
G1 X88.014 Y90.061 E19.25763
G1 X88.139 Y89.934 E19.26652
G0 F3000 X88.414 Y90.225
G1 F1500 X89.779 Y88.934 E19.36025
G1 X89.892 Y88.834 E19.36778
G1 X91.304 Y87.671 E19.45905
G1 X91.458 Y87.555 E19.46867
G1 X94.65 Y85.364 E19.66182
G1 X94.802 Y85.269 E19.67076
G1 X96.388 Y84.361 E19.76194
G1 X96.527 Y84.288 E19.76977
G1 X98.289 Y83.44 E19.86733
G1 X98.433 Y83.377 E19.87517
G1 X100.211 Y82.673 E19.97058
G1 X100.36 Y82.62 E19.97847
G1 X102.199 Y82.041 E20.07465
G1 X102.386 Y81.991 E20.08431
G1 X105.112 Y81.389 E20.22359
G1 X105.301 Y81.356 E20.23316
G1 X107.176 Y81.111 E20.3275
G1 X107.331 Y81.096 E20.33527
G1 X109.271 Y80.981 E20.43223
G1 X109.431 Y80.977 E20.44021
G1 X111.379 Y81.004 E20.53741
G1 X111.535 Y81.012 E20.5452
G1 X113.373 Y81.168 E20.63723
G1 X113.525 Y81.186 E20.64486
G1 X115.403 Y81.478 E20.73968
G1 X115.558 Y81.508 E20.74756
G1 X117.442 Y81.941 E20.844
G1 X117.627 Y81.992 E20.85358
G1 X120.24 Y82.839 E20.99062
G1 X120.421 Y82.907 E21.00026
G1 X122.215 Y83.668 E21.09749
G1 X122.357 Y83.734 E21.1053
G1 X124.075 Y84.612 E21.20156
G1 X124.213 Y84.689 E21.20944
G1 X125.829 Y85.667 E21.30368
G1 X125.96 Y85.752 E21.31147
G1 X127.522 Y86.856 E21.4069
G1 X127.674 Y86.974 E21.4165
G1 X130.553 Y89.413 E21.60474
G1 X130.681 Y89.531 E21.61343
G1 X132.025 Y90.866 E21.70794
G1 X132.134 Y90.982 E21.71588
G1 X133.405 Y92.442 E21.81245
G1 X133.502 Y92.562 E21.82015
G1 X134.635 Y94.063 E21.91398
G1 X134.725 Y94.191 E21.92178
G1 X135.763 Y95.791 E22.01693
G1 X135.839 Y95.917 E22.02427
G1 X136.679 Y97.424 E22.11035
G1 X136.758 Y97.58 E22.11907
G1 X137.885 Y100.045 E22.2543
G1 X137.945 Y100.191 E22.26217
G1 X138.392 Y101.39 E22.32601
G1 X138.439 Y101.53 E22.33338
G1 X139.053 Y103.589 E22.44057
G1 X139.099 Y103.768 E22.44979
G1 X139.638 Y106.348 E22.58129
G1 X139.667 Y106.526 E22.59029
G1 X139.9 Y108.397 E22.68435
G1 X139.914 Y108.549 E22.69197
G1 X140.019 Y110.471 E22.788
G1 X140.022 Y110.616 E22.79524
G1 X140.003 Y112.267 E22.87761
G1 X139.996 Y112.413 E22.8849
G1 X139.815 Y114.738 E23.00125
G1 X139.787 Y114.957 E23.01226
G1 X139.241 Y117.987 E23.16587
G1 X139.19 Y118.205 E23.17704
G1 X138.451 Y120.775 E23.31045
G1 X138.378 Y120.989 E23.32173
G1 X137.183 Y123.954 E23.48122
G1 X137.096 Y124.144 E23.49164
G1 X136.133 Y126.004 E23.59614
G1 X136.057 Y126.138 E23.60382
G1 X135.106 Y127.696 E23.69489
G1 X134.998 Y127.857 E23.70456
G1 X133.053 Y130.492 E23.86796
G1 X132.906 Y130.67 E23.87947
G1 X131.038 Y132.711 E24.01751
G1 X130.869 Y132.877 E24.02933
G1 X128.344 Y135.102 E24.19723
G1 X128.178 Y135.235 E24.20784
G1 X126.304 Y136.588 E24.32316
G1 X126.171 Y136.677 E24.33114
G1 X124.692 Y137.589 E24.41783
G1 X124.549 Y137.67 E24.42603
G1 X122.201 Y138.886 E24.55795
G1 X122.016 Y138.971 E24.56811
G1 X119.877 Y139.839 E24.68327
G1 X119.603 Y139.929 E24.69766
G1 X116.162 Y140.823 E24.87503
G1 X115.915 Y140.873 E24.8876
G1 X112.851 Y141.303 E25.04197
G1 X112.647 Y141.322 E25.05219
G1 X110.284 Y141.432 E25.17021
G1 X110.123 Y141.433 E25.17824
G1 X108.226 Y141.382 E25.27291
G1 X108.08 Y141.373 E25.28021
G1 X106.096 Y141.187 E25.37963
G1 X105.909 Y141.162 E25.38904
G1 X102.89 Y140.616 E25.5421
G1 X102.672 Y140.565 E25.55327
G1 X99.867 Y139.756 E25.69892
G1 X99.643 Y139.678 E25.71075
G1 X96.601 Y138.431 E25.87478
G1 X96.369 Y138.32 E25.88761
G1 X94.973 Y137.547 E25.96722
G1 X94.854 Y137.475 E25.97416
G1 X93.348 Y136.512 E26.06334
G1 X93.217 Y136.422 E26.07127
G1 X91.305 Y134.994 E26.19033
G1 X91.148 Y134.865 E26.20046
G1 X88.953 Y132.887 E26.34788
G1 X88.835 Y132.773 E26.35606
G1 X87.854 Y131.746 E26.42692
G1 X87.76 Y131.641 E26.43395
G1 X86.332 Y129.941 E26.54471
G1 X86.244 Y129.829 E26.55182
G1 X85.322 Y128.574 E26.62951
G1 X85.237 Y128.45 E26.63701
G1 X84.068 Y126.608 E26.74586
G1 X83.991 Y126.475 E26.75352
G1 X83.065 Y124.762 E26.85067
G1 X82.976 Y124.578 E26.86087
G1 X81.651 Y121.465 E27.02966
G1 X81.577 Y121.264 E27.04035
G1 X80.963 Y119.314 E27.14234
G1 X80.916 Y119.144 E27.15114
G1 X80.339 Y116.622 E27.28022
G1 X80.307 Y116.445 E27.28919
G1 X80.036 Y114.565 E27.38395
G1 X80.019 Y114.418 E27.39133
G1 X79.87 Y112.457 E27.48945
G1 X79.864 Y112.301 E27.49724
G1 X79.854 Y110.366 E27.59378
G1 X79.858 Y110.216 E27.60127
G1 X79.985 Y108.216 E27.70125
G1 X80 Y108.067 E27.70872
G1 X80.221 Y106.396 E27.79281
G1 X80.251 Y106.222 E27.80162
G1 X80.83 Y103.524 E27.93929
G1 X80.876 Y103.347 E27.94841
G1 X81.426 Y101.536 E28.04284
G1 X81.489 Y101.356 E28.05235
G1 X82.558 Y98.692 E28.19556
G1 X82.635 Y98.521 E28.20492
G1 X83.455 Y96.894 E28.29581
G1 X83.521 Y96.773 E28.30269
G1 X84.347 Y95.362 E28.38426
G1 X84.433 Y95.227 E28.39225
G1 X85.699 Y93.384 E28.5038
G1 X85.796 Y93.253 E28.51193
G1 X86.962 Y91.8 E28.60488
G1 X87.06 Y91.686 E28.61238
G1 X88.308 Y90.332 E28.70424
G1 X88.414 Y90.225 E28.71176
G1 F1500 E22.21176
;MESH:TestFit.stl
G0 F3000 X91.931 Y89.117
G0 X92.745 Y90.109
G0 X94.85 Y88.701
G0 X94.794 Y88.619
;TYPE:WALL-INNER
G1 F1500 E28.71176
G1 X95.009 Y88.462 E28.72504
G1 X95.794 Y87.938 E28.77213
G1 X96.586 Y87.448 E28.81859
G1 X97.387 Y86.99 E28.86463
G1 X98.204 Y86.56 E28.91069
G1 X99.055 Y86.152 E28.95777
G1 X99.907 Y85.779 E29.00417
G1 X100.766 Y85.438 E29.05028
G1 X101.649 Y85.124 E29.09704
G1 X102.543 Y84.841 E29.14382
G1 X103.425 Y84.597 E29.18948
G1 X104.333 Y84.379 E29.23606
G1 X105.243 Y84.195 E29.28238
G1 X106.169 Y84.04 E29.32922
G1 X107.089 Y83.922 E29.3755
G1 X108.01 Y83.835 E29.42165
G1 X108.938 Y83.782 E29.46803
G1 X109.876 Y83.76 E29.51483
G1 X110.79 Y83.77 E29.56044
G1 X111.734 Y83.816 E29.60759
G1 X112.66 Y83.894 E29.65395
G1 X113.587 Y84.005 E29.70053
G1 X114.496 Y84.146 E29.74642
G1 X115.416 Y84.324 E29.79317
G1 X116.33 Y84.533 E29.83995
