;FLAVOR:Marlin
;TIME:1399
;Filament used: 1.29187m
;Layer height: 0.3
;Generated with Cura_SteamEngine 3.6.0
M140 S70
M105
M190 S70
M104 S200
M105
M109 S200
M82 ;absolute extrusion mode
G21 ;metric values
G90 ;absolute positioning
M82 ;set extruder to absolute mode
M107 ;start with the fan off
G28 X0 Y0 ;move X/Y to min endstops
G28 Z0 ;move Z to min endstops
G1 Z15.0 F9000 ;move the platform down 15mm
G92 E0 ;zero the extruded length
G1 F200 E3 ;extrude 3mm of feed stock
G92 E0 ;zero the extruded length again
G1 F9000
;Put printing message on LCD screen
M117 Printing...
G92 E0
G1 F1500 E-6.5
;LAYER_COUNT:46
;LAYER:0
M107
G0 F3000 X86.262 Y87.935 Z0.3
;TYPE:SKIRT
G1 F1500 E0
G1 X87.723 Y86.523 E0.10137
G1 X87.875 Y86.386 E0.11158
G1 X89.461 Y85.05 E0.21503
G1 X89.623 Y84.923 E0.2253
G1 X91.273 Y83.716 E0.3273
G1 X91.443 Y83.6 E0.33756
G1 X93.237 Y82.468 E0.4434
G1 X93.417 Y82.363 E0.45379
G1 X95.2 Y81.404 E0.5548
G1 X95.379 Y81.315 E0.56477
G1 X97.22 Y80.478 E0.66567
G1 X97.408 Y80.4 E0.67582
G1 X99.332 Y79.678 E0.77835
G1 X99.528 Y79.612 E0.78866
G1 X101.542 Y79.011 E0.89352
G1 X101.791 Y78.949 E0.90632
G1 X104.76 Y78.333 E1.0576
G1 X105.008 Y78.292 E1.07014
G1 X107.031 Y78.047 E1.17181
G1 X107.236 Y78.029 E1.18207
G1 X109.31 Y77.921 E1.28569
G1 X109.518 Y77.917 E1.29607
G1 X111.64 Y77.954 E1.40195
G1 X111.848 Y77.965 E1.41234
G1 X113.87 Y78.141 E1.5136
G1 X114.072 Y78.166 E1.52375
G1 X116.13 Y78.487 E1.62767
G1 X116.383 Y78.537 E1.64054
G1 X119.372 Y79.27 E1.79408
G1 X119.567 Y79.325 E1.80418
G1 X120.55 Y79.638 E1.85565
G1 X120.743 Y79.707 E1.86588
G1 X123.566 Y80.823 E2.01732
G1 X123.797 Y80.926 E2.02994
G1 X125.676 Y81.859 E2.13461
G1 X125.863 Y81.96 E2.14521
G1 X127.664 Y83.019 E2.24944
G1 X127.835 Y83.128 E2.25956
G1 X129.532 Y84.287 E2.36209
G1 X129.7 Y84.41 E2.37247
G1 X131.314 Y85.685 E2.47509
G1 X131.468 Y85.815 E2.48515
G1 X132.984 Y87.188 E2.58719
G1 X133.132 Y87.333 E2.59752
G1 X134.585 Y88.844 E2.70211
G1 X134.76 Y89.041 E2.71525
G1 X136.732 Y91.49 E2.87212
G1 X136.915 Y91.744 E2.88774
G1 X138.693 Y94.497 E3.05124
G1 X138.829 Y94.729 E3.06466
G1 X139.783 Y96.544 E3.16696
G1 X139.872 Y96.729 E3.1772
G1 X140.706 Y98.62 E3.28031
G1 X140.783 Y98.813 E3.29068
G1 X141.491 Y100.775 E3.39474
G1 X141.567 Y101.017 E3.40739
G1 X142.354 Y103.955 E3.55914
G1 X142.417 Y104.251 E3.57424
G1 X142.901 Y107.24 E3.7253
G1 X142.931 Y107.492 E3.73796
G1 X143.09 Y109.579 E3.84238
G1 X143.099 Y109.788 E3.85282
G1 X143.112 Y111.836 E3.955
G1 X143.106 Y112.042 E3.96528
G1 X142.975 Y114.141 E4.0702
G1 X142.955 Y114.346 E4.08048
G1 X142.684 Y116.4 E4.18384
G1 X142.65 Y116.605 E4.19421
G1 X142.24 Y118.624 E4.29699
G1 X142.193 Y118.822 E4.30715
G1 X141.645 Y120.816 E4.41032
G1 X141.584 Y121.012 E4.42056
G1 X140.917 Y122.918 E4.5213
G1 X140.845 Y123.103 E4.53121
G1 X140.055 Y124.957 E4.63175
G1 X139.968 Y125.143 E4.64199
G1 X139.028 Y126.988 E4.7453
G1 X138.927 Y127.171 E4.75573
G1 X137.837 Y128.986 E4.86135
G1 X137.725 Y129.159 E4.87163
G1 X136.563 Y130.823 E4.97289
G1 X136.438 Y130.988 E4.98322
G1 X135.116 Y132.627 E5.08827
G1 X134.981 Y132.784 E5.0986
G1 X133.566 Y134.31 E5.20243
G1 X133.423 Y134.454 E5.21255
G1 X131.974 Y135.819 E5.31187
G1 X131.821 Y135.953 E5.32202
G1 X130.208 Y137.278 E5.42616
G1 X130.044 Y137.404 E5.43648
G1 X128.359 Y138.604 E5.53968
G1 X128.188 Y138.717 E5.54991
G1 X126.46 Y139.777 E5.65104
G1 X126.238 Y139.901 E5.66373
G1 X123.461 Y141.296 E5.81877
G1 X123.229 Y141.4 E5.83146
G1 X121.35 Y142.152 E5.93243
G1 X121.148 Y142.225 E5.94315
G1 X119.083 Y142.885 E6.0513
G1 X118.824 Y142.955 E6.06469
G1 X115.57 Y143.682 E6.23103
G1 X115.307 Y143.728 E6.24435
G1 X113.321 Y143.989 E6.34429
G1 X113.119 Y144.009 E6.35441
G1 X111.044 Y144.14 E6.45814
G1 X110.84 Y144.146 E6.46832
G1 X108.808 Y144.136 E6.5697
G1 X108.603 Y144.128 E6.57994
G1 X106.536 Y143.976 E6.68334
G1 X106.279 Y143.946 E6.69625
G1 X103.167 Y143.445 E6.85351
G1 X102.913 Y143.393 E6.86644
G1 X100.994 Y142.911 E6.96515
G1 X100.8 Y142.855 E6.97523
G1 X98.803 Y142.208 E7.07996
G1 X98.61 Y142.138 E7.0902
G1 X96.715 Y141.377 E7.19208
G1 X96.485 Y141.273 E7.20467
G1 X93.758 Y139.902 E7.35695
G1 X93.53 Y139.775 E7.36997
G1 X91.701 Y138.646 E7.4772
G1 X91.531 Y138.532 E7.48742
G1 X89.93 Y137.386 E7.58564
G1 X89.768 Y137.262 E7.59582
G1 X88.13 Y135.912 E7.70172
G1 X87.976 Y135.776 E7.71197
G1 X86.499 Y134.378 E7.81343
G1 X86.356 Y134.233 E7.82359
G1 X84.974 Y132.735 E7.92528
G1 X84.838 Y132.578 E7.93564
G1 X83.52 Y130.934 E8.04076
G1 X83.398 Y130.77 E8.05096
G1 X82.224 Y129.082 E8.15354
G1 X82.111 Y128.906 E8.16397
G1 X81.03 Y127.094 E8.26924
G1 X80.931 Y126.914 E8.27949
G1 X80.021 Y125.12 E8.37985
G1 X79.917 Y124.893 E8.39231
G1 X78.78 Y122.096 E8.54294
G1 X78.694 Y121.857 E8.55561
G1 X78.074 Y119.863 E8.65979
G1 X78.007 Y119.609 E8.67289
G1 X77.341 Y116.546 E8.82928
G1 X77.298 Y116.296 E8.84193
G1 X77.041 Y114.319 E8.9414
G1 X77.022 Y114.116 E8.95157
G1 X76.892 Y112.001 E9.05729
G1 X76.886 Y111.793 E9.06767
G1 X76.902 Y109.758 E9.1692
G1 X76.911 Y109.554 E9.17938
G1 X77.067 Y107.507 E9.28181
G1 X77.098 Y107.248 E9.29482
G1 X77.612 Y104.125 E9.45272
G1 X77.666 Y103.867 E9.46587
G1 X78.221 Y101.701 E9.57743
G1 X78.283 Y101.493 E9.58825
G1 X78.937 Y99.542 E9.69091
G1 X79.009 Y99.349 E9.70119
G1 X79.796 Y97.446 E9.80393
G1 X79.88 Y97.259 E9.81416
G1 X80.809 Y95.386 E9.91847
G1 X80.907 Y95.205 E9.92873
G1 X81.936 Y93.445 E10.03045
G1 X82.045 Y93.273 E10.04061
G1 X83.208 Y91.562 E10.14382
G1 X83.329 Y91.396 E10.15407
G1 X84.598 Y89.779 E10.25662
G1 X84.731 Y89.621 E10.26692
G1 X86.12 Y88.082 E10.37035
G1 X86.262 Y87.935 E10.38055
G0 F3000 X86.54 Y88.222
G1 F1500 X88.001 Y86.81 E10.48191
G1 X88.133 Y86.691 E10.49078
G1 X89.719 Y85.355 E10.59424
G1 X89.859 Y85.246 E10.60309
G1 X91.509 Y84.039 E10.70508
G1 X91.657 Y83.938 E10.71402
G1 X93.451 Y82.806 E10.81985
G1 X93.606 Y82.715 E10.82882
G1 X95.389 Y81.756 E10.92983
G1 X95.545 Y81.679 E10.93851
G1 X97.386 Y80.842 E11.0394
G1 X97.549 Y80.775 E11.04819
G1 X99.473 Y80.053 E11.15072
G1 X99.643 Y79.996 E11.15966
G1 X101.657 Y79.395 E11.26452
G1 X101.872 Y79.34 E11.27559
G1 X104.841 Y78.724 E11.42687
G1 X105.056 Y78.689 E11.43774
G1 X107.079 Y78.444 E11.5394
G1 X107.257 Y78.429 E11.54832
G1 X109.331 Y78.321 E11.65193
G1 X109.511 Y78.317 E11.66091
G1 X111.633 Y78.354 E11.76679
G1 X111.813 Y78.364 E11.77579
G1 X113.835 Y78.54 E11.87705
G1 X114.011 Y78.561 E11.88589
G1 X116.069 Y78.882 E11.98981
G1 X116.287 Y78.926 E12.0009
G1 X119.276 Y79.659 E12.15444
G1 X119.446 Y79.707 E12.16325
G1 X120.429 Y80.02 E12.21472
G1 X120.596 Y80.079 E12.22356
G1 X123.419 Y81.195 E12.375
G1 X123.619 Y81.284 E12.38593
G1 X125.498 Y82.217 E12.49059
G1 X125.66 Y82.305 E12.49979
G1 X127.461 Y83.364 E12.60402
G1 X127.609 Y83.458 E12.61277
G1 X129.306 Y84.617 E12.71529
G1 X129.452 Y84.724 E12.72433
G1 X131.066 Y85.999 E12.82694
G1 X131.199 Y86.112 E12.83565
G1 X132.715 Y87.485 E12.93769
G1 X132.844 Y87.61 E12.94665
G1 X134.297 Y89.121 E13.05124
G1 X134.448 Y89.292 E13.06262
G1 X136.42 Y91.741 E13.21948
G1 X136.579 Y91.961 E13.23303
G1 X138.357 Y94.714 E13.39653
G1 X138.474 Y94.915 E13.40813
G1 X139.428 Y96.73 E13.51043
G1 X139.506 Y96.891 E13.51936
G1 X140.34 Y98.782 E13.62247
G1 X140.407 Y98.948 E13.6314
G1 X141.115 Y100.91 E13.73546
G1 X141.18 Y101.12 E13.74643
G1 X141.967 Y104.058 E13.89817
G1 X142.023 Y104.315 E13.91129
G1 X142.507 Y107.304 E14.06236
G1 X142.532 Y107.522 E14.07331
G1 X142.691 Y109.609 E14.17773
G1 X142.699 Y109.79 E14.18677
G1 X142.712 Y111.838 E14.28894
G1 X142.707 Y112.017 E14.29788
G1 X142.576 Y114.116 E14.4028
G1 X142.559 Y114.294 E14.41172
G1 X142.288 Y116.348 E14.51508
G1 X142.258 Y116.525 E14.52404
G1 X141.848 Y118.544 E14.62683
G1 X141.807 Y118.716 E14.63565
G1 X141.259 Y120.71 E14.73882
G1 X141.206 Y120.88 E14.7477
G1 X140.539 Y122.786 E14.84845
G1 X140.477 Y122.946 E14.85701
G1 X139.687 Y124.8 E14.95755
G1 X139.612 Y124.961 E14.96641
G1 X138.672 Y126.806 E15.06972
G1 X138.584 Y126.965 E15.07878
G1 X137.494 Y128.78 E15.18441
G1 X137.397 Y128.93 E15.19332
G1 X136.235 Y130.594 E15.29458
G1 X136.127 Y130.737 E15.30352
G1 X134.805 Y132.376 E15.40857
G1 X134.688 Y132.512 E15.41752
G1 X133.273 Y134.038 E15.52135
G1 X133.149 Y134.163 E15.53013
G1 X131.7 Y135.528 E15.62945
G1 X131.567 Y135.644 E15.63825
G1 X129.954 Y136.969 E15.74239
G1 X129.812 Y137.078 E15.75132
G1 X128.127 Y138.278 E15.85453
G1 X127.979 Y138.376 E15.86338
G1 X126.251 Y139.436 E15.96452
G1 X126.058 Y139.543 E15.97553
G1 X123.281 Y140.938 E16.13058
G1 X123.08 Y141.029 E16.14158
G1 X121.201 Y141.781 E16.24256
G1 X121.027 Y141.844 E16.25179
G1 X118.962 Y142.504 E16.35995
G1 X118.737 Y142.564 E16.37156
G1 X115.483 Y143.291 E16.53791
G1 X115.255 Y143.332 E16.54947
G1 X113.269 Y143.593 E16.6494
G1 X113.094 Y143.61 E16.65817
G1 X111.019 Y143.741 E16.7619
G1 X110.842 Y143.746 E16.77073
G1 X108.81 Y143.736 E16.87211
G1 X108.632 Y143.729 E16.881
G1 X106.565 Y143.577 E16.9844
G1 X106.343 Y143.551 E16.99555
G1 X103.231 Y143.05 E17.15281
G1 X103.011 Y143.005 E17.16401
G1 X101.092 Y142.523 E17.26273
G1 X100.924 Y142.474 E17.27146
G1 X98.927 Y141.827 E17.37619
G1 X98.759 Y141.767 E17.38509
G1 X96.864 Y141.006 E17.48697
G1 X96.665 Y140.916 E17.49786
G1 X93.938 Y139.545 E17.65014
G1 X93.74 Y139.434 E17.66146
G1 X91.911 Y138.305 E17.7687
G1 X91.764 Y138.207 E17.77751
G1 X90.163 Y137.061 E17.87574
G1 X90.022 Y136.953 E17.8846
G1 X88.384 Y135.603 E17.9905
G1 X88.251 Y135.485 E17.99937
G1 X86.774 Y134.087 E18.10083
G1 X86.65 Y133.962 E18.10962
G1 X85.268 Y132.464 E18.2113
G1 X85.15 Y132.327 E18.22032
G1 X83.832 Y130.683 E18.32544
G1 X83.726 Y130.542 E18.33424
G1 X82.552 Y128.854 E18.43682
G1 X82.454 Y128.701 E18.44589
G1 X81.373 Y126.889 E18.55115
G1 X81.287 Y126.733 E18.56004
G1 X80.377 Y124.939 E18.6604
G1 X80.287 Y124.742 E18.67121
G1 X79.15 Y121.945 E18.82184
G1 X79.076 Y121.738 E18.8328
G1 X78.456 Y119.744 E18.93698
G1 X78.398 Y119.524 E18.94833
G1 X77.732 Y116.461 E19.10472
G1 X77.695 Y116.244 E19.1157
G1 X77.438 Y114.267 E19.21516
G1 X77.421 Y114.092 E19.22394
G1 X77.291 Y111.977 E19.32965
G1 X77.286 Y111.797 E19.33864
G1 X77.302 Y109.762 E19.44017
G1 X77.31 Y109.584 E19.44906
G1 X77.466 Y107.537 E19.55148
G1 X77.493 Y107.313 E19.56273
G1 X78.007 Y104.19 E19.72064
G1 X78.053 Y103.967 E19.732
G1 X78.608 Y101.801 E19.84355
G1 X78.662 Y101.62 E19.85297
G1 X79.316 Y99.669 E19.95563
G1 X79.378 Y99.501 E19.96457
G1 X80.165 Y97.598 E20.06731
G1 X80.239 Y97.437 E20.07615
G1 X81.168 Y95.564 E20.18045
G1 X81.252 Y95.407 E20.18934
G1 X82.281 Y93.647 E20.29105
G1 X82.376 Y93.497 E20.29991
G1 X83.539 Y91.786 E20.40312
G1 X83.644 Y91.643 E20.41197
G1 X84.913 Y90.026 E20.51452
G1 X85.028 Y89.889 E20.52345
G1 X86.417 Y88.35 E20.62687
G1 X86.54 Y88.222 E20.63573
G0 F3000 X86.818 Y88.51
G1 F1500 X88.279 Y87.098 E20.7371
G1 X88.391 Y86.997 E20.74462
G1 X89.977 Y85.661 E20.84808
G1 X90.095 Y85.568 E20.85558
G1 X91.745 Y84.361 E20.95757
G1 X91.87 Y84.276 E20.96511
G1 X93.664 Y83.144 E21.07094
G1 X93.796 Y83.067 E21.07857
G1 X95.579 Y82.108 E21.17957
G1 X95.71 Y82.043 E21.18687
G1 X97.551 Y81.206 E21.28776
G1 X97.689 Y81.149 E21.29521
G1 X99.613 Y80.427 E21.39774
G1 X99.757 Y80.379 E21.40531
G1 X101.771 Y79.778 E21.51017
G1 X101.953 Y79.732 E21.51953
G1 X104.922 Y79.116 E21.67081
G1 X105.104 Y79.086 E21.68001
G1 X107.127 Y78.841 E21.78168
G1 X107.278 Y78.828 E21.78924
G1 X109.352 Y78.72 E21.89285
G1 X109.504 Y78.717 E21.90044
G1 X111.626 Y78.754 E22.00632
G1 X111.779 Y78.762 E22.01396
G1 X113.801 Y78.938 E22.11522
G1 X113.949 Y78.956 E22.12266
G1 X116.007 Y79.277 E22.22658
G1 X116.192 Y79.314 E22.23599
G1 X119.181 Y80.047 E22.38953
G1 X119.324 Y80.088 E22.39695
G1 X120.307 Y80.401 E22.44842
G1 X120.449 Y80.451 E22.45593
G1 X123.272 Y81.567 E22.60738
G1 X123.441 Y81.643 E22.61662
G1 X125.32 Y82.576 E22.72128
G1 X125.457 Y82.65 E22.72905
G1 X127.258 Y83.709 E22.83329
G1 X127.384 Y83.788 E22.84071
G1 X129.081 Y84.947 E22.94323
G1 X129.204 Y85.038 E22.95086
G1 X130.818 Y86.313 E23.05348
G1 X130.931 Y86.408 E23.06085
G1 X132.447 Y87.781 E23.16289
G1 X132.556 Y87.887 E23.17047
G1 X134.009 Y89.398 E23.27506
G1 X134.137 Y89.543 E23.28471
G1 X136.109 Y91.992 E23.44157
G1 X136.243 Y92.178 E23.45301
G1 X138.021 Y94.931 E23.61651
G1 X138.12 Y95.101 E23.62633
G1 X139.074 Y96.916 E23.72863
G1 X139.14 Y97.052 E23.73617
G1 X139.974 Y98.943 E23.83928
G1 X140.03 Y99.084 E23.84685
G1 X140.738 Y101.046 E23.95091
G1 X140.794 Y101.224 E23.96022
G1 X141.581 Y104.162 E24.11196
G1 X141.628 Y104.379 E24.12304
G1 X142.112 Y107.368 E24.27411
G1 X142.134 Y107.553 E24.2834
G1 X142.293 Y109.64 E24.38782
G1 X142.299 Y109.793 E24.39546
G1 X142.312 Y111.841 E24.49764
G1 X142.308 Y111.992 E24.50518
G1 X142.177 Y114.091 E24.6101
G1 X142.162 Y114.242 E24.61767
G1 X141.891 Y116.296 E24.72103
G1 X141.866 Y116.446 E24.72862
G1 X141.456 Y118.465 E24.8314
G1 X141.421 Y118.61 E24.83884
G1 X140.873 Y120.604 E24.94201
G1 X140.829 Y120.748 E24.94953
G1 X140.162 Y122.654 E25.05027
G1 X140.109 Y122.789 E25.05751
G1 X139.319 Y124.643 E25.15805
G1 X139.255 Y124.78 E25.16559
G1 X138.315 Y126.625 E25.2689
G1 X138.241 Y126.759 E25.27654
G1 X137.151 Y128.574 E25.38216
G1 X137.069 Y128.701 E25.3897
G1 X135.907 Y130.365 E25.49096
G1 X135.815 Y130.486 E25.49854
G1 X134.493 Y132.125 E25.6036
G1 X134.394 Y132.24 E25.61117
G1 X132.979 Y133.766 E25.71499
G1 X132.875 Y133.871 E25.72237
G1 X131.426 Y135.236 E25.82168
G1 X131.313 Y135.335 E25.82918
G1 X129.7 Y136.66 E25.93332
G1 X129.58 Y136.752 E25.94086
G1 X127.895 Y137.952 E26.04407
G1 X127.769 Y138.035 E26.0516
G1 X126.041 Y139.095 E26.15273
G1 X125.879 Y139.186 E26.162
G1 X123.102 Y140.581 E26.31705
G1 X122.931 Y140.657 E26.32638
G1 X121.052 Y141.409 E26.42736
G1 X120.905 Y141.463 E26.43517
G1 X118.84 Y142.123 E26.54333
G1 X118.65 Y142.174 E26.55314
G1 X115.396 Y142.901 E26.71949
G1 X115.203 Y142.935 E26.72926
G1 X113.217 Y143.196 E26.8292
G1 X113.069 Y143.211 E26.83662
G1 X110.994 Y143.342 E26.94035
G1 X110.844 Y143.346 E26.94783
G1 X108.812 Y143.336 E27.04921
G1 X108.662 Y143.33 E27.0567
G1 X106.595 Y143.178 E27.1601
G1 X106.406 Y143.156 E27.16959
G1 X103.294 Y142.655 E27.32685
G1 X103.108 Y142.617 E27.33632
G1 X101.189 Y142.135 E27.43504
G1 X101.047 Y142.094 E27.44241
G1 X99.05 Y141.447 E27.54714
G1 X98.908 Y141.396 E27.55467
G1 X97.013 Y140.635 E27.65655
G1 X96.845 Y140.559 E27.66575
G1 X94.118 Y139.188 E27.81802
G1 X93.95 Y139.094 E27.82763
G1 X92.121 Y137.965 E27.93486
G1 X91.996 Y137.882 E27.94235
G1 X90.395 Y136.736 E28.04058
G1 X90.277 Y136.645 E28.04801
G1 X88.639 Y135.295 E28.15391
G1 X88.526 Y135.195 E28.16144
G1 X87.049 Y133.797 E28.2629
G1 X86.944 Y133.691 E28.27034
G1 X85.562 Y132.193 E28.37202
G1 X85.463 Y132.077 E28.37963
G1 X84.145 Y130.433 E28.48476
G1 X84.055 Y130.313 E28.49224
G1 X82.881 Y128.625 E28.59482
G1 X82.798 Y128.496 E28.60247
G1 X81.717 Y126.684 E28.70774
G1 X81.644 Y126.552 E28.71526
G1 X80.734 Y124.758 E28.81562
G1 X80.658 Y124.591 E28.82478
G1 X79.521 Y121.794 E28.97541
G1 X79.458 Y121.619 E28.98469
G1 X78.838 Y119.625 E29.08887
G1 X78.789 Y119.439 E29.09846
G1 X78.123 Y116.376 E29.25485
G1 X78.091 Y116.193 E29.26412
G1 X77.834 Y114.216 E29.36358
G1 X77.82 Y114.067 E29.37104
G1 X77.69 Y111.952 E29.47676
G1 X77.686 Y111.8 E29.48435
G1 X77.702 Y109.765 E29.58588
G1 X77.708 Y109.615 E29.59337
G1 X77.864 Y107.568 E29.69579
G1 X77.887 Y107.378 E29.70534
G1 X78.401 Y104.255 E29.86324
G1 X78.441 Y104.066 E29.87288
G1 X78.996 Y101.9 E29.98443
G1 X79.041 Y101.747 E29.99239
G1 X79.695 Y99.796 E30.09505
G1 X79.748 Y99.654 E30.10261
