;FLAVOR:Marlin
;TIME:490
;Filament used: 0.256179m
;Layer height: 0.2
;Generated with Cura_SteamEngine 3.2.1
M190 S60
M104 S200
M109 S200
M82 ;absolute extrusion mode
G21 ;metric values
G90 ;absolute positioning
M82 ;set extruder to absolute mode
M107 ;start with the fan off
G28 X0 Y0 ;move X/Y to min endstops
G28 Z0 ;move Z to min endstops
G1 Z15.0 F9000 ;move the platform down 15mm
G92 E0 ;zero the extruded length
G1 F200 E3 ;extrude 3mm of feed stock
G92 E0 ;zero the extruded length again
G1 F9000
;Put printing message on LCD screen
M117 Printing...
;LAYER_COUNT:54
;LAYER:0
M107
G0 F3600 X100.045 Y99.328 Z0.3
;TYPE:SKIRT
G1 F900 X100.593 Y98.842 E0.03654
G1 X101.364 Y98.24 E0.08534
G1 X102.168 Y97.69 E0.13394
G1 X103.007 Y97.19 E0.18267
G1 X103.659 Y96.855 E0.21924
G1 X104.692 Y96.415 E0.27526
G1 X105.846 Y96.019 E0.33613
G1 X106.605 Y95.801 E0.37553
G1 X107.059 Y95.709 E0.39864
G1 X108.021 Y95.544 E0.44733
G1 X109.148 Y95.434 E0.50382
G1 X110.122 Y95.41 E0.55243
G1 X110.911 Y95.431 E0.59181
G1 X111.504 Y95.499 E0.62159
G1 X112.949 Y95.722 E0.69453
G1 X113.722 Y95.882 E0.73392
G1 X114.321 Y96.064 E0.76515
G1 X115.244 Y96.385 E0.8139
G1 X116.26 Y96.821 E0.86906
G1 X117.126 Y97.268 E0.91768
G1 X118.086 Y97.855 E0.97382
G1 X118.88 Y98.423 E1.02253
G1 X119.64 Y99.042 E1.07143
G1 X120.176 Y99.538 E1.10786
G1 X120.845 Y100.24 E1.15624
G1 X121.473 Y100.986 E1.20489
G1 X122.136 Y101.9 E1.26122
G1 X122.651 Y102.731 E1.31
G1 X123.033 Y103.423 E1.34943
G1 X123.225 Y103.849 E1.37275
G1 X123.693 Y104.976 E1.43363
G1 X123.958 Y105.719 E1.47298
G1 X124.08 Y106.173 E1.49644
G1 X124.304 Y107.121 E1.54504
G1 X124.446 Y107.898 E1.58444
G1 X124.494 Y108.364 E1.60781
G1 X124.58 Y109.579 E1.66858
G1 X124.595 Y110.369 E1.708
G1 X124.536 Y111.12 E1.74559
G1 X124.35 Y112.573 E1.81867
G1 X124.21 Y113.351 E1.85811
G1 X124.051 Y113.931 E1.88811
G1 X123.758 Y114.859 E1.93666
G1 X123.482 Y115.599 E1.97606
G1 X123.219 Y116.15 E2.00652
G1 X122.537 Y117.443 E2.07946
G1 X122.134 Y118.122 E2.11885
G1 X121.851 Y118.52 E2.14321
G1 X121.407 Y119.105 E2.17985
G1 X120.677 Y119.936 E2.23504
G1 X119.812 Y120.791 E2.29571
G1 X119.223 Y121.317 E2.33511
G1 X118.851 Y121.6 E2.35843
G1 X118.054 Y122.167 E2.40723
G1 X117.388 Y122.591 E2.44662
G1 X116.84 Y122.875 E2.47741
G1 X115.516 Y123.495 E2.55035
G1 X114.785 Y123.793 E2.58973
G1 X114.218 Y123.967 E2.61932
G1 X113.277 Y124.218 E2.66791
G1 X112.505 Y124.383 E2.7073
G1 X111.885 Y124.457 E2.73845
G1 X110.426 Y124.573 E2.81147
G1 X109.637 Y124.596 E2.85085
G1 X109.016 Y124.558 E2.88189
G1 X108.046 Y124.459 E2.93053
G1 X107.265 Y124.339 E2.96995
G1 X106.827 Y124.235 E2.99241
G1 X105.65 Y123.921 E3.05319
G1 X104.899 Y123.68 E3.09254
G1 X104.46 Y123.498 E3.11625
G1 X103.569 Y123.097 E3.16499
G1 X102.69 Y122.632 E3.2146
G1 X102.066 Y122.249 E3.25113
G1 X101.289 Y121.704 E3.29848
G1 X100.525 Y121.096 E3.3472
G1 X99.686 Y120.322 E3.40414
G1 X99.019 Y119.609 E3.45285
G1 X98.307 Y118.728 E3.50937
G1 X97.751 Y117.927 E3.55801
G1 X97.334 Y117.256 E3.59743
G1 X97.071 Y116.735 E3.62654
G1 X96.46 Y115.405 E3.69957
G1 X96.167 Y114.672 E3.73895
G1 X95.925 Y113.8 E3.7841
G1 X95.616 Y112.373 E3.85694
G1 X95.488 Y111.593 E3.89637
G1 X95.439 Y110.711 E3.94045
G1 X95.441 Y109.25 E4.01334
G1 X95.482 Y108.462 E4.0527
G1 X95.568 Y107.857 E4.08319
G1 X95.744 Y106.895 E4.13198
G1 X95.926 Y106.127 E4.17136
G1 X96.118 Y105.547 E4.20184
G1 X96.633 Y104.181 E4.27467
G1 X96.949 Y103.457 E4.31408
G1 X97.239 Y102.927 E4.34422
G1 X97.74 Y102.09 E4.39289
G1 X98.18 Y101.434 E4.4323
G1 X98.473 Y101.064 E4.45584
G1 X99.26 Y100.132 E4.5167
G1 X100.045 Y99.328 E4.57276
G0 F3600 X100.31 Y99.628
G1 F900 X100.858 Y99.142 E4.6093
G1 X101.59 Y98.57 E4.65565
G1 X102.394 Y98.02 E4.70425
G1 X103.19 Y97.546 E4.75047
G1 X103.842 Y97.211 E4.78704
G1 X104.822 Y96.794 E4.84018
G1 X105.976 Y96.398 E4.90105
G1 X106.716 Y96.186 E4.93945
G1 X107.127 Y96.104 E4.96036
G1 X108.089 Y95.939 E5.00905
G1 X109.158 Y95.834 E5.06264
G1 X110.132 Y95.81 E5.11125
G1 X110.901 Y95.831 E5.14963
G1 X111.443 Y95.895 E5.17686
G1 X112.888 Y96.118 E5.2498
G1 X113.641 Y96.274 E5.28817
G1 X114.19 Y96.442 E5.31681
G1 X115.113 Y96.763 E5.36557
G1 X116.076 Y97.176 E5.41784
G1 X116.942 Y97.623 E5.46646
G1 X117.853 Y98.18 E5.51974
G1 X118.647 Y98.748 E5.56844
G1 X119.368 Y99.336 E5.61486
G1 X119.904 Y99.832 E5.65129
G1 X120.539 Y100.497 E5.69716
G1 X121.167 Y101.243 E5.74581
G1 X121.796 Y102.111 E5.79929
G1 X122.311 Y102.942 E5.84807
G1 X122.682 Y103.616 E5.88645
G1 X122.855 Y104.002 E5.90756
G1 X123.323 Y105.129 E5.96844
G1 X123.581 Y105.854 E6.00683
G1 X123.691 Y106.265 E6.02806
G1 X123.915 Y107.213 E6.07665
G1 X124.052 Y107.97 E6.11503
G1 X124.095 Y108.393 E6.13625
G1 X124.181 Y109.608 E6.19701
G1 X124.195 Y110.377 E6.23539
G1 X124.139 Y111.07 E6.27007
G1 X123.953 Y112.523 E6.34316
G1 X123.816 Y113.279 E6.38149
G1 X123.67 Y113.811 E6.40901
G1 X123.377 Y114.739 E6.45756
G1 X123.107 Y115.459 E6.49592
G1 X122.865 Y115.963 E6.52382
G1 X122.183 Y117.256 E6.59675
G1 X121.79 Y117.917 E6.63511
G1 X121.533 Y118.278 E6.65722
G1 X121.089 Y118.863 E6.69386
G1 X120.396 Y119.652 E6.74625
G1 X119.531 Y120.507 E6.80693
G1 X118.957 Y121.018 E6.84527
G1 X118.619 Y121.274 E6.86643
G1 X117.822 Y121.841 E6.91523
G1 X117.173 Y122.253 E6.95358
G1 X116.67 Y122.513 E6.98183
G1 X115.346 Y123.133 E7.05476
G1 X114.634 Y123.422 E7.0931
G1 X114.115 Y123.581 E7.12018
G1 X113.174 Y123.832 E7.16877
G1 X112.422 Y123.991 E7.20712
G1 X111.853 Y124.059 E7.23571
G1 X110.394 Y124.175 E7.30873
G1 X109.626 Y124.196 E7.34706
G1 X109.057 Y124.16 E7.3755
G1 X108.087 Y124.061 E7.42414
G1 X107.327 Y123.943 E7.46252
G1 X106.931 Y123.849 E7.48282
G1 X105.754 Y123.535 E7.5436
G1 X105.022 Y123.298 E7.58198
G1 X104.624 Y123.133 E7.60348
G1 X103.733 Y122.732 E7.65222
G1 X102.899 Y122.291 E7.69929
G1 X102.275 Y121.908 E7.73582
G1 X101.538 Y121.391 E7.78073
G1 X100.774 Y120.783 E7.82945
G1 X99.978 Y120.048 E7.8835
G1 X99.311 Y119.335 E7.93221
G1 X98.636 Y118.5 E7.98578
G1 X98.08 Y117.699 E8.03442
G1 X97.675 Y117.045 E8.0728
G1 X97.435 Y116.568 E8.09944
G1 X96.824 Y115.238 E8.17246
G1 X96.539 Y114.523 E8.21086
G1 X96.316 Y113.715 E8.25268
G1 X96.007 Y112.288 E8.32552
G1 X95.883 Y111.529 E8.36389
G1 X95.839 Y110.712 E8.40471
G1 X95.841 Y109.251 E8.4776
G1 X95.882 Y108.483 E8.51597
G1 X95.962 Y107.929 E8.5439
G1 X96.138 Y106.967 E8.59269
G1 X96.315 Y106.219 E8.63104
G1 X96.493 Y105.688 E8.65898
G1 X97.008 Y104.322 E8.73181
G1 X97.316 Y103.618 E8.77015
G1 X97.583 Y103.132 E8.79781
G1 X98.084 Y102.295 E8.84648
G1 X98.512 Y101.657 E8.88481
G1 X98.779 Y101.322 E8.90618
G1 X99.566 Y100.39 E8.96704
G1 X100.31 Y99.628 E9.02017
G0 F3600 X100.575 Y99.927
G1 F900 X101.123 Y99.441 E9.05671
G1 X101.816 Y98.9 E9.10057
G1 X102.62 Y98.35 E9.14917
G1 X103.373 Y97.902 E9.19289
G1 X104.025 Y97.567 E9.22946
G1 X104.952 Y97.172 E9.27973
G1 X106.106 Y96.776 E9.3406
G1 X106.825 Y96.571 E9.3779
G1 X107.195 Y96.498 E9.39671
G1 X108.157 Y96.333 E9.44541
G1 X109.168 Y96.234 E9.49609
G1 X110.142 Y96.21 E9.5447
G1 X110.889 Y96.232 E9.58198
G1 X111.382 Y96.29 E9.60675
G1 X112.827 Y96.513 E9.67969
G1 X113.559 Y96.666 E9.717
G1 X114.058 Y96.819 E9.74304
G1 X114.981 Y97.14 E9.79179
G1 X115.893 Y97.532 E9.84132
G1 X116.759 Y97.979 E9.88994
G1 X117.621 Y98.506 E9.94034
G1 X118.415 Y99.074 E9.98905
G1 X119.096 Y99.629 E10.03288
G1 X119.632 Y100.125 E10.06931
G1 X120.233 Y100.755 E10.11275
G1 X120.861 Y101.501 E10.1614
G1 X121.456 Y102.322 E10.21199
G1 X121.971 Y103.153 E10.26076
G1 X122.331 Y103.809 E10.29809
G1 X122.486 Y104.155 E10.31701
G1 X122.954 Y105.282 E10.37789
G1 X123.203 Y105.988 E10.41524
G1 X123.301 Y106.357 E10.43429
G1 X123.525 Y107.305 E10.48289
G1 X123.658 Y108.041 E10.5202
G1 X123.696 Y108.421 E10.53925
G1 X123.782 Y109.636 E10.60002
G1 X123.794 Y110.384 E10.63734
G1 X123.742 Y111.019 E10.66913
G1 X123.556 Y112.472 E10.74221
G1 X123.422 Y113.208 E10.77953
G1 X123.288 Y113.691 E10.80454
G1 X122.995 Y114.619 E10.85309
G1 X122.732 Y115.319 E10.8904
G1 X122.512 Y115.777 E10.91575
G1 X121.83 Y117.07 E10.98868
G1 X121.446 Y117.712 E11.026
G1 X121.214 Y118.036 E11.04588
G1 X120.77 Y118.621 E11.08252
G1 X120.115 Y119.367 E11.13205
G1 X119.25 Y120.222 E11.19273
G1 X118.691 Y120.719 E11.23005
G1 X118.387 Y120.948 E11.24904
G1 X117.59 Y121.515 E11.29783
G1 X116.958 Y121.915 E11.33515
G1 X116.501 Y122.15 E11.36079
G1 X115.177 Y122.77 E11.43372
G1 X114.483 Y123.051 E11.47108
G1 X114.012 Y123.195 E11.49565
G1 X113.071 Y123.446 E11.54424
G1 X112.339 Y123.599 E11.58155
G1 X111.822 Y123.66 E11.60752
G1 X110.363 Y123.776 E11.68054
G1 X109.615 Y123.795 E11.71787
G1 X109.097 Y123.762 E11.74376
G1 X108.127 Y123.663 E11.79241
G1 X107.034 Y123.462 E11.84785
G1 X105.857 Y123.148 E11.90863
G1 X105.145 Y122.917 E11.94597
G1 X104.788 Y122.768 E11.96527
G1 X103.897 Y122.367 E12.01402
G1 X103.108 Y121.95 E12.05854
G1 X102.484 Y121.567 E12.09507
G1 X101.787 Y121.078 E12.13755
G1 X101.023 Y120.47 E12.18626
G1 X100.27 Y119.775 E12.23738
G1 X99.603 Y119.062 E12.28609
G1 X98.965 Y118.272 E12.33676
G1 X98.409 Y117.471 E12.3854
G1 X98.015 Y116.834 E12.42277
G1 X97.798 Y116.401 E12.44693
G1 X97.187 Y115.071 E12.51995
G1 X96.912 Y114.376 E12.55724
G1 X96.707 Y113.63 E12.59584
G1 X96.398 Y112.203 E12.66868
G1 X96.279 Y111.465 E12.70598
G1 X96.239 Y110.712 E12.7436
G1 X96.241 Y109.251 E12.81649
G1 X96.282 Y108.504 E12.85381
G1 X96.355 Y108.001 E12.87917
G1 X96.531 Y107.039 E12.92796
G1 X96.705 Y106.312 E12.96526
G1 X96.867 Y105.83 E12.99062
G1 X97.382 Y104.464 E13.06346
G1 X97.683 Y103.779 E13.10079
G1 X97.926 Y103.338 E13.12591
G1 X98.427 Y102.501 E13.17457
G1 X98.845 Y101.88 E13.21192
G1 X99.085 Y101.58 E13.23109
G1 X99.872 Y100.648 E13.29195
G1 X100.575 Y99.927 E13.34218
G0 F3600 X100.841 Y100.226
G1 F900 X101.389 Y99.74 E13.37873
G1 X102.042 Y99.231 E13.42003
G1 X102.846 Y98.681 E13.46863
G1 X103.556 Y98.258 E13.50986
G1 X104.208 Y97.923 E13.54644
G1 X105.082 Y97.55 E13.59384
G1 X106.236 Y97.154 E13.65471
G1 X107.262 Y96.892 E13.70754
G1 X108.224 Y96.727 E13.75624
G1 X109.177 Y96.634 E13.80401
G1 X110.151 Y96.61 E13.85262
G1 X110.877 Y96.632 E13.88885
G1 X111.321 Y96.685 E13.91116
G1 X112.766 Y96.908 E13.98411
G1 X113.476 Y97.058 E14.02031
G1 X113.927 Y97.197 E14.04386
G1 X114.85 Y97.518 E14.09261
G1 X115.709 Y97.887 E14.13925
G1 X116.575 Y98.334 E14.18787
G1 X117.388 Y98.831 E14.23541
G1 X118.182 Y99.399 E14.28412
G1 X118.825 Y99.923 E14.3255
G1 X119.361 Y100.419 E14.36194
G1 X119.927 Y101.013 E14.40287
G1 X120.555 Y101.759 E14.45152
G1 X121.116 Y102.532 E14.49917
G1 X121.631 Y103.363 E14.54794
G1 X122.116 Y104.309 E14.60098
G1 X122.584 Y105.436 E14.66186
G1 X122.912 Y106.449 E14.71499
G1 X123.136 Y107.397 E14.76358
G1 X123.297 Y108.449 E14.81668
G1 X123.383 Y109.664 E14.87745
G1 X123.394 Y110.39 E14.91367
G1 X123.346 Y110.968 E14.94261
G1 X123.16 Y112.421 E15.01569
G1 X123.028 Y113.135 E15.05192
G1 X122.907 Y113.57 E15.07444
G1 X122.614 Y114.498 E15.12299
G1 X122.357 Y115.178 E15.15926
G1 X122.158 Y115.59 E15.18209
G1 X121.476 Y116.883 E15.25502
G1 X120.895 Y117.794 E15.30892
G1 X120.451 Y118.379 E15.34556
G1 X119.834 Y119.083 E15.39227
G1 X118.969 Y119.938 E15.45295
G1 X118.155 Y120.622 E15.50599
G1 X117.358 Y121.189 E15.55479
G1 X116.744 Y121.577 E15.59102
G1 X116.331 Y121.788 E15.61416
G1 X115.007 Y122.408 E15.6871
G1 X114.333 Y122.679 E15.72334
G1 X113.909 Y122.808 E15.74545
G1 X112.968 Y123.059 E15.79404
G1 X112.257 Y123.207 E15.83027
G1 X111.79 Y123.261 E15.85373
G1 X110.331 Y123.377 E15.92675
G1 X109.605 Y123.395 E15.96298
G1 X109.138 Y123.364 E15.98633
G1 X108.168 Y123.265 E16.03497
G1 X107.137 Y123.076 E16.08727
G1 X105.96 Y122.762 E16.14804
G1 X104.952 Y122.404 E16.20141
G1 X104.061 Y122.003 E16.25016
G1 X103.317 Y121.609 E16.29216
G1 X102.693 Y121.226 E16.32869
G1 X102.036 Y120.765 E16.36873
G1 X101.272 Y120.157 E16.41744
G1 X100.562 Y119.502 E16.46563
G1 X99.895 Y118.789 E16.51434
G1 X99.293 Y118.043 E16.56217
G1 X98.737 Y117.242 E16.61082
G1 X98.356 Y116.624 E16.64704
G1 X98.162 Y116.234 E16.66877
G1 X97.551 Y114.904 E16.74179
G1 X97.284 Y114.228 E16.77805
G1 X97.097 Y113.546 E16.81333
G1 X96.788 Y112.119 E16.88617
G1 X96.674 Y111.401 E16.92244
G1 X96.639 Y110.713 E16.95681
G1 X96.641 Y109.252 E17.0297
G1 X96.682 Y108.527 E17.06593
G1 X96.749 Y108.073 E17.08883
G1 X96.925 Y107.111 E17.13762
G1 X97.095 Y106.405 E17.17385
G1 X97.241 Y105.971 E17.19669
G1 X97.756 Y104.605 E17.26952
G1 X98.05 Y103.94 E17.3058
G1 X98.269 Y103.543 E17.32842
G1 X98.77 Y102.706 E17.37708
G1 X99.39 Y101.838 E17.4303
G1 X100.177 Y100.906 E17.49116
G1 X100.841 Y100.226 E17.53858
G0 F3600 X101.106 Y100.525
G1 F900 X101.654 Y100.039 E17.57512
G1 X102.267 Y99.561 E17.6139
G1 X103.071 Y99.011 E17.6625
G1 X103.739 Y98.613 E17.70129
G1 X104.391 Y98.278 E17.73786
G1 X105.212 Y97.929 E17.78237
G1 X106.366 Y97.533 E17.84324
G1 X107.33 Y97.286 E17.89289
G1 X108.292 Y97.121 E17.94158
G1 X109.187 Y97.034 E17.98645
G1 X110.161 Y97.01 E18.03505
G1 X110.865 Y97.033 E18.07019
G1 X111.26 Y97.081 E18.09005
G1 X112.705 Y97.304 E18.16299
G1 X113.393 Y97.45 E18.19808
G1 X113.796 Y97.575 E18.21913
G1 X114.719 Y97.896 E18.26788
G1 X115.526 Y98.243 E18.31171
G1 X116.392 Y98.69 E18.36033
G1 X117.155 Y99.156 E18.40494
G1 X117.949 Y99.724 E18.45364
G1 X118.553 Y100.216 E18.49251
G1 X119.089 Y100.712 E18.52894
G1 X119.621 Y101.27 E18.5674
G1 X120.249 Y102.016 E18.61605
G1 X120.776 Y102.743 E18.66085
G1 X121.291 Y103.574 E18.70963
G1 X121.747 Y104.462 E18.75943
G1 X122.215 Y105.589 E18.82031
G1 X122.523 Y106.541 E18.87023
G1 X122.747 Y107.489 E18.91883
G1 X122.898 Y108.477 E18.96869
G1 X122.984 Y109.692 E19.02946
G1 X122.993 Y110.396 E19.06458
G1 X122.949 Y110.917 E19.09067
G1 X122.763 Y112.37 E19.16375
G1 X122.634 Y113.062 E19.19887
G1 X122.525 Y113.45 E19.21898
G1 X122.232 Y114.378 E19.26753
G1 X121.983 Y115.036 E19.30263
G1 X121.804 Y115.404 E19.32304
G1 X121.122 Y116.697 E19.39598
G1 X120.577 Y117.552 E19.44656
G1 X120.133 Y118.137 E19.4832
G1 X119.552 Y118.798 E19.52711
G1 X118.687 Y119.653 E19.58779
G1 X117.923 Y120.296 E19.6376
G1 X117.126 Y120.863 E19.6864
G1 X116.53 Y121.238 E19.72153
G1 X116.161 Y121.426 E19.74219
G1 X114.837 Y122.046 E19.81513
G1 X114.184 Y122.308 E19.85024
G1 X113.806 Y122.422 E19.86993
G1 X112.865 Y122.673 E19.91852
G1 X112.175 Y122.815 E19.95367
G1 X111.758 Y122.862 E19.9746
G1 X110.299 Y122.978 E20.04762
G1 X109.596 Y122.994 E20.0827
G1 X109.178 Y122.966 E20.1036
G1 X108.208 Y122.867 E20.15225
G1 X107.24 Y122.689 E20.20135
G1 X106.063 Y122.375 E20.26213
G1 X105.116 Y122.039 E20.31226
G1 X104.225 Y121.638 E20.36101
G1 X103.527 Y121.268 E20.40042
G1 X102.903 Y120.885 E20.43695
G1 X102.285 Y120.452 E20.47459
G1 X101.521 Y119.844 E20.52331
G1 X100.854 Y119.229 E20.56857
G1 X100.187 Y118.516 E20.61728
G1 X99.622 Y117.815 E20.6622
G1 X99.066 Y117.014 E20.71084
G1 X98.698 Y116.414 E20.74596
G1 X98.525 Y116.067 E20.7653
G1 X97.914 Y114.737 E20.83833
G1 X97.657 Y114.082 E20.87343
G1 X97.488 Y113.461 E20.90554
G1 X97.179 Y112.034 E20.97838
G1 X97.07 Y111.339 E21.01348
G1 X97.039 Y110.714 E21.0447
G1 X97.041 Y109.253 E21.11759
G1 X97.082 Y108.55 E21.15272
G1 X97.142 Y108.145 E21.17315
G1 X97.318 Y107.183 E21.22194
G1 X97.484 Y106.499 E21.25705
G1 X97.616 Y106.112 E21.27745
G1 X98.131 Y104.746 E21.35029
G1 X98.416 Y104.102 E21.38542
G1 X98.612 Y103.749 E21.40556
G1 X99.113 Y102.912 E21.45423
G1 X99.696 Y102.096 E21.50426
G1 X100.483 Y101.164 E21.56512
G1 X101.106 Y100.525 E21.60965
G0 F3600 X101.372 Y100.825
G1 F900 X101.92 Y100.339 E21.64619
G1 X102.493 Y99.891 E21.68248
