;FLAVOR:Marlin
;TIME:3211
;Filament used: 2.51142m
;Layer height: 0.3
;Generated with Cura_SteamEngine 3.6.0
M140 S70
M105
M190 S70
M104 S200
M105
M109 S200
M82 ;absolute extrusion mode
G21 ;metric values
G90 ;absolute positioning
M82 ;set extruder to absolute mode
M107 ;start with the fan off
G28 X0 Y0 ;move X/Y to min endstops
G28 Z0 ;move Z to min endstops
G1 Z15.0 F9000 ;move the platform down 15mm
G92 E0 ;zero the extruded length
G1 F200 E3 ;extrude 3mm of feed stock
G92 E0 ;zero the extruded length again
G1 F9000
;Put printing message on LCD screen
M117 Printing...
G92 E0
G1 F1500 E-6.5
;LAYER_COUNT:130
;LAYER:0
M107
;MESH:Glove_clip_V2_.stl
G0 F3000 X87.4 Y114.249 Z0.3
;TYPE:WALL-INNER
G1 F1500 E0
G1 X90.751 Y117.6 E0.23643
G1 X92.679 Y117.6 E0.33262
G1 X93.673 Y119.09 E0.42198
G1 X93.879 Y119.4 E0.44055
G1 X93.507 Y119.4 E0.45094
G1 X93.506 Y119.4 E0.45099
G1 X90.248 Y119.4 E0.61353
G1 X85.6 Y114.752 E0.94147
G1 X85.6 Y112.986 E1.02958
G1 X87.2 Y112.985 E1.1094
G1 X87.4 Y112.985 E1.11938
G1 X87.4 Y113.185 E1.12584
G1 X87.4 Y114.249 E1.17892
G0 F3000 X87.8 Y114.083
;TYPE:WALL-OUTER
G1 F1500 X90.917 Y117.2 E1.39885
G1 X92.893 Y117.2 E1.49743
G1 X94.421 Y119.49 E1.63478
G1 X94.627 Y119.8 E1.65334
G1 X94.255 Y119.8 E1.66373
G1 X94.254 Y119.8 E1.66378
G1 X90.082 Y119.8 E1.87193
G1 X85.2 Y114.918 E2.21638
G1 X85.2 Y112.586 E2.33272
G1 X87.6 Y112.585 E2.45246
G1 X87.8 Y112.585 E2.46244
G1 X87.8 Y112.785 E2.4689
G1 X87.8 Y114.083 E2.53365
G0 F3000 X87.941 Y114.224
G0 X87.587 Y114.577
G0 X87.01 Y114.411
;TYPE:SKIN
G1 F1500 X90.589 Y117.99 E2.78617
G1 X92.471 Y117.99 E2.88007
G1 X93.151 Y119.01 E2.94122
G1 X90.408 Y119.01 E3.07807
G1 X85.99 Y114.592 E3.38979
G1 X85.99 Y113.376 E3.45045
G1 X87.01 Y113.375 E3.50134
G1 X87.01 Y114.411 E3.55303
G0 F3000 X90.431 Y118.368
G1 F1500 X86.63 Y114.568 E3.82117
G1 X86.63 Y114.349 E3.8321
G1 X86.37 Y114.088 E3.85048
G0 F3000 X86.37 Y114.435
G1 F1500 X90.564 Y118.629 E4.14639
G1 X90.91 Y118.629 E4.16365
G1 X90.65 Y118.368 E4.18203
G0 F3000 X90.91 Y118.629
G1 F1500 X91.476 Y118.629 E4.21027
G1 X91.216 Y118.368 E4.22865
G1 X91.781 Y118.368 E4.25684
G1 X92.041 Y118.629 E4.27522
G0 F3000 X91.781 Y118.368
G1 F1500 X92.266 Y118.368 E4.29941
G1 X92.44 Y118.629 E4.31506
G0 F3000 X90.735 Y117.636
G0 X86.63 Y113.783
G0 X86.63 Y114.066
G1 F1500 X86.615 Y113.754 E4.34468
G0 F3000 X86.629 Y113.754
G1 F1500 E-2.15532
G0 F3000 X90.743 Y117.618
G0 X91.274 Y116.339
G0 X97.443 Y115.096
G0 X98.626 Y114.649
G0 X101.601 Y117.69
G0 X132.63 Y113.551
G0 X132.674 Y106.401
G0 X132.6 Y106.467
;TYPE:WALL-INNER
G1 F1500 E4.34468
G1 X102.726 Y102.895 E5.84572
G1 X101.933 Y101.534 E5.9243
G1 X101.822 Y101.344 E5.93528
G1 X101.811 Y101.3 E5.93754
G1 X101.816 Y101.245 E5.9403
G1 X101.856 Y101.201 E5.94327
G1 X101.909 Y101.179 E5.94613
G1 X102.127 Y101.21 E5.95447
G1 X134.031 Y105.767 E7.56232
G1 X134.066 Y105.788 E7.56436
G1 X134.09 Y105.816 E7.5662
G1 X134.102 Y105.842 E7.56763
G1 X134.103 Y114.153 E7.98226
G1 X134.09 Y114.184 E7.98394
G1 X134.064 Y114.214 E7.98592
G1 X134.036 Y114.231 E7.98756
G1 X100.286 Y119.056 E9.68847
G1 X94.011 Y102.4 E10.57646
G1 X90.751 Y102.4 E10.7391
G1 X87.4 Y105.751 E10.97553
G1 X87.4 Y110.285 E11.20173
G1 X85.6 Y110.285 E11.29153
G1 X85.6 Y105.248 E11.54283
G1 X90.248 Y100.6 E11.87077
G1 X94.598 Y100.6 E12.0878
G1 X101.621 Y117.656 E13.00804
G1 X132.6 Y113.525 E14.56727
G1 X132.6 Y106.467 E14.91939
G0 F3000 X132.2 Y106.822
;TYPE:WALL-OUTER
G1 F1500 X102.48 Y103.268 E16.41269
G1 X101.45 Y101.502 E16.51469
G1 X101.409 Y101.344 E16.52283
G1 X101.415 Y101.175 E16.53127
G1 X101.469 Y101.032 E16.53889
G1 X101.613 Y100.873 E16.5496
G1 X101.637 Y100.857 E16.55104
G1 X101.83 Y100.78 E16.5614
G1 X101.961 Y100.779 E16.56794
G1 X134.069 Y105.365 E18.18607
G1 X134.182 Y105.391 E18.19185
G1 X134.326 Y105.478 E18.20025
G1 X134.434 Y105.6 E18.20838
G1 X134.496 Y105.748 E18.21638
G1 X134.505 Y105.88 E18.22298
G1 X134.506 Y114.133 E18.63473
G1 X134.497 Y114.247 E18.64043
G1 X134.433 Y114.4 E18.64871
G1 X134.326 Y114.523 E18.65684
G1 X134.184 Y114.608 E18.6651
G1 X134.058 Y114.635 E18.67153
G1 X100.025 Y119.497 E20.38668
G1 X93.734 Y102.8 E21.27686
G1 X90.917 Y102.8 E21.4174
G1 X87.8 Y105.917 E21.63732
G1 X87.8 Y110.685 E21.8752
G1 X85.2 Y110.685 E22.00491
G1 X85.2 Y105.082 E22.28445
G1 X90.082 Y100.2 E22.6289
G1 X94.866 Y100.2 E22.86757
G1 X101.874 Y117.219 E23.78582
G1 X132.2 Y113.175 E25.31219
G1 X132.2 Y106.822 E25.62914
G0 F3000 X132.002 Y106.799
G0 X132.061 Y106.303
G0 X132.99 Y106.12
;TYPE:SKIN
G1 F1500 X102.965 Y102.53 E27.13776
G1 X102.453 Y101.651 E27.18851
G1 X133.712 Y106.116 E28.76386
G1 X133.713 Y113.883 E29.15136
G1 X100.541 Y118.625 E30.82314
G1 X94.28 Y102.01 E31.70896
G1 X90.589 Y102.01 E31.89311
G1 X87.01 Y105.589 E32.14563
G1 X87.01 Y109.895 E32.36045
G1 X85.99 Y109.895 E32.41134
G1 X85.99 Y105.408 E32.6352
G1 X90.408 Y100.99 E32.94691
G1 X94.337 Y100.99 E33.14293
G1 X101.375 Y118.083 E34.06516
G1 X132.99 Y113.866 E35.65641
G1 X132.99 Y106.12 E36.04286
G0 F3000 X104.659 Y102.348
G1 F1500 X104.603 Y102.34 E36.04568
G0 F3000 X104.604 Y102.341
G1 F1500 X103.962 Y102.265 E36.07794
G0 F3000 X103.944 Y102.247
G1 F1500 X103.284 Y102.153 E36.1112
G0 F3000 X103.32 Y102.188
G1 F1500 X103.198 Y102.174 E36.11732
G1 X103.176 Y102.138 E36.11943
G0 F3000 X132.629 Y106.441
G0 X132.63 Y113.551
G0 X101.601 Y117.69
G0 X94.131 Y101.485
G1 F1500 X94.015 Y101.369 E36.12761
G0 F3000 X94.049 Y101.369
G1 F1500 X93.732 Y101.369 E36.15813
G1 X93.579 Y101.498 E36.1774
G0 F3000 X93.709 Y101.628
G1 F1500 X93.143 Y101.628 E36.20563
G1 X92.884 Y101.369 E36.22391
G1 X92.318 Y101.369 E36.25215
G1 X92.577 Y101.628 E36.27042
G1 X92.012 Y101.628 E36.29861
G1 X91.752 Y101.369 E36.31692
G1 X91.187 Y101.369 E36.3451
G1 X91.446 Y101.628 E36.36338
G1 X90.88 Y101.628 E36.39162
G1 X90.621 Y101.369 E36.40989
G1 X90.564 Y101.368 E36.41273
G1 X90.309 Y101.623 E36.43073
G1 X90.373 Y101.686 E36.43521
G1 X90.09 Y101.969 E36.45517
G1 X90.026 Y101.906 E36.45965
G1 X89.743 Y102.188 E36.47959
G1 X89.807 Y102.252 E36.4841
G1 X89.524 Y102.535 E36.50407
G1 X89.461 Y102.471 E36.50855
G1 X89.178 Y102.754 E36.52852
G1 X89.241 Y102.818 E36.533
G1 X88.958 Y103.101 E36.55296
G1 X88.895 Y103.037 E36.55744
G1 X88.612 Y103.32 E36.57741
G1 X88.676 Y103.383 E36.58189
G1 X88.393 Y103.666 E36.60186
G1 X88.329 Y103.603 E36.60634
G1 X88.046 Y103.886 E36.62631
G1 X88.11 Y103.949 E36.63079
G1 X87.827 Y104.232 E36.65075
G1 X87.763 Y104.168 E36.65527
G1 X87.481 Y104.451 E36.6752
G1 X87.544 Y104.515 E36.67968
G1 X87.261 Y104.798 E36.69965
G1 X87.198 Y104.734 E36.70413
G1 X86.915 Y105.017 E36.7241
G1 X86.979 Y105.081 E36.72861
G1 X86.696 Y105.363 E36.74854
G1 X86.632 Y105.3 E36.75302
G1 X86.369 Y105.563 E36.77158
G1 X86.369 Y105.602 E36.77353
G1 X86.629 Y105.863 E36.79191
G1 X86.629 Y106.428 E36.82009
G1 X86.369 Y106.168 E36.83844
G1 X86.369 Y106.734 E36.86668
G1 X86.629 Y106.994 E36.88502
G1 X86.629 Y107.56 E36.91326
G1 X86.369 Y107.299 E36.93164
G1 X86.369 Y107.865 E36.95988
G1 X86.629 Y108.125 E36.97822
G1 X86.629 Y108.691 E37.00646
G1 X86.369 Y108.431 E37.0248
G1 X86.369 Y108.996 E37.05299
G1 X86.629 Y109.257 E37.07137
G1 X86.629 Y109.514 E37.08419
G1 X86.37 Y109.513 E37.09711
G0 F3000 X87.364 Y105.736
G0 X90.736 Y102.364
G0 X94.033 Y102.368
G0 X98.357 Y111.751
G1 F1500 X98.466 Y112.043 E37.11266
G0 F3000 X98.485 Y112.061
G1 F1500 X98.881 Y113.023 E37.16457
G1 X98.808 Y112.951 E37.16968
G1 X99.151 Y113.859 E37.21811
G1 X99.277 Y113.984 E37.22696
G1 X99.673 Y114.946 E37.27886
G1 X99.493 Y114.766 E37.29156
G1 X99.834 Y115.674 E37.33995
G1 X100.069 Y115.908 E37.3565
G1 X100.464 Y116.869 E37.40833
G1 X100.177 Y116.582 E37.42858
G1 X100.519 Y117.49 E37.47699
G1 X100.86 Y117.83 E37.50101
G1 X101.001 Y118.174 E37.51956
G1 X100.788 Y118.204 E37.53029
G1 F1500 E31.03029
;MESH:NONMESH
G0 F3000 X97.095 Y110.584
G0 X97.086 Y110.562
G0 X95.903 Y111.008
G0 X91.274 Y116.339
G0 X90.385 Y117.263
G0 X87.3 Y114.249
G0 X87.4 Y114.249
;TIME_ELAPSED:44.139155
;LAYER:1
M140 S50
M106 S204
;MESH:Glove_clip_V2_.stl
G0 F5100 X87.4 Y114.249 Z0.58
;TYPE:WALL-INNER
G1 F1500 E37.53029
G1 F2550 X90.751 Y117.6 E37.75096
G1 X92.679 Y117.6 E37.84074
G1 X93.673 Y119.09 E37.92414
G1 X93.879 Y119.4 E37.94147
G1 X93.507 Y119.4 E37.95117
G1 X93.506 Y119.4 E37.95122
G1 X90.248 Y119.4 E38.10292
G1 X85.6 Y114.752 E38.409
G1 X85.6 Y112.414 E38.51787
G1 X87.2 Y112.413 E38.59237
G1 X87.4 Y112.413 E38.60168
G1 X87.4 Y112.613 E38.60771
G1 X87.4 Y114.249 E38.68389
G0 F5100 X87.8 Y114.083
;TYPE:WALL-OUTER
G1 F1650 X90.917 Y117.2 E38.88915
G1 X92.893 Y117.2 E38.98116
G1 X94.421 Y119.49 E39.10935
G1 X94.627 Y119.8 E39.12668
G1 X94.255 Y119.8 E39.13638
G1 X94.254 Y119.8 E39.13643
G1 X90.082 Y119.8 E39.33069
G1 X85.2 Y114.918 E39.65218
G1 X85.2 Y112.014 E39.7874
G1 X87.6 Y112.013 E39.89916
G1 X87.8 Y112.013 E39.90847
G1 X87.8 Y112.213 E39.9145
G1 X87.8 Y114.083 E40.00158
G0 F5100 X87.941 Y114.224
G0 X87.587 Y114.577
G0 X87.01 Y114.411
;TYPE:SKIN
G1 F1650 X90.589 Y117.99 E40.23726
G1 X92.471 Y117.99 E40.32489
G1 X93.151 Y119.01 E40.38198
G1 X90.408 Y119.01 E40.5097
G1 X85.99 Y114.592 E40.80063
G1 X85.99 Y112.804 E40.88389
G1 X87.01 Y112.803 E40.93139
G1 X87.01 Y114.411 E41.00626
G0 F5100 X86.369 Y113.183
G1 F1650 X86.37 Y113.316 E41.01245
G1 X86.504 Y113.182 E41.02128
G0 F5100 X86.37 Y113.316
G1 F1650 X86.37 Y113.882 E41.04763
G1 X86.63 Y113.622 E41.06476
G1 X86.63 Y114.187 E41.09106
G1 X86.376 Y114.441 E41.10779
G1 X86.659 Y114.724 E41.12643
G1 X86.723 Y114.66 E41.13064
G1 X87.005 Y114.943 E41.14924
G1 X86.942 Y115.007 E41.15343
G1 X87.225 Y115.29 E41.17206
G1 X87.288 Y115.226 E41.17624
G1 X87.571 Y115.509 E41.19488
G1 X87.507 Y115.573 E41.19909
G1 X87.79 Y115.855 E41.2177
G1 X87.854 Y115.792 E41.22188
G1 X88.137 Y116.075 E41.24052
G1 X88.073 Y116.138 E41.2447
G1 X88.356 Y116.421 E41.26333
G1 X88.42 Y116.357 E41.26755
G1 X88.703 Y116.64 E41.28618
G1 X88.639 Y116.704 E41.2904
G1 X88.922 Y116.987 E41.30903
G1 X88.985 Y116.923 E41.31322
G1 X89.268 Y117.206 E41.33185
G1 X89.205 Y117.27 E41.33603
G1 X89.487 Y117.552 E41.3546
G1 X89.551 Y117.489 E41.35879
G1 X89.834 Y117.772 E41.37742
G1 X89.77 Y117.835 E41.3816
G1 X90.053 Y118.118 E41.40024
G1 X90.117 Y118.055 E41.40442
G1 X90.4 Y118.337 E41.42302
G1 X90.336 Y118.401 E41.42724
G1 X90.564 Y118.629 E41.44225
G1 X90.674 Y118.629 E41.44737
G1 X90.934 Y118.368 E41.46453
G1 X91.5 Y118.368 E41.49088
G1 X91.24 Y118.629 E41.50804
G1 X91.805 Y118.629 E41.53435
G1 X92.066 Y118.368 E41.55153
G1 X92.266 Y118.368 E41.56085
G1 X92.412 Y118.588 E41.57314
G1 X92.44 Y118.629 E41.57545
G1 F1500 E35.07545
G0 F5100 X93.862 Y119.391
G0 X94.921 Y118.684
G0 X98.416 Y117.678
G0 X99.599 Y117.231
G0 X94.576 Y100.633
G0 X101.601 Y117.69
G0 X132.63 Y113.551
G0 X132.674 Y106.401
G0 X132.6 Y106.467
;TYPE:WALL-INNER
G1 F1500 E41.57545
G1 F2550 X102.486 Y102.867 E42.98767
G1 X101.629 Y101.399 E43.06682
G1 X101.614 Y101.339 E43.0697
G1 X101.614 Y101.338 E43.06975
G1 X101.614 Y101.261 E43.07334
G1 X101.637 Y101.172 E43.07762
G1 X101.67 Y101.108 E43.08097
G1 X101.767 Y101.021 E43.08704
G1 X101.818 Y100.999 E43.08962
G1 X101.819 Y100.999 E43.08967
G1 X101.933 Y100.982 E43.09504
G1 X133.999 Y105.559 E44.6033
G1 X134.141 Y105.607 E44.61028
G1 X134.197 Y105.645 E44.61343
G1 X134.25 Y105.705 E44.61716
G1 X134.28 Y105.767 E44.62036
G1 X134.302 Y105.873 E44.6254
G1 X134.307 Y110 E44.81758
G1 X134.302 Y114.127 E45.00975
G1 X134.28 Y114.233 E45.01479
G1 X134.25 Y114.295 E45.01799
G1 X134.197 Y114.355 E45.02172
G1 X134.14 Y114.394 E45.02494
G1 X133.998 Y114.442 E45.03192
G1 X100.359 Y119.249 E46.6142
G1 X94.011 Y102.4 E47.4526
G1 X90.751 Y102.4 E47.6044
G1 X87.4 Y105.751 E47.82507
G1 X87.4 Y109.711 E48.00946
G1 X85.6 Y109.711 E48.09328
G1 X85.6 Y105.248 E48.30109
G1 X90.248 Y100.6 E48.60717
G1 X94.598 Y100.6 E48.80972
G1 X101.621 Y117.656 E49.66862
G1 X132.6 Y113.525 E51.1239
G1 X132.6 Y106.467 E51.45255
G0 F5100 X132.2 Y106.822
;TYPE:WALL-OUTER
G1 F1650 X102.241 Y103.24 E52.8575
G1 X101.256 Y101.552 E52.9485
G1 X101.213 Y101.387 E52.95644
G1 X101.215 Y101.208 E52.96478
G1 X101.26 Y101.03 E52.97333
G1 X101.346 Y100.864 E52.98203
G1 X101.497 Y100.719 E52.99178
G1 X101.58 Y100.666 E52.99637
G1 X101.709 Y100.61 E53.00291
G1 X101.912 Y100.581 E53.01246
G1 X102.007 Y100.584 E53.01689
G1 X134.094 Y105.168 E54.52616
G1 X134.318 Y105.244 E54.53718
G1 X134.466 Y105.344 E54.5455
G1 X134.585 Y105.482 E54.55398
G1 X134.662 Y105.637 E54.56204
G1 X134.702 Y105.831 E54.57126
G1 X134.707 Y110 E54.76539
G1 X134.702 Y114.169 E54.95952
G1 X134.662 Y114.363 E54.96874
G1 X134.585 Y114.518 E54.9768
G1 X134.466 Y114.656 E54.98528
G1 X134.317 Y114.757 E54.99366
G1 X134.093 Y114.833 E55.00468
G1 X100.098 Y119.69 E56.6037
G1 X93.734 Y102.8 E57.44415
G1 X90.917 Y102.8 E57.57532
G1 X87.8 Y105.917 E57.78058
G1 X87.8 Y110.111 E57.97587
G1 X85.2 Y110.111 E58.09694
G1 X85.2 Y105.082 E58.33111
G1 X90.082 Y100.2 E58.6526
G1 X94.866 Y100.2 E58.87536
G1 X101.874 Y117.219 E59.73239
G1 X132.2 Y113.175 E61.157
G1 X132.2 Y106.822 E61.45282
G0 F5100 X132.002 Y106.799
G0 X132.061 Y106.303
G0 X132.99 Y106.12
;TYPE:SKIN
G1 F1650 X102.725 Y102.502 E62.87212
G1 X102.08 Y101.397 E62.9317
G1 X133.913 Y105.941 E64.429
G1 X133.917 Y110 E64.618
G1 X133.909 Y114.061 E64.8071
G1 X100.614 Y118.818 E66.3732
G1 X94.28 Y102.01 E67.20958
G1 X90.589 Y102.01 E67.38145
G1 X87.01 Y105.589 E67.61713
G1 X87.01 Y109.321 E67.79091
G1 X85.99 Y109.321 E67.8384
G1 X85.99 Y105.408 E68.02061
G1 X90.408 Y100.99 E68.31154
G1 X94.337 Y100.99 E68.49449
G1 X101.375 Y118.083 E69.35524
G1 X132.99 Y113.866 E70.84041
G1 X132.99 Y106.12 E71.20109
G0 F5100 X133.527 Y113.731
G1 F1650 X133.527 Y113.676 E71.20366
G1 X133.462 Y113.741 E71.20794
G0 F5100 X133.527 Y113.676
G1 F1650 X133.529 Y113.109 E71.23434
G1 X133.368 Y113.27 E71.24494
G1 X133.368 Y112.704 E71.27129
G1 X133.53 Y112.543 E71.28193
G1 X133.531 Y111.976 E71.30833
G1 X133.368 Y112.138 E71.31903
G1 X133.368 Y111.572 E71.34539
G1 X133.532 Y111.408 E71.35619
G1 X133.534 Y110.841 E71.38259
G1 X133.368 Y111.007 E71.39352
G1 X133.368 Y110.441 E71.41988
G1 X133.535 Y110.274 E71.43087
G1 X133.536 Y109.999 E71.44368
G1 X133.535 Y109.709 E71.45718
G1 X133.368 Y109.875 E71.46815
G1 X133.368 Y109.31 E71.49446
G1 X133.534 Y109.144 E71.50539
G1 X133.534 Y108.579 E71.5317
G1 X133.368 Y108.744 E71.54259
G1 X133.368 Y108.178 E71.56895
G1 X133.533 Y108.014 E71.57978
G1 X133.532 Y107.449 E71.60609
G1 X133.368 Y107.613 E71.61689
G1 X133.368 Y107.047 E71.64325
G1 X133.532 Y106.884 E71.65401
G1 X133.532 Y106.318 E71.68037
G1 X133.368 Y106.481 E71.69114
G1 X133.368 Y106.247 E71.70203
G1 X133.532 Y106.27 E71.70974
G0 F5100 X113.342 Y103.388
G1 F1650 X113.278 Y103.379 E71.71275
G1 X112.783 Y103.308 E71.73604
G0 F5100 X112.771 Y103.32
G1 F1650 X112.265 Y103.26 E71.75976
G0 F5100 X112.288 Y103.237
G1 F1650 X111.793 Y103.166 E71.78305
G0 F5100 X111.761 Y103.199
G1 F1650 X111.255 Y103.139 E71.80678
G0 F5100 X111.298 Y103.096
G1 F1650 X110.803 Y103.025 E71.83006
G0 F5100 X110.75 Y103.078
G1 F1650 X110.245 Y103.018 E71.85374
G1 X110.308 Y102.954 E71.85792
G1 X109.813 Y102.884 E71.8812
G1 X109.739 Y102.958 E71.88607
G1 X109.234 Y102.897 E71.90976
G1 X109.318 Y102.813 E71.91529
G1 X108.823 Y102.742 E71.93858
G1 X108.728 Y102.837 E71.94483
G1 X108.224 Y102.776 E71.96847
G1 X108.328 Y102.671 E71.97535
G1 X107.833 Y102.601 E71.99863
G1 X107.718 Y102.716 E72.00621
G1 X107.212 Y102.656 E72.02993
G1 X107.338 Y102.53 E72.03823
G1 X106.843 Y102.459 E72.06151
G1 X106.708 Y102.595 E72.07044
