;FLAVOR:Marlin
;TIME:4696
;Filament used: 7.02127m
;Layer height: 0.2
;Generated with Cura_SteamEngine 3.2.1
M190 S60
M104 S190
M109 S190
M82 ;absolute extrusion mode
G21 ;metric values
G90 ;absolute positioning
M82 ;set extruder to absolute mode
M107 ;start with the fan off
G28 X0 Y0 ;move X/Y to min endstops
G28 Z0 ;move Z to min endstops
G1 Z15.0 F9000 ;move the platform down 15mm
G92 E0 ;zero the extruded length
G1 F200 E3 ;extrude 3mm of feed stock
G92 E0 ;zero the extruded length again
G1 F9000
;Put printing message on LCD screen
M117 Printing...
;LAYER_COUNT:74
;LAYER:-6
M107
G0 F3600 X79.57 Y69.948 Z0.36
G1 F1350 X80.287 Y69.172 E0.12651
G1 X80.781 Y68.693 E0.2089
G1 X83.121 Y66.545 E0.58923
G1 X83.953 Y65.842 E0.71965
G1 X84.412 Y65.497 E0.7884
G1 X86.943 Y63.666 E1.16244
G1 X87.821 Y63.08 E1.28883
G1 X88.317 Y62.787 E1.35781
G1 X91.082 Y61.238 E1.7373
G1 X92.049 Y60.746 E1.86721
G1 X92.484 Y60.552 E1.92424
G1 X95.44 Y59.316 E2.30787
G1 X96.3 Y58.991 E2.41795
G1 X97.009 Y58.766 E2.50702
G1 X99.91 Y57.928 E2.86858
G1 X100.942 Y57.669 E2.99598
G1 X101.627 Y57.536 E3.07953
G1 X104.727 Y57.022 E3.45578
G1 X105.798 Y56.887 E3.58503
G1 X106.343 Y56.848 E3.65045
G1 X109.445 Y56.692 E4.02235
G1 X110.576 Y56.68 E4.15778
G1 X111.104 Y56.702 E4.22105
G1 X114.14 Y56.9 E4.58534
G1 X115.212 Y57.007 E4.71434
G1 X115.884 Y57.112 E4.79578
G1 X118.97 Y57.674 E5.17136
G1 X119.942 Y57.889 E5.29056
G1 X120.607 Y58.072 E5.37314
G1 X123.563 Y58.975 E5.74323
G1 X124.597 Y59.335 E5.87433
G1 X125.125 Y59.553 E5.94273
G1 X128.003 Y60.81 E6.31876
G1 X129.016 Y61.3 E6.4535
G1 X129.518 Y61.579 E6.52227
G1 X132.202 Y63.142 E6.89416
G1 X133.104 Y63.715 E7.02211
G1 X133.664 Y64.119 E7.10479
G1 X136.078 Y65.925 E7.46577
G1 X136.949 Y66.633 E7.60017
G1 X137.35 Y66.997 E7.66502
G1 X139.616 Y69.142 E8.03862
G1 X140.354 Y69.894 E8.16478
G1 X140.742 Y70.337 E8.23529
G1 X142.767 Y72.752 E8.61266
G1 X143.35 Y73.503 E8.7265
G1 X143.744 Y74.063 E8.80848
G1 X145.412 Y76.595 E9.17153
G1 X145.976 Y77.52 E9.30125
G1 X146.27 Y78.066 E9.3755
G1 X147.689 Y80.871 E9.75189
G1 X148.122 Y81.812 E9.87592
G1 X148.38 Y82.462 E9.95966
G1 X149.427 Y85.315 E10.32354
G1 X149.748 Y86.302 E10.44781
G1 X149.92 Y86.939 E10.52682
G1 X150.654 Y89.976 E10.90093
G1 X150.878 Y91.094 E11.03745
G1 X150.959 Y91.661 E11.10603
G1 X151.332 Y94.763 E11.48013
G1 X151.412 Y95.704 E11.59321
G1 X151.434 Y96.374 E11.67348
G1 X151.452 Y99.546 E12.05329
G1 X151.416 Y100.63 E12.18315
G1 X151.365 Y101.21 E12.25287
G1 X151.032 Y104.212 E12.61452
G1 X150.882 Y105.241 E12.73903
G1 X150.75 Y105.899 E12.81939
G1 X150.046 Y108.979 E13.19769
G1 X149.791 Y109.932 E13.31581
G1 X149.576 Y110.597 E13.39949
G1 X148.53 Y113.536 E13.77302
G1 X148.188 Y114.398 E13.88406
G1 X147.915 Y114.998 E13.96299
G1 X146.554 Y117.782 E14.33404
G1 X146.051 Y118.725 E14.46201
G1 X145.668 Y119.357 E14.55049
G1 X144.051 Y121.87 E14.9083
G1 X143.382 Y122.825 E15.04791
G1 X143.051 Y123.248 E15.11223
G1 X141.029 Y125.715 E15.49416
G1 X140.297 Y126.539 E15.62613
G1 X139.881 Y126.957 E15.69674
G1 X137.748 Y129.019 E16.05197
G1 X137.343 Y129.398 E16.11838
G1 X137.357 Y129.412 E16.12075
G1 X137.193 Y129.58 E16.14886
G1 X136.782 Y130.125 E16.2306
G1 X136.441 Y130.717 E16.3124
G1 X136.18 Y131.348 E16.39416
G1 X136 Y132.007 E16.47596
G1 X135.903 Y132.683 E16.55773
G1 X135.894 Y133.366 E16.63951
G1 X135.97 Y134.044 E16.7212
G1 X136.131 Y134.707 E16.8029
G1 X136.375 Y135.344 E16.88457
G1 X136.697 Y135.947 E16.96642
G1 X137.09 Y136.499 E17.04756
G1 X137.373 Y136.822 E17.09898
G1 X138.016 Y137.616 E17.22131
G1 X138.132 Y137.771 E17.24449
G1 X138.622 Y138.482 E17.34789
G1 X138.73 Y138.654 E17.3722
G1 X139.399 Y139.833 E17.53452
G1 X139.785 Y140.659 E17.64369
G1 X139.851 Y140.815 E17.66397
G1 X140.175 Y141.665 E17.77289
G1 X140.228 Y141.821 E17.79261
G1 X140.484 Y142.671 E17.89891
G1 X140.532 Y142.861 E17.92237
G1 X140.782 Y144.044 E18.06715
G1 X140.8 Y144.142 E18.07908
G1 X140.922 Y145.112 E18.19614
G1 X140.936 Y145.273 E18.21549
G1 X140.99 Y146.553 E18.36889
G1 X140.991 Y150.668 E18.8616
G1 X140.955 Y151.661 E18.98058
G1 X140.846 Y152.715 E19.10745
G1 X140.82 Y152.896 E19.12935
G1 X140.627 Y153.915 E19.25353
G1 X140.349 Y154.957 E19.38266
G1 X140.049 Y155.838 E19.49409
G1 X139.65 Y156.792 E19.61791
G1 X139.579 Y156.943 E19.63789
G1 X139.083 Y157.899 E19.76685
G1 X138.626 Y158.649 E19.87201
G1 X138.517 Y158.813 E19.89559
G1 X138.013 Y159.519 E19.99945
G1 X137.894 Y159.672 E20.02266
G1 X137.322 Y160.363 E20.13007
G1 X136.592 Y161.128 E20.25668
G1 X136.467 Y161.248 E20.27743
G1 X135.798 Y161.848 E20.38503
G1 X135.664 Y161.96 E20.40594
G1 X134.832 Y162.596 E20.53133
G1 X134.075 Y163.098 E20.64009
G1 X133.928 Y163.188 E20.66073
G1 X133.005 Y163.7 E20.78711
G1 X132.199 Y164.078 E20.8937
G1 X132.026 Y164.152 E20.91623
G1 X131.185 Y164.474 E21.02406
G1 X131.032 Y164.526 E21.04341
G1 X130.177 Y164.784 E21.15034
G1 X129.999 Y164.831 E21.17239
G1 X129.146 Y165.022 E21.27705
G1 X128.98 Y165.052 E21.29725
G1 X128.075 Y165.187 E21.40681
G1 X127.909 Y165.205 E21.4268
G1 X126.841 Y165.279 E21.55499
G1 X126.331 Y165.287 E21.61606
G1 X93.557 Y165.286 E25.5403
G1 X92.433 Y165.241 E25.675
G1 X91.341 Y165.114 E25.80663
G1 X90.329 Y164.922 E25.92996
G1 X89.435 Y164.688 E26.04061
G1 X88.43 Y164.352 E26.1675
G1 X88.264 Y164.289 E26.18876
G1 X87.461 Y163.948 E26.29322
G1 X87.272 Y163.86 E26.31818
G1 X86.478 Y163.451 E26.42512
G1 X86.361 Y163.386 E26.44115
G1 X85.582 Y162.911 E26.55039
G1 X85.431 Y162.811 E26.57208
G1 X84.569 Y162.187 E26.6995
G1 X83.878 Y161.611 E26.80721
G1 X83.765 Y161.51 E26.82536
G1 X83.116 Y160.885 E26.93324
G1 X82.996 Y160.76 E26.95399
G1 X82.393 Y160.089 E27.06201
G1 X81.738 Y159.249 E27.18955
G1 X81.141 Y158.359 E27.31787
G1 X80.616 Y157.433 E27.44533
G1 X80.544 Y157.294 E27.46407
G1 X80.161 Y156.478 E27.572
G1 X80.096 Y156.324 E27.59202
G1 X79.772 Y155.477 E27.7006
G1 X79.715 Y155.312 E27.7215
G1 X79.465 Y154.477 E27.82587
G1 X79.418 Y154.304 E27.84733
G1 X79.217 Y153.403 E27.95787
G1 X79.06 Y152.365 E28.08357
G1 X79.043 Y152.205 E28.10283
G1 X78.968 Y151.131 E28.23174
G1 X78.96 Y150.636 E28.29102
G1 X78.96 Y146.493 E28.78709
G1 X78.995 Y145.513 E28.9045
G1 X79.124 Y144.308 E29.04961
G1 X79.208 Y143.797 E29.11162
G1 X79.422 Y142.846 E29.22833
G1 X79.481 Y142.622 E29.25607
G1 X79.726 Y141.809 E29.35774
G1 X79.788 Y141.627 E29.38076
G1 X80.166 Y140.656 E29.50553
G1 X80.586 Y139.761 E29.6239
G1 X81.074 Y138.888 E29.74366
G1 X81.651 Y138.001 E29.87036
G1 X81.746 Y137.868 E29.88993
G1 X82.302 Y137.147 E29.99894
G1 X82.41 Y137.019 E30.019
G1 X83.286 Y136.058 E30.1747
G1 X84.009 Y135.386 E30.29288
G1 X84.148 Y135.267 E30.31479
G1 X84.839 Y134.713 E30.42084
G1 X84.978 Y134.609 E30.44163
G1 X85.682 Y134.124 E30.54399
G1 X85.876 Y134.001 E30.57149
G1 X87.046 Y133.338 E30.73251
G1 X87.872 Y132.952 E30.84168
G1 X88.029 Y132.886 E30.86207
G1 X88.899 Y132.554 E30.97357
G1 X89.455 Y132.381 E31.04329
G1 X90.084 Y132.148 E31.12361
G1 X90.689 Y131.833 E31.20528
G1 X91.25 Y131.442 E31.28716
G1 X91.756 Y130.984 E31.36888
G1 X92.201 Y130.466 E31.45064
G1 X92.577 Y129.896 E31.53241
G1 X92.878 Y129.283 E31.61418
G1 X93.109 Y128.596 E31.70096
G1 X93.161 Y128.405 E31.72466
G1 X93.313 Y127.928 E31.78461
G1 X94.323 Y124.955 E32.16056
G1 X94.931 Y123.449 E32.35503
G1 X96.219 Y120.683 E32.72037
G1 X96.732 Y119.69 E32.85419
G1 X96.983 Y119.26 E32.91381
G1 X97.274 Y118.782 E32.98082
G1 X97.584 Y118.188 E33.06104
G1 X97.822 Y117.549 E33.14269
G1 X97.977 Y116.883 E33.22456
G1 X98.047 Y116.204 E33.3063
G1 X98.031 Y115.521 E33.3881
G1 X97.93 Y114.846 E33.46982
G1 X97.743 Y114.189 E33.55161
G1 X97.475 Y113.562 E33.63326
G1 X97.13 Y112.972 E33.71509
G1 X96.713 Y112.431 E33.79688
G1 X96.232 Y111.947 E33.87858
G1 X95.693 Y111.528 E33.96033
G1 X95.106 Y111.179 E34.0421
G1 X94.48 Y110.908 E34.12377
G1 X93.823 Y110.718 E34.20567
G1 X93.149 Y110.612 E34.28736
G1 X92.469 Y110.593 E34.36881
G1 X91.952 Y110.635 E34.43092
G1 X91.127 Y110.744 E34.53056
G1 X90.926 Y110.762 E34.55472
G1 X89.577 Y110.825 E34.71642
G1 X83.257 Y110.824 E35.47316
G1 X82.133 Y110.779 E35.60785
G1 X81.041 Y110.652 E35.73948
G1 X80.029 Y110.46 E35.86282
G1 X78.988 Y110.184 E35.99177
G1 X78.36 Y109.976 E36.07098
G1 X77.347 Y109.575 E36.20143
G1 X76.382 Y109.107 E36.32985
G1 X75.613 Y108.67 E36.43576
G1 X75.43 Y108.554 E36.4617
G1 X74.389 Y107.839 E36.61291
G1 X73.622 Y107.213 E36.73146
G1 X73.469 Y107.079 E36.75581
G1 X72.831 Y106.475 E36.86101
G1 X72.705 Y106.347 E36.88251
G1 X71.993 Y105.561 E37.0095
G1 X71.447 Y104.866 E37.11532
G1 X70.961 Y104.172 E37.21677
G1 X70.367 Y103.182 E37.35501
G1 X69.967 Y102.4 E37.46018
G1 X69.875 Y102.202 E37.48632
G1 X69.542 Y101.412 E37.58897
G1 X69.472 Y101.222 E37.61322
G1 X69.038 Y99.869 E37.78335
G1 X68.817 Y98.898 E37.90259
G1 X68.786 Y98.735 E37.92246
G1 X68.649 Y97.838 E38.03111
G1 X68.633 Y97.697 E38.0481
G1 X68.563 Y96.787 E38.15738
G1 X68.555 Y96.588 E38.18123
G1 X68.551 Y95.739 E38.28288
G1 X68.557 Y95.563 E38.30397
G1 X68.683 Y94.083 E38.48182
G1 X69.1 Y91.018 E38.85219
G1 X69.27 Y90.032 E38.972
G1 X69.411 Y89.415 E39.04778
G1 X70.212 Y86.307 E39.43208
G1 X70.479 Y85.405 E39.54471
G1 X70.695 Y84.795 E39.6222
G1 X71.805 Y81.904 E39.99299
G1 X72.219 Y80.932 E40.11949
G1 X72.494 Y80.369 E40.19452
G1 X73.928 Y77.627 E40.56502
G1 X74.444 Y76.722 E40.68976
G1 X74.823 Y76.13 E40.77393
G1 X76.602 Y73.521 E41.15203
G1 X77.251 Y72.647 E41.28238
G1 X77.566 Y72.268 E41.34139
G1 X79.57 Y69.948 E41.70846
G0 F3600 X105.691 Y94.449
G1 F1350 X105.297 Y94.957 E41.78544
G1 X105.252 Y95.023 E41.795
G1 X104.835 Y95.754 E41.89577
G1 X104.57 Y96.423 E41.98193
G1 X104.547 Y96.496 E41.99109
G1 X104.376 Y97.19 E42.07667
G1 X104.256 Y97.886 E42.16124
G1 X104.184 Y98.552 E42.24145
G1 X104.197 Y99.235 E42.32324
G1 X104.295 Y99.911 E42.40503
G1 X104.477 Y100.568 E42.48666
G1 X104.742 Y101.198 E42.5685
G1 X105.085 Y101.789 E42.65032
G1 X105.498 Y102.333 E42.7321
G1 X105.977 Y102.819 E42.8138
G1 X106.513 Y103.241 E42.89549
G1 X107.099 Y103.593 E42.97734
G1 X107.724 Y103.867 E43.05905
G1 X108.379 Y104.061 E43.14084
G1 X109.053 Y104.17 E43.22259
G1 X109.735 Y104.194 E43.3043
G1 X110.415 Y104.131 E43.38607
G1 X111.081 Y103.983 E43.46776
G1 X111.727 Y103.751 E43.54995
G1 X112.452 Y103.367 E43.64818
G1 X112.921 Y103.07 E43.71465
G1 X113.45 Y102.688 E43.79278
G1 X113.635 Y102.535 E43.82153
G1 X114.204 Y101.989 E43.91595
G1 X114.644 Y101.434 E44.00075
G1 X115.046 Y100.764 E44.09431
G1 X115.358 Y100.023 E44.19058
G1 X115.544 Y99.34 E44.27534
G1 X115.559 Y99.263 E44.28473
G1 X115.653 Y98.516 E44.37488
G1 X115.649 Y97.794 E44.46133
G1 X115.524 Y96.945 E44.56408
G1 X115.341 Y96.304 E44.6439
G1 X114.997 Y95.521 E44.7463
G1 X114.627 Y94.914 E44.83142
G1 X114.024 Y94.191 E44.94415
G1 X113.569 Y93.777 E45.0178
G1 X112.797 Y93.249 E45.12979
G1 X112.185 Y92.946 E45.21156
G1 X111.398 Y92.681 E45.31099
G1 X111.318 Y92.661 E45.32087
G1 X110.652 Y92.54 E45.40192
G1 X109.912 Y92.501 E45.49064
G1 X109.827 Y92.502 E45.50082
G1 X108.981 Y92.587 E45.60263
G1 X108.257 Y92.766 E45.69193
G1 X107.533 Y93.053 E45.78518
G1 X106.947 Y93.374 E45.86518
G1 X106.199 Y93.934 E45.97707
G1 X105.691 Y94.449 E46.06368
G0 F3600 X105.6 Y94.567
G1 F1350 X105.6 Y56.911 E50.57248
G0 F3600 X107.2 Y56.804
G1 F1350 X107.2 Y93.236 E54.93472
G0 F3600 X108.8 Y92.632
G1 F1350 X108.8 Y56.724 E59.23422
G0 F3600 X110.4 Y56.681
G1 F1350 X110.4 Y92.526 E63.52617
G0 F3600 X112 Y92.883
G1 F1350 X112 Y56.761 E67.85129
G0 F3600 X113.6 Y56.865
G1 F1350 X113.6 Y93.805 E72.27436
G0 F3600 X115.2 Y95.983
G1 F1350 X115.2 Y57.006 E76.94133
G0 F3600 X116.8 Y57.279
G1 F1350 X116.8 Y165.286 E89.87371
G0 F3600 X118.4 Y165.286
G1 F1350 X118.4 Y57.571 E102.77112
G0 F3600 X120 Y57.905
G1 F1350 X120 Y165.286 E115.62854
G0 F3600 X121.6 Y165.286
G1 F1350 X121.6 Y58.376 E128.42957
G0 F3600 X123.2 Y58.865
G1 F1350 X123.2 Y165.286 E141.17205
G0 F3600 X124.8 Y165.286
G1 F1350 X124.8 Y59.419 E153.84819
G0 F3600 X126.4 Y60.11
G1 F1350 X126.4 Y165.286 E166.4416
G0 F3600 X128 Y165.196
G1 F1350 X128 Y60.809 E178.94053
G0 F3600 X129.6 Y61.627
G1 F1350 X129.6 Y164.921 E191.30859
G0 F3600 X131.2 Y164.469
G1 F1350 X131.2 Y62.559 E203.51093
G0 F3600 X132.8 Y63.522
G1 F1350 X132.8 Y163.797 E215.51751
G0 F3600 X134.4 Y162.883
G1 F1350 X134.4 Y64.67 E227.27719
G0 F3600 X136 Y65.867
G1 F1350 X136 Y132.007 E235.19656
G0 F3600 X136 Y134.168
G1 F1350 X136 Y161.667 E238.4892
G0 F3600 X137.6 Y160.028
G1 F1350 X137.6 Y137.103 E241.23415
G0 F3600 X139.2 Y139.483
G1 F1350 X139.2 Y157.674 E243.41228
G0 F3600 X140.8 Y153.002
G1 F1350 X140.8 Y144.142 E244.47315
G0 F3600 X136.572 Y134.571
G0 X136.355 Y133.348
G0 X136.364 Y132.719
G0 X136.452 Y132.094
G0 X136.544 Y131.758
G0 X137.6 Y129.158
G1 F1350 X137.6 Y67.234 E251.88771
G0 F3600 X139.2 Y68.749
G1 F1350 X139.2 Y127.616 E258.93624
G0 F3600 X140.8 Y125.973
G1 F1350 X140.8 Y70.407 E265.58951
G0 F3600 X142.4 Y72.315
G1 F1350 X142.4 Y124.043 E271.78324
G0 F3600 X144 Y121.943
G1 F1350 X144 Y74.452 E277.46965
G0 F3600 X145.6 Y76.904
G1 F1350 X145.6 Y119.463 E282.56551
G0 F3600 X147.2 Y116.461
G1 F1350 X147.2 Y79.905 E286.9426
G0 F3600 X148.8 Y83.607
G1 F1350 X148.8 Y112.778 E290.43543
G0 F3600 X150.4 Y107.431
G1 F1350 X150.4 Y88.926 E292.65116
G0 F3600 X115.2 Y100.398
G1 F1350 X115.2 Y165.286 E300.42062
G0 F3600 X113.6 Y165.286
G1 F1350 X113.6 Y102.563 E307.93085
G0 F3600 X112 Y103.606
G1 F1350 X112 Y165.286 E315.3162
G0 F3600 X110.4 Y165.286
G1 F1350 X110.4 Y104.132 E322.63856
G0 F3600 X108.8 Y104.13
G1 F1350 X108.8 Y165.286 E329.96117
G0 F3600 X107.2 Y165.286
G1 F1350 X107.2 Y103.638 E337.34268
G0 F3600 X105.6 Y102.437
G1 F1350 X105.6 Y165.286 E344.868
G0 F3600 X104 Y165.286
G1 F1350 X104 Y57.142 E357.81678
G0 F3600 X102.4 Y57.407
G1 F1350 X102.4 Y165.286 E370.73383
G0 F3600 X100.8 Y165.286
G1 F1350 X100.8 Y57.704 E383.61532
G0 F3600 X99.2 Y58.133
G1 F1350 X99.2 Y165.286 E396.44545
G0 F3600 X97.6 Y165.286
G1 F1350 X97.6 Y118.145 E402.08995
G0 F3600 X96 Y121.153
G1 F1350 X96 Y165.286 E407.37428
G0 F3600 X94.4 Y165.286
G1 F1350 X94.4 Y124.764 E412.22624
G0 F3600 X92.8 Y129.441
G1 F1350 X92.8 Y165.255 E416.51448
G0 F3600 X91.2 Y165.087
G1 F1350 X91.2 Y131.476 E420.53894
G0 F3600 X89.6 Y132.327
G1 F1350 X89.6 Y164.731 E424.41888
G0 F3600 X88 Y164.176
G1 F1350 X88 Y132.898 E428.164
G0 F3600 X86.4 Y133.704
G1 F1350 X86.4 Y163.407 E431.72054
G0 F3600 X84.8 Y162.354
G1 F1350 X84.8 Y134.744 E435.02646
G0 F3600 X83.2 Y136.152
G1 F1350 X83.2 Y160.965 E437.99748
G0 F3600 X81.6 Y159.043
G1 F1350 X81.6 Y138.079 E440.50764
G0 F3600 X80 Y141.082
G1 F1350 X80 Y156.073 E442.30261
G0 F3600 X92.45 Y129.107
G0 X97.382 Y117.409
G0 X97.523 Y116.805
G0 X97.586 Y116.191
G0 X97.571 Y115.563
G0 X97.478 Y114.938
G0 X97.06 Y113.764
G0 X96.75 Y113.232
G0 X96.371 Y112.74
G0 X95.921 Y112.289
G0 X95.434 Y111.909
G0 X94.899 Y111.592
G0 X94.321 Y111.342
G0 X93.724 Y111.168
G0 X93.022 Y111.105
G0 X83.2 Y110.821
G1 F1350 X83.2 Y66.478 E447.61208
G0 F3600 X84.8 Y65.216
G1 F1350 X84.8 Y110.824 E453.07302
G0 F3600 X86.4 Y110.824
G1 F1350 X86.4 Y64.058 E458.67262
G0 F3600 X88 Y62.974
G1 F1350 X88 Y110.824 E464.40201
G0 F3600 X89.6 Y110.824
G1 F1350 X89.6 Y62.068 E470.23988
G0 F3600 X91.2 Y61.177
G1 F1350 X91.2 Y110.735 E476.17378
G0 F3600 X92.8 Y110.602
G1 F1350 X92.8 Y60.419 E482.18252
G0 F3600 X94.4 Y59.75
G1 F1350 X94.4 Y110.884 E488.30512
G0 F3600 X96 Y111.766
G1 F1350 X96 Y59.104 E494.61069
G0 F3600 X97.6 Y58.595
G1 F1350 X97.6 Y113.854 E501.22721
G0 F3600 X95.921 Y112.289
G0 X95.434 Y111.909
G0 X94.899 Y111.592
G0 X94.321 Y111.342
